(Exported by FreeCAD)
(Post Processor: mach3_mach4_post)
(Output Time:2026-05-15 09:06:25.145064)
(begin preamble)
G17 G54 G40 G49 G80 G90
G21
(begin operation: Fixture)
(machine: mach3_4, mm/min)
G54
(finish operation: Fixture)
(begin operation: TC: 6mm Endmill custom)
(machine: mach3_4, mm/min)
(TC: 6mm Endmill custom)
M5
M6 T3 
G43 H3
M3 S19000
(finish operation: TC: 6mm Endmill custom)
(begin operation: RampEntryDressup008)
(machine: mach3_4, mm/min)
G0 Z20.093
G0 X424.492 Y127.031 Z20.093
G0 X424.492 Y127.031 Z18.093
G2 X425.371 Y124.908 Z17.944 I-2.121 J-2.122 F1330.000
G1 X425.367 Y83.508 Z15.315 F1330.000
G2 X422.367 Y80.509 Z15.016 I-3.000 J0.000 F1330.000
G1 X402.367 Y80.510 Z13.746 F1330.000
G2 X399.367 Y83.511 Z13.447 I0.000 J3.000 F1330.000
G3 X399.371 Y124.911 Z10.818 I-210120.865 J41.399 F1330.000
G2 X402.371 Y127.910 Z10.519 I3.000 J-0.000 F1330.000
G3 X415.704 Y127.909 Z9.673 I140.276 J1350484.099 F1330.000
G1 X415.705 Y127.909 Z9.673 F1330.000
G3 X422.371 Y127.909 Z9.249 I25.948 J252119.119 F1330.000
G2 X424.492 Y127.031 Z9.100 I-0.000 J-3.000 F1330.000
G1 X424.492 Y127.031 Z3.100 F200.000
G2 X425.371 Y124.908 Z3.100 I-2.121 J-2.122 F1330.000
G1 X425.368 Y95.903 Z3.100 F1330.000
G1 X425.368 Y93.858 Z5.165 F1330.000
G1 X425.368 Y91.814 Z3.100 F1330.000
G1 X425.367 Y83.508 Z3.100 F1330.000
G2 X422.367 Y80.509 Z3.100 I-3.000 J0.000 F1330.000
G1 X402.367 Y80.510 Z3.100 F1330.000
G2 X399.367 Y83.511 Z3.100 I0.000 J3.000 F1330.000
G3 X399.371 Y124.911 Z3.100 I-210120.865 J41.399 F1330.000
G2 X402.371 Y127.910 Z3.100 I3.000 J-0.000 F1330.000
G3 X415.704 Y127.909 Z3.100 I140.276 J1350484.099 F1330.000
G1 X415.705 Y127.909 Z3.100 F1330.000
G3 X422.371 Y127.909 Z3.100 I25.948 J252119.119 F1330.000
G2 X424.492 Y127.031 Z3.100 I-0.000 J-3.000 F1330.000
G1 X424.492 Y127.031 Z0.095 F200.000
G2 X425.371 Y124.908 Z0.095 I-2.121 J-2.122 F1330.000
G1 X425.369 Y98.878 Z0.095 F1330.000
G1 X425.368 Y93.858 Z5.165 F1330.000
G1 X425.368 Y88.839 Z0.095 F1330.000
G1 X425.367 Y83.508 Z0.095 F1330.000
G2 X422.367 Y80.509 Z0.095 I-3.000 J0.000 F1330.000
G1 X402.367 Y80.510 Z0.095 F1330.000
G2 X399.367 Y83.511 Z0.095 I0.000 J3.000 F1330.000
G3 X399.371 Y124.911 Z0.095 I-210120.865 J41.399 F1330.000
G2 X402.371 Y127.910 Z0.095 I3.000 J-0.000 F1330.000
G3 X415.704 Y127.909 Z0.095 I140.276 J1350484.099 F1330.000
G1 X415.705 Y127.909 Z0.095 F1330.000
G3 X422.371 Y127.909 Z0.095 I25.948 J252119.119 F1330.000
G2 X424.492 Y127.031 Z0.095 I-0.000 J-3.000 F1330.000
G0 X424.492 Y127.031 Z20.093
(finish operation: RampEntryDressup008)
(begin postamble)
M05
G17 G54 G90 G80 G40
M2
