(Exported by FreeCAD)
(Post Processor: mach3_mach4_post)
(Output Time:2026-05-11 11:38:12.465839)
(begin preamble)
G17 G54 G40 G49 G80 G90
G21
(begin operation: Fixture)
(machine: mach3_4, mm/min)
G54
(finish operation: Fixture)
(begin operation: TC: 6mm Endmill custom)
(machine: mach3_4, mm/min)
(TC: 6mm Endmill custom)
M5
M6 T3 
G43 H3
M3 S19000
(finish operation: TC: 6mm Endmill custom)
(begin operation: DressupPathBoundary009)
(machine: mach3_4, mm/min)
(Profile019)
(Compensated Tool Path. Diameter: 6.0)
G0 Z18.093
G0 Z20.093
G0 X551.000 Y59.077
G0 Z18.093
G1 Z9.100 F200.000
G1 X526.687 Y45.043 Z9.100 F1330.000
G2 X525.187 Y44.641 Z9.100 I-1.500 J2.598 F1330.000
G1 X233.149 Y44.669 Z9.100 F1330.000
G2 X231.882 Y44.765 Z9.100 I0.249 J11.704 F1330.000
G1 X231.884 Y44.778 Z9.100 F1330.000
G2 X224.150 Y53.670 Z9.100 I1.235 J8.884 F1330.000
G1 X224.151 Y71.670 Z9.100 F1330.000
G2 X233.152 Y80.670 Z9.100 I9.008 J-0.009 F1330.000
G1 X516.349 Y80.642 Z9.100 F1330.000
G1 X548.500 Y99.201 Z9.100 F1330.000
G2 X551.000 Y99.431 Z9.100 I1.500 J-2.598 F1330.000
G0 Z18.093
G0 Z20.093
G0 X551.000 Y59.077
G0 Z18.093
G1 Z3.100 F200.000
G1 X526.687 Y45.043 Z3.100 F1330.000
G2 X525.187 Y44.641 Z3.100 I-1.500 J2.598 F1330.000
G1 X233.149 Y44.669 Z3.100 F1330.000
G2 X231.882 Y44.765 Z3.100 I0.249 J11.704 F1330.000
G1 X231.884 Y44.778 Z3.100 F1330.000
G2 X224.150 Y53.670 Z3.100 I1.235 J8.884 F1330.000
G1 X224.151 Y71.670 Z3.100 F1330.000
G2 X233.152 Y80.670 Z3.100 I9.008 J-0.009 F1330.000
G1 X516.349 Y80.642 Z3.100 F1330.000
G1 X548.500 Y99.201 Z3.100 F1330.000
G2 X551.000 Y99.431 Z3.100 I1.500 J-2.598 F1330.000
G0 Z18.093
G0 Z20.093
G0 X551.000 Y59.077
G0 Z18.093
G1 Z0.098 F200.000
G1 X526.687 Y45.043 Z0.098 F1330.000
G2 X525.187 Y44.641 Z0.098 I-1.500 J2.598 F1330.000
G1 X233.149 Y44.669 Z0.098 F1330.000
G2 X231.882 Y44.765 Z0.098 I0.249 J11.704 F1330.000
G1 X231.884 Y44.778 Z0.098 F1330.000
G2 X224.150 Y53.670 Z0.098 I1.235 J8.884 F1330.000
G1 X224.151 Y71.670 Z0.098 F1330.000
G2 X233.152 Y80.670 Z0.098 I9.008 J-0.009 F1330.000
G1 X516.349 Y80.642 Z0.098 F1330.000
G1 X548.500 Y99.201 Z0.098 F1330.000
G2 X551.000 Y99.431 Z0.098 I1.500 J-2.598 F1330.000
G0 Z18.093
G0 Z20.093
(finish operation: DressupPathBoundary009)
(begin postamble)
M05
G17 G54 G90 G80 G40
M2
