(Exported by FreeCAD)
(Post Processor: mach3_mach4_post)
(Output Time:2026-05-15 09:06:25.145064)
(begin preamble)
G17 G54 G40 G49 G80 G90
G21
(begin operation: Fixture)
(machine: mach3_4, mm/min)
G54
(finish operation: Fixture)
(begin operation: TC: 6mm Endmill custom)
(machine: mach3_4, mm/min)
(TC: 6mm Endmill custom)
M5
M6 T3 
G43 H3
M3 S19000
(finish operation: TC: 6mm Endmill custom)
(begin operation: DressupPathBoundary014)
(machine: mach3_4, mm/min)
(Profile019)
(Compensated Tool Path. Diameter: 6.0)
G0 Z18.093
G0 Z20.093
G0 X433.094 Y44.650
G0 Z18.093
G1 Z16.100 F200.000
G1 X233.149 Y44.669 Z13.646 F1321.173
G2 X231.882 Y44.765 Z13.631 I0.243 J11.623 F1330.000
G1 X231.884 Y44.778 Z13.631 F1330.000
G2 X224.150 Y53.670 Z13.473 I1.234 J8.884 F1330.000
G1 X224.151 Y71.670 Z13.252 F1330.000
G2 X233.152 Y80.670 Z13.079 I9.008 J-0.009 F1330.000
G1 X516.349 Y80.642 Z9.604 F1330.000
G1 X548.500 Y99.201 Z9.148 F1330.000
G1 X548.923 Y99.400 Z9.142 F1321.164
G1 X549.371 Y99.532 Z9.137 F1321.164
G1 X549.684 Y99.581 Z9.133 F1321.169
G1 X550.000 Y99.597 Z9.129 F1321.169
G0 Z18.093
G0 Z20.093
G0 X550.000 Y58.500
G0 Z18.093
G1 Z8.757 F200.000
G1 X526.687 Y45.043 Z8.537 F1324.111
G2 X525.187 Y44.641 Z8.524 I-1.500 J2.598 F1330.000
G1 X233.149 Y44.669 Z6.133 F1330.000
G2 X231.882 Y44.765 Z6.123 I0.243 J11.623 F1330.000
G1 X231.884 Y44.778 Z6.123 F1330.000
G2 X224.150 Y53.670 Z6.017 I1.234 J8.884 F1330.000
G1 X224.151 Y71.670 Z5.870 F1330.000
G2 X233.152 Y80.670 Z5.754 I9.008 J-0.009 F1330.000
G1 X516.349 Y80.642 Z3.436 F1330.000
G1 X548.500 Y99.201 Z3.132 F1330.000
G1 X548.923 Y99.400 Z3.128 F1324.105
G1 X549.371 Y99.532 Z3.124 F1324.105
G1 X549.684 Y99.581 Z3.122 F1324.108
G1 X550.000 Y99.597 Z3.119 F1324.108
G0 Z18.093
G0 Z20.093
G0 X550.000 Y58.500
G0 Z18.093
G1 Z2.928 F200.000
G1 X526.687 Y45.043 Z2.818 F1327.053
G2 X525.187 Y44.641 Z2.812 I-1.500 J2.598 F1330.000
G1 X233.149 Y44.669 Z1.615 F1330.000
G2 X231.882 Y44.765 Z1.610 I0.243 J11.623 F1330.000
G1 X231.884 Y44.778 Z1.610 F1330.000
G2 X224.150 Y53.670 Z1.557 I1.234 J8.884 F1330.000
G1 X224.151 Y71.670 Z1.484 F1330.000
G2 X233.152 Y80.670 Z1.426 I9.008 J-0.009 F1330.000
G1 X516.349 Y80.642 Z0.266 F1330.000
G1 X548.500 Y99.201 Z0.114 F1330.000
G1 X548.923 Y99.400 Z0.112 F1327.050
G1 X549.371 Y99.532 Z0.110 F1327.050
G1 X549.684 Y99.581 Z0.108 F1327.052
G1 X550.000 Y99.597 Z0.107 F1327.052
G0 Z18.093
G0 Z20.093
G0 X550.000 Y58.500
G0 Z18.093
G1 Z0.098 F200.000
G1 X526.687 Y45.043 Z0.098 F1330.000
G2 X525.187 Y44.641 Z0.098 I-1.500 J2.598 F1330.000
G1 X233.149 Y44.669 Z0.098 F1330.000
G2 X231.882 Y44.765 Z0.098 I0.243 J11.623 F1330.000
G1 X231.884 Y44.778 Z0.098 F1330.000
G2 X224.150 Y53.670 Z0.098 I1.234 J8.884 F1330.000
G1 X224.151 Y71.670 Z0.098 F1330.000
G2 X233.152 Y80.670 Z0.098 I9.008 J-0.009 F1330.000
G1 X516.349 Y80.642 Z0.098 F1330.000
G1 X548.500 Y99.201 Z0.098 F1330.000
G2 X550.000 Y99.597 Z0.098 I1.492 J-2.611 F1330.000
G0 Z18.093
G0 Z20.093
(finish operation: DressupPathBoundary014)
(begin postamble)
M05
G17 G54 G90 G80 G40
M2
