(Exported by FreeCAD)
(Post Processor: mach3_mach4_post)
(Output Time:2026-05-15 09:06:25.145064)
(begin preamble)
G17 G54 G40 G49 G80 G90
G21
(begin operation: Fixture)
(machine: mach3_4, mm/min)
G54
(finish operation: Fixture)
(begin operation: TC: 6mm Endmill custom)
(machine: mach3_4, mm/min)
(TC: 6mm Endmill custom)
M5
M6 T3 
G43 H3
M3 S19000
(finish operation: TC: 6mm Endmill custom)
(begin operation: RampEntryDressup005)
(machine: mach3_4, mm/min)
G0 Z20.093
G0 X215.762 Y111.312 Z20.093
G0 X215.762 Y111.312 Z18.093
G2 X195.077 Y61.808 Z14.712 I-20.505 J-20.505 F1330.000
G2 X193.491 Y61.862 Z14.634 I0.179 J28.998 F1330.000
G2 X196.394 Y119.783 Z10.168 I1.766 J28.945 F1330.000
G2 X215.762 Y111.312 Z9.100 I-1.137 J-28.977 F1330.000
G0 X215.762 Y111.312 Z20.093
G0 X163.792 Y95.776 Z20.093
G0 X163.792 Y95.776 Z18.093
G2 X135.828 Y58.471 Z15.420 I-27.784 J-8.306 F1330.000
G2 X134.242 Y58.524 Z15.342 I0.179 J28.998 F1330.000
G2 X137.145 Y116.446 Z10.876 I1.766 J28.945 F1330.000
G2 X163.792 Y95.776 Z9.100 I-1.137 J-28.977 F1330.000
G0 X163.792 Y95.776 Z20.093
G0 X172.919 Y60.882 Z20.093
G0 X172.919 Y60.882 Z18.093
G2 X181.394 Y61.804 Z17.671 I7.338 J-28.055 F1330.000
G2 X180.078 Y3.829 Z13.222 I-1.137 J-28.977 F1330.000
G2 X178.491 Y3.882 Z13.143 I0.179 J28.998 F1330.000
G2 X172.919 Y60.882 Z9.100 I1.766 J28.945 F1330.000
G0 X172.919 Y60.882 Z20.093
G0 X144.034 Y43.879 Z20.093
G0 X144.034 Y43.879 Z18.093
G2 X118.864 Y0.169 Z15.075 I-24.991 J-14.711 F1330.000
G2 X117.277 Y0.222 Z14.996 I0.179 J28.998 F1330.000
G2 X120.180 Y58.144 Z10.531 I1.766 J28.945 F1330.000
G2 X144.034 Y43.879 Z9.100 I-1.137 J-28.977 F1330.000
G1 X144.034 Y43.879 Z3.100 F200.000
G2 X118.864 Y0.169 Z3.100 I-24.991 J-14.711 F1330.000
G2 X117.277 Y0.222 Z3.100 I0.179 J28.998 F1330.000
G2 X120.180 Y58.144 Z3.100 I1.766 J28.945 F1330.000
G2 X125.647 Y57.405 Z3.100 I-1.137 J-28.977 F1330.000
G1 X126.461 Y57.202 Z3.744 F1330.000
G1 X126.765 Y57.120 Z3.959 F1330.000
G1 X127.362 Y56.948 Z4.327 F1330.000
G1 X127.871 Y56.790 Z4.563 F1330.000
G1 X128.333 Y56.638 Z4.699 F1330.000
G1 X128.796 Y56.477 Z4.749 F1330.000
G1 X129.201 Y56.329 Z4.716 F1330.000
G1 X129.710 Y56.133 Z4.575 F1330.000
G1 X130.132 Y55.963 Z4.382 F1330.000
G1 X130.775 Y55.688 Z3.981 F1330.000
G1 X131.352 Y55.425 Z3.534 F1330.000
G1 X131.850 Y55.185 Z3.100 F1330.000
G2 X144.034 Y43.879 Z3.100 I-12.807 J-26.018 F1330.000
G0 X144.034 Y43.879 Z20.093
G0 X152.520 Y41.289 Z20.093
G0 X152.520 Y41.289 Z18.093
G1 X152.520 Y41.289 Z3.100 F200.000
G2 X167.721 Y58.976 Z3.100 I27.737 J-8.462 F1330.000
G1 X169.246 Y59.654 Z4.780 F1330.000
G1 X170.060 Y59.974 Z5.661 F1330.000
G1 X170.883 Y60.269 Z6.542 F1330.000
G1 X171.791 Y60.563 Z7.488 F1330.000
G1 X171.899 Y60.595 Z7.564 F1330.000
G1 X171.964 Y60.615 Z7.520 F1330.000
G1 X172.226 Y60.692 Z7.272 F1330.000
G1 X172.248 Y60.698 Z7.249 F1330.000
G1 X172.785 Y60.847 Z6.692 F1330.000
G1 X173.633 Y61.059 Z5.811 F1330.000
G1 X174.955 Y61.337 Z4.450 F1330.000
G1 X176.279 Y61.552 Z3.100 F1330.000
G2 X181.394 Y61.804 Z3.100 I3.978 J-28.725 F1330.000
G2 X189.267 Y5.263 Z3.100 I-1.137 J-28.977 F1330.000
G1 X188.096 Y4.908 Z4.332 F1330.000
G1 X186.515 Y4.511 Z5.976 F1330.000
G1 X185.767 Y4.356 Z6.748 F1330.000
G1 X185.416 Y4.291 Z7.107 F1330.000
G1 X185.050 Y4.227 Z7.481 F1330.000
G1 X184.927 Y4.207 Z7.583 F1330.000
G1 X184.568 Y4.150 Z7.267 F1330.000
G1 X184.085 Y4.082 Z6.775 F1330.000
G1 X183.504 Y4.010 Z6.185 F1330.000
G1 X182.057 Y3.884 Z4.720 F1330.000
G1 X181.657 Y3.862 Z4.316 F1330.000
G1 X180.451 Y3.829 Z3.100 F1330.000
G2 X180.078 Y3.829 Z3.100 I-0.194 J28.998 F1330.000
G2 X178.491 Y3.882 Z3.100 I0.179 J28.998 F1330.000
G2 X152.520 Y41.289 Z3.100 I1.766 J28.945 F1330.000
G0 X152.520 Y41.289 Z20.093
G0 X145.771 Y60.164 Z20.093
G0 X145.771 Y60.164 Z18.093
G1 X145.771 Y60.164 Z3.100 F200.000
G2 X135.828 Y58.471 Z3.100 I-9.764 J27.306 F1330.000
G2 X134.242 Y58.524 Z3.100 I0.179 J28.998 F1330.000
G2 X134.204 Y58.527 Z3.100 I1.766 J28.945 F1330.000
G1 X132.758 Y58.653 Z4.562 F1330.000
G1 X132.018 Y58.746 Z5.315 F1330.000
G1 X130.933 Y58.918 Z6.424 F1330.000
G1 X130.394 Y59.019 Z6.979 F1330.000
G1 X129.773 Y59.149 Z7.619 F1330.000
G1 X130.070 Y59.085 Z7.932 F1330.000
G1 X128.731 Y59.398 Z6.543 F1330.000
G1 X127.334 Y59.798 Z5.076 F1330.000
G1 X125.485 Y60.447 Z3.100 F1330.000
G2 X129.073 Y115.627 Z3.100 I10.523 J27.022 F1330.000
G1 X130.741 Y115.986 Z4.818 F1330.000
G1 X131.583 Y116.129 Z5.678 F1330.000
G1 X132.477 Y116.253 Z6.588 F1330.000
G1 X132.826 Y116.294 Z6.942 F1330.000
G1 X133.376 Y116.349 Z7.487 F1330.000
G1 X133.489 Y116.359 Z7.561 F1330.000
G1 X133.582 Y116.367 Z7.515 F1330.000
G1 X133.902 Y116.392 Z7.206 F1330.000
G1 X133.926 Y116.394 Z7.182 F1330.000
G1 X134.477 Y116.428 Z6.627 F1330.000
G1 X135.028 Y116.452 Z6.071 F1330.000
G1 X136.082 Y116.468 Z5.009 F1330.000
G1 X137.145 Y116.446 Z3.938 F1330.000
G1 X137.976 Y116.402 Z3.100 F1330.000
G2 X145.771 Y60.164 Z3.100 I-1.968 J-28.932 F1330.000
G0 X145.771 Y60.164 Z20.093
G0 X170.602 Y75.540 Z20.093
G0 X170.602 Y75.540 Z18.093
G1 X170.602 Y75.540 Z3.100 F200.000
G2 X185.862 Y118.242 Z3.100 I24.655 J15.267 F1330.000
G1 X187.486 Y118.745 Z4.812 F1330.000
G1 X188.308 Y118.961 Z5.669 F1330.000
G1 X189.200 Y119.166 Z6.592 F1330.000
G1 X189.585 Y119.246 Z6.987 F1330.000
G1 X190.094 Y119.342 Z7.500 F1330.000
G1 X190.190 Y119.360 Z7.560 F1330.000
G1 X190.234 Y119.367 Z7.559 F1330.000
G1 X190.234 Y119.368 Z7.559 F1330.000
G1 X190.937 Y119.482 Z6.867 F1330.000
G1 X191.391 Y119.547 Z6.406 F1330.000
G1 X192.170 Y119.641 Z5.615 F1330.000
G1 X193.617 Y119.759 Z4.151 F1330.000
G1 X194.660 Y119.800 Z3.100 F1330.000
G2 X196.394 Y119.783 Z3.100 I0.596 J-28.993 F1330.000
G2 X214.344 Y68.975 Z3.100 I-1.137 J-28.977 F1330.000
G1 X213.073 Y67.926 Z4.758 F1330.000
G1 X212.393 Y67.413 Z5.617 F1330.000
G1 X211.699 Y66.919 Z6.475 F1330.000
G1 X211.275 Y66.633 Z6.988 F1330.000
G1 X210.807 Y66.329 Z7.519 F1330.000
G1 X210.738 Y66.286 Z7.541 F1330.000
G1 X210.618 Y66.211 Z7.445 F1330.000
G1 X210.314 Y66.023 Z7.097 F1330.000
G1 X210.297 Y66.013 Z7.077 F1330.000
G1 X209.780 Y65.707 Z6.474 F1330.000
G1 X208.776 Y65.152 Z5.319 F1330.000
G1 X207.475 Y64.507 Z3.857 F1330.000
G1 X206.789 Y64.199 Z3.100 F1330.000
G2 X195.077 Y61.808 Z3.100 I-11.532 J26.608 F1330.000
G2 X193.491 Y61.862 Z3.100 I0.179 J28.998 F1330.000
G2 X170.602 Y75.540 Z3.100 I1.766 J28.945 F1330.000
G1 X170.602 Y75.540 Z0.098 F200.000
G2 X183.087 Y117.129 Z0.098 I24.655 J15.267 F1330.000
G1 X184.417 Y117.704 Z1.551 F1330.000
G1 X185.776 Y118.212 Z3.008 F1330.000
G1 X186.420 Y118.427 Z3.692 F1330.000
G1 X186.452 Y118.437 Z3.725 F1330.000
G1 X187.800 Y118.831 Z5.141 F1330.000
G1 X188.514 Y119.011 Z5.882 F1330.000
G1 X189.232 Y119.173 Z6.624 F1330.000
G1 X189.625 Y119.254 Z7.028 F1330.000
G1 X190.025 Y119.330 Z7.436 F1330.000
G1 X190.190 Y119.360 Z7.563 F1330.000
G1 X190.229 Y119.367 Z7.565 F1330.000
G1 X190.283 Y119.376 Z7.523 F1330.000
G1 X190.943 Y119.483 Z6.861 F1330.000
G1 X191.672 Y119.583 Z6.120 F1330.000
G1 X192.870 Y119.707 Z4.906 F1330.000
G1 X194.072 Y119.782 Z3.693 F1330.000
G1 X195.524 Y119.805 Z2.231 F1330.000
G1 X196.394 Y119.783 Z1.358 F1330.000
G1 X197.649 Y119.707 Z0.098 F1330.000
G2 X216.492 Y71.058 Z0.098 I-2.392 J-28.900 F1330.000
G1 X215.478 Y70.021 Z1.550 F1330.000
G1 X214.182 Y68.834 Z3.316 F1330.000
G1 X212.961 Y67.840 Z4.901 F1330.000
G1 X212.355 Y67.385 Z5.665 F1330.000
G1 X211.689 Y66.912 Z6.487 F1330.000
G1 X211.253 Y66.619 Z7.014 F1330.000
G1 X210.807 Y66.329 Z7.519 F1330.000
G1 X210.738 Y66.286 Z7.541 F1330.000
G1 X210.618 Y66.211 Z7.445 F1330.000
G1 X210.314 Y66.023 Z7.097 F1330.000
G1 X210.297 Y66.013 Z7.077 F1330.000
G1 X209.780 Y65.707 Z6.474 F1330.000
G1 X208.776 Y65.152 Z5.319 F1330.000
G1 X207.475 Y64.507 Z3.857 F1330.000
G1 X206.958 Y64.273 Z3.286 F1330.000
G1 X205.614 Y63.720 Z1.826 F1330.000
G1 X203.986 Y63.153 Z0.098 F1330.000
G2 X195.077 Y61.808 Z0.098 I-8.729 J27.654 F1330.000
G2 X193.491 Y61.862 Z0.098 I0.179 J28.998 F1330.000
G2 X170.602 Y75.540 Z0.098 I1.766 J28.945 F1330.000
G0 X170.602 Y75.540 Z20.093
G0 X163.422 Y78.015 Z20.093
G0 X163.422 Y78.015 Z18.093
G1 X163.422 Y78.015 Z0.098 F200.000
G2 X137.191 Y58.495 Z0.098 I-27.415 J9.454 F1330.000
G1 X135.828 Y58.471 Z1.465 F1330.000
G1 X134.242 Y58.524 Z3.061 F1330.000
G1 X132.797 Y58.649 Z4.524 F1330.000
G1 X131.061 Y58.896 Z6.294 F1330.000
G1 X130.430 Y59.012 Z6.941 F1330.000
G1 X129.773 Y59.149 Z7.619 F1330.000
G1 X128.904 Y59.354 Z6.723 F1330.000
G1 X127.505 Y59.745 Z5.257 F1330.000
G1 X126.127 Y60.206 Z3.791 F1330.000
G1 X124.774 Y60.735 Z2.328 F1330.000
G1 X123.449 Y61.331 Z0.868 F1330.000
G1 X122.761 Y61.673 Z0.098 F1330.000
G2 X126.210 Y114.763 Z0.098 I13.247 J25.796 F1330.000
G1 X127.587 Y115.219 Z1.551 F1330.000
G1 X129.532 Y115.736 Z3.574 F1330.000
G1 X131.001 Y116.033 Z5.084 F1330.000
G1 X131.716 Y116.149 Z5.813 F1330.000
G1 X132.484 Y116.254 Z6.595 F1330.000
G1 X132.792 Y116.290 Z6.907 F1330.000
G1 X133.306 Y116.342 Z7.422 F1330.000
G1 X133.446 Y116.355 Z7.545 F1330.000
G1 X133.512 Y116.361 Z7.559 F1330.000
G1 X133.648 Y116.372 Z7.455 F1330.000
G1 X133.821 Y116.386 Z7.286 F1330.000
G1 X134.234 Y116.414 Z6.872 F1330.000
G1 X134.698 Y116.439 Z6.404 F1330.000
G1 X135.938 Y116.468 Z5.153 F1330.000
G1 X137.145 Y116.446 Z3.938 F1330.000
G1 X138.595 Y116.353 Z2.476 F1330.000
G1 X140.038 Y116.187 Z1.017 F1330.000
G1 X140.492 Y116.120 Z0.558 F1330.000
G1 X140.945 Y116.045 Z0.098 F1330.000
G2 X163.422 Y78.015 Z0.098 I-4.938 J-28.576 F1330.000
G0 X163.422 Y78.015 Z20.093
G0 X170.133 Y60.002 Z20.093
G0 X170.133 Y60.002 Z18.093
G1 X170.133 Y60.002 Z5.740 F200.000
G1 X171.344 Y60.422 Z7.030 F1330.000
G1 X171.813 Y60.570 Z7.507 F1330.000
G1 X171.921 Y60.602 Z7.566 F1330.000
G1 X171.950 Y60.611 Z7.540 F1330.000
G1 X171.956 Y60.613 Z7.531 F1330.000
G1 X172.484 Y60.765 Z7.005 F1330.000
G1 X173.103 Y60.930 Z6.361 F1330.000
G1 X173.815 Y61.102 Z5.623 F1330.000
G1 X175.239 Y61.389 Z4.159 F1330.000
G1 X175.974 Y61.508 Z3.410 F1330.000
G1 X177.416 Y61.687 Z1.949 F1330.000
G1 X179.259 Y61.809 Z0.098 F1330.000
G2 X181.394 Y61.804 Z0.098 I0.998 J-28.982 F1330.000
G2 X192.056 Y6.337 Z0.098 I-1.137 J-28.977 F1330.000
G1 X190.717 Y5.780 Z1.551 F1330.000
G1 X189.352 Y5.291 Z3.009 F1330.000
G1 X188.170 Y4.929 Z4.255 F1330.000
G1 X188.112 Y4.912 Z4.315 F1330.000
G1 X186.586 Y4.527 Z5.903 F1330.000
G1 X185.816 Y4.366 Z6.697 F1330.000
G1 X185.455 Y4.298 Z7.067 F1330.000
G1 X185.050 Y4.227 Z7.481 F1330.000
G1 X184.927 Y4.207 Z7.583 F1330.000
G1 X184.568 Y4.150 Z7.267 F1330.000
G1 X184.085 Y4.082 Z6.775 F1330.000
G1 X183.504 Y4.010 Z6.185 F1330.000
G1 X182.057 Y3.884 Z4.720 F1330.000
G1 X181.657 Y3.862 Z4.316 F1330.000
G1 X180.078 Y3.829 Z2.724 F1330.000
G1 X178.491 Y3.882 Z1.129 F1330.000
G1 X177.465 Y3.963 Z0.098 F1330.000
G2 X170.133 Y60.002 Z0.098 I2.792 J28.864 F1330.000
G0 X170.133 Y60.002 Z20.093
G0 X143.871 Y44.152 Z20.093
G0 X143.871 Y44.152 Z18.093
G1 X143.871 Y44.152 Z0.098 F200.000
G2 X118.864 Y0.169 Z0.098 I-24.828 J-14.984 F1330.000
G2 X117.277 Y0.222 Z0.098 I0.179 J28.998 F1330.000
G2 X120.180 Y58.144 Z0.098 I1.766 J28.945 F1330.000
G2 X122.414 Y57.970 Z0.098 I-1.137 J-28.977 F1330.000
G1 X123.847 Y57.766 Z1.478 F1330.000
G1 X125.048 Y57.538 Z2.583 F1330.000
G1 X125.355 Y57.471 Z2.852 F1330.000
G1 X126.233 Y57.261 Z3.572 F1330.000
G1 X126.497 Y57.192 Z3.770 F1330.000
G1 X127.142 Y57.013 Z4.201 F1330.000
G1 X127.713 Y56.840 Z4.498 F1330.000
G1 X128.183 Y56.688 Z4.664 F1330.000
G1 X128.621 Y56.539 Z4.741 F1330.000
G1 X128.899 Y56.440 Z4.747 F1330.000
G1 X128.913 Y56.435 Z4.747 F1330.000
G1 X129.305 Y56.290 Z4.696 F1330.000
G1 X129.702 Y56.137 Z4.578 F1330.000
G1 X130.123 Y55.966 Z4.387 F1330.000
G1 X130.177 Y55.944 Z4.358 F1330.000
G1 X130.655 Y55.740 Z4.064 F1330.000
G1 X131.335 Y55.433 Z3.548 F1330.000
G1 X132.026 Y55.098 Z2.938 F1330.000
G1 X133.028 Y54.572 Z1.947 F1330.000
G1 X134.051 Y53.981 Z0.843 F1330.000
G1 X134.708 Y53.572 Z0.098 F1330.000
G2 X143.871 Y44.152 Z0.098 I-15.665 J-24.404 F1330.000
G0 X143.871 Y44.152 Z20.093
(finish operation: RampEntryDressup005)
(begin postamble)
M05
G17 G54 G90 G80 G40
M2
