(Exported by FreeCAD)
(Post Processor: mach3_mach4_post)
(Output Time:2026-05-11 11:38:12.465839)
(begin preamble)
G17 G54 G40 G49 G80 G90
G21
(begin operation: Fixture)
(machine: mach3_4, mm/min)
G54
(finish operation: Fixture)
(begin operation: TC: 6mm Endmill custom)
(machine: mach3_4, mm/min)
(TC: 6mm Endmill custom)
M5
M6 T3 
G43 H3
M3 S19000
(finish operation: TC: 6mm Endmill custom)
(begin operation: DressupPathBoundary008)
(machine: mach3_4, mm/min)
(Profile018)
(Compensated Tool Path. Diameter: 6.0)
G0 Z18.093
G0 Z20.093
G0 X551.000 Y15.647
G0 Z18.093
G1 Z9.100 F200.000
G1 X524.498 Y0.347 Z9.100 F1330.000
G0 Z18.093
G0 Z20.093
G0 X222.540 Y0.347
G0 Z18.093
G1 Z9.100 F200.000
G2 X219.192 Y7.347 Z9.100 I5.660 J7.008 F1330.000
G1 X219.192 Y25.347 Z9.100 F1330.000
G2 X228.192 Y34.347 Z9.100 I9.008 J-0.008 F1330.000
G1 X511.388 Y34.347 Z9.100 F1330.000
G1 X548.500 Y55.773 Z9.100 F1330.000
G2 X551.000 Y56.004 Z9.100 I1.500 J-2.598 F1330.000
G0 Z18.093
G0 Z20.093
G0 X551.000 Y15.647
G0 Z18.093
G1 Z3.100 F200.000
G1 X524.498 Y0.347 Z3.100 F1330.000
G0 Z18.093
G0 Z20.093
G0 X222.540 Y0.347
G0 Z18.093
G1 Z3.100 F200.000
G2 X219.192 Y7.347 Z3.100 I5.660 J7.008 F1330.000
G1 X219.192 Y25.347 Z3.100 F1330.000
G2 X228.192 Y34.347 Z3.100 I9.008 J-0.008 F1330.000
G1 X511.388 Y34.347 Z3.100 F1330.000
G1 X548.500 Y55.773 Z3.100 F1330.000
G2 X551.000 Y56.004 Z3.100 I1.500 J-2.598 F1330.000
G0 Z18.093
G0 Z20.093
G0 X551.000 Y15.647
G0 Z18.093
G1 Z0.098 F200.000
G1 X524.498 Y0.347 Z0.098 F1330.000
G0 Z18.093
G0 Z20.093
G0 X222.540 Y0.347
G0 Z18.093
G1 Z0.098 F200.000
G2 X219.192 Y7.347 Z0.098 I5.660 J7.008 F1330.000
G1 X219.192 Y25.347 Z0.098 F1330.000
G2 X228.192 Y34.347 Z0.098 I9.008 J-0.008 F1330.000
G1 X511.388 Y34.347 Z0.098 F1330.000
G1 X548.500 Y55.773 Z0.098 F1330.000
G2 X551.000 Y56.004 Z0.098 I1.500 J-2.598 F1330.000
G0 Z18.093
G0 Z20.093
(finish operation: DressupPathBoundary008)
(begin postamble)
M05
G17 G54 G90 G80 G40
M2
