(Exported by FreeCAD)
(Post Processor: mach3_mach4_post)
(Output Time:2026-05-11 11:38:12.465839)
(begin preamble)
G17 G54 G40 G49 G80 G90
G21
(begin operation: Fixture)
(machine: mach3_4, mm/min)
G54
(finish operation: Fixture)
(begin operation: TC: 6mm Endmill custom)
(machine: mach3_4, mm/min)
(TC: 6mm Endmill custom)
M5
M6 T3 
G43 H3
M3 S19000
(finish operation: TC: 6mm Endmill custom)
(begin operation: DressupTag003)
(machine: mach3_4, mm/min)
G0 Z20.093
G0 X87.124 Y100.408 Z20.093
G0 X87.124 Y100.408 Z18.093
G1 X87.124 Y100.408 Z9.100 F200.000
G2 X88.003 Y98.286 Z9.100 I-2.121 J-2.121 F1330.000
G3 X88.003 Y83.287 Z9.100 I384478.978 J-8.441 F1330.000
G2 X85.003 Y80.286 Z9.100 I-3.000 J-0.000 F1330.000
G2 X72.003 Y80.286 Z9.100 I-7.598 J404450.163 F1330.000
G1 X72.003 Y80.286 Z9.100 F1330.000
G1 X71.101 Y80.286 Z9.100 F1330.000
G3 X70.018 Y79.416 Z9.100 I-0.079 J-1.011 F1330.000
G3 X70.003 Y21.385 Z9.100 I28333.745 J-36.309 F1330.000
G3 X70.873 Y20.301 Z9.100 I1.011 J-0.079 F1330.000
G3 X85.003 Y20.286 Z9.100 I8.876 J1713.711 F1330.000
G2 X88.003 Y17.286 Z9.100 I0.000 J-3.000 F1330.000
G1 X88.003 Y2.286 Z9.100 F1330.000
G2 X85.003 Y-0.714 Z9.100 I-3.000 J0.000 F1330.000
G1 X47.003 Y-0.714 Z9.100 F1330.000
G2 X44.003 Y2.286 Z9.100 I-0.000 J3.000 F1330.000
G1 X44.003 Y98.286 Z9.100 F1330.000
G2 X47.003 Y101.286 Z9.100 I3.000 J-0.000 F1330.000
G1 X85.003 Y101.286 Z9.100 F1330.000
G2 X87.124 Y100.408 Z9.100 I0.000 J-3.000 F1330.000
G1 X87.124 Y100.408 Z3.100 F200.000
G2 X88.003 Y98.286 Z3.100 I-2.121 J-2.121 F1330.000
G3 X88.003 Y83.287 Z3.100 I384478.978 J-8.441 F1330.000
G2 X85.003 Y80.286 Z3.100 I-3.000 J-0.000 F1330.000
G2 X72.003 Y80.286 Z3.100 I-7.598 J404450.163 F1330.000
G1 X72.003 Y80.286 Z3.100 F1330.000
G1 X71.101 Y80.286 Z3.100 F1330.000
G3 X70.018 Y79.416 Z3.100 I-0.079 J-1.011 F1330.000
G3 X69.997 Y55.125 Z3.100 I28333.745 J-36.309 F1330.000
G3 X70.003 Y21.385 Z3.100 I28333.768 J-2.569 F1330.000
G3 X70.873 Y20.301 Z3.100 I1.011 J-0.079 F1330.000
G3 X85.003 Y20.286 Z3.100 I8.876 J1713.711 F1330.000
G2 X88.003 Y17.286 Z3.100 I0.000 J-3.000 F1330.000
G1 X88.003 Y2.286 Z3.100 F1330.000
G2 X85.003 Y-0.714 Z3.100 I-3.000 J0.000 F1330.000
G1 X47.003 Y-0.714 Z3.100 F1330.000
G2 X44.003 Y2.286 Z3.100 I-0.000 J3.000 F1330.000
G1 X44.003 Y69.562 Z3.100 F1330.000
G1 X44.003 Y74.061 Z7.599 F765.000
G1 X44.003 Y74.511 Z7.599 F1330.000
G1 X44.003 Y79.011 Z3.100 F765.000
G1 X44.003 Y98.286 Z3.100 F1330.000
G2 X47.003 Y101.286 Z3.100 I3.000 J-0.000 F1330.000
G1 X85.003 Y101.286 Z3.100 F1330.000
G2 X87.124 Y100.408 Z3.100 I0.000 J-3.000 F1330.000
G1 X87.124 Y100.408 Z0.099 F200.000
G2 X88.003 Y98.286 Z0.099 I-2.121 J-2.121 F1330.000
G3 X88.003 Y83.287 Z0.099 I384478.978 J-8.441 F1330.000
G2 X85.003 Y80.286 Z0.099 I-3.000 J-0.000 F1330.000
G2 X72.003 Y80.286 Z0.099 I-7.598 J404450.163 F1330.000
G1 X72.003 Y80.286 Z0.099 F1330.000
G1 X71.101 Y80.286 Z0.099 F1330.000
G3 X70.018 Y79.416 Z0.099 I-0.079 J-1.011 F1330.000
G3 X69.999 Y58.125 Z0.099 I28333.745 J-36.309 F1330.000
G3 X70.003 Y21.385 Z0.099 I28333.768 J0.432 F1330.000
G3 X70.873 Y20.301 Z0.099 I1.011 J-0.079 F1330.000
G3 X85.003 Y20.286 Z0.099 I8.876 J1713.711 F1330.000
G2 X88.003 Y17.286 Z0.099 I0.000 J-3.000 F1330.000
G1 X88.003 Y2.286 Z0.099 F1330.000
G2 X85.003 Y-0.714 Z0.099 I-3.000 J0.000 F1330.000
G1 X47.003 Y-0.714 Z0.099 F1330.000
G2 X44.003 Y2.286 Z0.099 I-0.000 J3.000 F1330.000
G1 X44.003 Y66.561 Z0.099 F1330.000
G1 X44.003 Y74.061 Z7.599 F765.000
G1 X44.003 Y74.511 Z7.599 F1330.000
G1 X44.003 Y82.011 Z0.099 F765.000
G1 X44.003 Y98.286 Z0.099 F1330.000
G2 X47.003 Y101.286 Z0.099 I3.000 J-0.000 F1330.000
G1 X85.003 Y101.286 Z0.099 F1330.000
G2 X87.124 Y100.408 Z0.099 I0.000 J-3.000 F1330.000
G0 X87.124 Y100.408 Z20.093
(finish operation: DressupTag003)
(begin postamble)
M05
G17 G54 G90 G80 G40
M2
