(Exported by FreeCAD)
(Post Processor: mach3_mach4_post)
(Output Time:2026-05-15 09:06:25.145064)
(begin preamble)
G17 G54 G40 G49 G80 G90
G21
(begin operation: Fixture)
(machine: mach3_4, mm/min)
G54
(finish operation: Fixture)
(begin operation: TC: 6mm Endmill custom)
(machine: mach3_4, mm/min)
(TC: 6mm Endmill custom)
M5
M6 T3 
G43 H3
M3 S19000
(finish operation: TC: 6mm Endmill custom)
(begin operation: RampEntryDressup003)
(machine: mach3_4, mm/min)
G0 Z20.093
G0 X43.124 Y100.875 Z20.093
G0 X43.124 Y100.875 Z18.093
G2 X44.003 Y98.753 Z18.027 I-2.121 J-2.121 F1330.000
G1 X44.003 Y2.753 Z15.324 F1330.000
G2 X41.003 Y-0.247 Z15.191 I-3.000 J0.000 F1330.000
G1 X3.003 Y-0.247 Z14.121 F1330.000
G2 X0.003 Y2.753 Z13.989 I-0.000 J3.000 F1330.000
G1 X0.003 Y17.753 Z13.566 F1330.000
G2 X3.003 Y20.753 Z13.434 I3.000 J-0.000 F1330.000
G2 X16.003 Y20.753 Z13.068 I6.882 J-992146.469 F1330.000
G1 X16.905 Y20.753 Z13.042 F1330.000
G3 X18.003 Y21.851 Z12.993 I0.076 J1.022 F1330.000
G1 X18.003 Y79.655 Z11.365 F1330.000
G3 X16.905 Y80.753 Z11.315 I-1.022 J0.076 F1330.000
G1 X3.003 Y80.753 Z10.924 F1330.000
G2 X0.003 Y83.753 Z10.791 I0.000 J3.000 F1330.000
G1 X0.003 Y98.753 Z10.369 F1330.000
G2 X3.003 Y101.753 Z10.236 I3.000 J0.000 F1330.000
G3 X25.632 Y101.753 Z9.599 I9.928 J1170514.742 F1330.000
G1 X25.632 Y101.753 Z9.599 F1330.000
G1 X27.193 Y101.753 Z9.555 F1330.000
G1 X27.193 Y101.753 Z9.555 F1330.000
G1 X41.003 Y101.753 Z9.166 F1330.000
G2 X43.124 Y100.875 Z9.100 I0.000 J-3.000 F1330.000
G1 X43.124 Y100.875 Z3.100 F200.000
G2 X44.003 Y98.753 Z3.100 I-2.121 J-2.121 F1330.000
G1 X44.003 Y31.478 Z3.100 F1330.000
G1 X44.003 Y26.978 Z7.600 F1330.000
G1 X44.003 Y26.528 Z7.600 F1330.000
G1 X44.003 Y22.028 Z3.100 F1330.000
G1 X44.003 Y2.753 Z3.100 F1330.000
G2 X41.003 Y-0.247 Z3.100 I-3.000 J0.000 F1330.000
G1 X3.003 Y-0.247 Z3.100 F1330.000
G2 X0.003 Y2.753 Z3.100 I-0.000 J3.000 F1330.000
G1 X0.003 Y17.753 Z3.100 F1330.000
G2 X3.003 Y20.753 Z3.100 I3.000 J-0.000 F1330.000
G2 X16.003 Y20.753 Z3.100 I6.882 J-992146.469 F1330.000
G1 X16.905 Y20.753 Z3.100 F1330.000
G3 X18.003 Y21.851 Z3.100 I0.076 J1.022 F1330.000
G1 X18.003 Y79.655 Z3.100 F1330.000
G3 X16.905 Y80.753 Z3.100 I-1.022 J0.076 F1330.000
G1 X3.003 Y80.753 Z3.100 F1330.000
G2 X0.003 Y83.753 Z3.100 I0.000 J3.000 F1330.000
G1 X0.003 Y98.753 Z3.100 F1330.000
G2 X3.003 Y101.753 Z3.100 I3.000 J0.000 F1330.000
G3 X25.632 Y101.753 Z3.100 I9.928 J1170514.742 F1330.000
G1 X25.632 Y101.753 Z3.100 F1330.000
G1 X27.193 Y101.753 Z3.100 F1330.000
G1 X27.193 Y101.753 Z3.100 F1330.000
G1 X41.003 Y101.753 Z3.100 F1330.000
G2 X43.124 Y100.875 Z3.100 I0.000 J-3.000 F1330.000
G1 X43.124 Y100.875 Z0.100 F200.000
G2 X44.003 Y98.753 Z0.100 I-2.121 J-2.121 F1330.000
G1 X44.003 Y34.478 Z0.100 F1330.000
G1 X44.003 Y26.978 Z7.600 F1330.000
G1 X44.003 Y26.528 Z7.600 F1330.000
G1 X44.003 Y19.028 Z0.100 F1330.000
G1 X44.003 Y2.753 Z0.100 F1330.000
G2 X41.003 Y-0.247 Z0.100 I-3.000 J0.000 F1330.000
G1 X3.003 Y-0.247 Z0.100 F1330.000
G2 X0.003 Y2.753 Z0.100 I-0.000 J3.000 F1330.000
G1 X0.003 Y17.753 Z0.100 F1330.000
G2 X3.003 Y20.753 Z0.100 I3.000 J-0.000 F1330.000
G2 X16.003 Y20.753 Z0.100 I6.882 J-992146.469 F1330.000
G1 X16.905 Y20.753 Z0.100 F1330.000
G3 X18.003 Y21.851 Z0.100 I0.076 J1.022 F1330.000
G1 X18.003 Y79.655 Z0.100 F1330.000
G3 X16.905 Y80.753 Z0.100 I-1.022 J0.076 F1330.000
G1 X3.003 Y80.753 Z0.100 F1330.000
G2 X0.003 Y83.753 Z0.100 I0.000 J3.000 F1330.000
G1 X0.003 Y98.753 Z0.100 F1330.000
G2 X3.003 Y101.753 Z0.100 I3.000 J0.000 F1330.000
G3 X25.632 Y101.753 Z0.100 I9.928 J1170514.742 F1330.000
G1 X25.632 Y101.753 Z0.100 F1330.000
G1 X27.193 Y101.753 Z0.100 F1330.000
G1 X27.193 Y101.753 Z0.100 F1330.000
G1 X41.003 Y101.753 Z0.100 F1330.000
G2 X43.124 Y100.875 Z0.100 I0.000 J-3.000 F1330.000
G0 X43.124 Y100.875 Z20.093
(finish operation: RampEntryDressup003)
(begin postamble)
M05
G17 G54 G90 G80 G40
M2
