(Exported by FreeCAD)
(Post Processor: mach3_mach4_post)
(Output Time:2026-05-11 11:38:12.465839)
(begin preamble)
G17 G54 G40 G49 G80 G90
G21
(begin operation: Fixture)
(machine: mach3_4, mm/min)
G54
(finish operation: Fixture)
(begin operation: TC: 6mm Endmill custom)
(machine: mach3_4, mm/min)
(TC: 6mm Endmill custom)
M5
M6 T3 
G43 H3
M3 S19000
(finish operation: TC: 6mm Endmill custom)
(begin operation: DressupTag004)
(machine: mach3_4, mm/min)
G0 Z20.093
G0 X139.549 Y49.673 Z20.093
G0 X139.549 Y49.673 Z18.093
G1 X139.549 Y49.673 Z9.100 F200.000
G2 X118.864 Y0.169 Z9.100 I-20.505 J-20.505 F1330.000
G2 X117.277 Y0.222 Z9.100 I0.179 J28.998 F1330.000
G2 X120.180 Y58.144 Z9.100 I1.766 J28.945 F1330.000
G2 X139.549 Y49.673 Z9.100 I-1.137 J-28.977 F1330.000
G1 X139.549 Y49.673 Z3.100 F200.000
G2 X138.574 Y7.732 Z3.100 I-20.505 J-20.505 F1330.000
G1 X137.732 Y6.994 Z4.229 F762.227
G1 X136.862 Y6.289 Z5.359 F761.824
G1 X135.965 Y5.618 Z6.489 F761.555
G1 X135.141 Y5.047 Z7.502 F761.428
G1 X135.089 Y5.013 Z7.564 F761.421
G1 X135.066 Y4.997 Z7.593 F761.421
G1 X135.042 Y4.981 Z7.622 F761.421
G1 X134.154 Y4.417 Z6.559 F761.421
G1 X132.896 Y3.691 Z5.093 F761.562
G1 X131.129 Y2.807 Z3.100 F762.021
G2 X118.864 Y0.169 Z3.100 I-12.086 J26.361 F1330.000
G2 X117.277 Y0.222 Z3.100 I0.179 J28.998 F1330.000
G2 X96.413 Y47.301 Z3.100 I1.766 J28.945 F1330.000
G1 X97.133 Y48.164 Z4.233 F762.226
G1 X97.882 Y48.996 Z5.363 F761.823
G1 X98.664 Y49.798 Z6.494 F761.555
G1 X99.066 Y50.188 Z7.059 F761.454
G1 X99.269 Y50.379 Z7.340 F761.429
G1 X99.370 Y50.472 Z7.479 F761.423
G1 X99.422 Y50.521 Z7.551 F761.422
G1 X99.446 Y50.543 Z7.584 F761.421
G1 X99.473 Y50.568 Z7.622 F761.421
G1 X100.792 Y51.703 Z5.865 F761.421
G1 X101.943 Y52.588 Z4.399 F761.718
G1 X103.000 Y53.325 Z3.100 F762.186
G2 X120.180 Y58.144 Z3.100 I16.043 J-24.157 F1330.000
G2 X139.549 Y49.673 Z3.100 I-1.137 J-28.977 F1330.000
G1 X139.549 Y49.673 Z0.097 F200.000
G2 X140.676 Y9.855 Z0.097 I-20.505 J-20.505 F1330.000
G1 X140.042 Y9.168 Z1.034 F764.038
G1 X139.387 Y8.502 Z1.973 F763.382
G1 X138.710 Y7.857 Z2.914 F762.820
G1 X138.016 Y7.237 Z3.852 F762.354
G1 X137.300 Y6.637 Z4.794 F761.981
G1 X136.564 Y6.060 Z5.737 F761.700
G1 X135.810 Y5.507 Z6.681 F761.514
G1 X135.428 Y5.241 Z7.151 F761.444
G1 X135.236 Y5.110 Z7.386 F761.427
G1 X135.139 Y5.046 Z7.504 F761.422
G1 X135.092 Y5.014 Z7.561 F761.421
G1 X135.067 Y4.998 Z7.591 F761.421
G1 X135.042 Y4.981 Z7.622 F761.421
G1 X133.642 Y4.112 Z5.957 F761.421
G1 X132.369 Y3.412 Z4.491 F761.694
G1 X131.063 Y2.777 Z3.027 F762.177
G1 X129.726 Y2.208 Z1.565 F762.886
G1 X128.352 Y1.703 Z0.097 F763.826
G2 X118.864 Y0.169 Z0.097 I-9.309 J27.464 F1330.000
G2 X117.277 Y0.222 Z0.097 I0.179 J28.998 F1330.000
G2 X94.667 Y44.876 Z0.097 I1.766 J28.945 F1330.000
G1 X95.186 Y45.653 Z1.034 F764.038
G1 X95.730 Y46.414 Z1.973 F763.382
G1 X96.298 Y47.156 Z2.914 F762.820
G1 X96.887 Y47.877 Z3.852 F762.354
G1 X97.501 Y48.581 Z4.794 F761.981
G1 X98.138 Y49.265 Z5.737 F761.700
G1 X98.797 Y49.929 Z6.681 F761.514
G1 X99.132 Y50.251 Z7.151 F761.444
G1 X99.302 Y50.410 Z7.386 F761.427
G1 X99.388 Y50.489 Z7.504 F761.422
G1 X99.429 Y50.527 Z7.561 F761.421
G1 X99.451 Y50.547 Z7.591 F761.421
G1 X99.473 Y50.568 Z7.622 F761.421
G1 X100.721 Y51.645 Z5.957 F761.421
G1 X101.869 Y52.534 Z4.491 F761.694
G1 X103.061 Y53.365 Z3.027 F762.177
G1 X104.293 Y54.135 Z1.565 F762.886
G1 X105.571 Y54.847 Z0.097 F763.826
G2 X120.180 Y58.144 Z0.097 I13.472 J-25.680 F1330.000
G2 X139.549 Y49.673 Z0.097 I-1.137 J-28.977 F1330.000
G0 X139.549 Y49.673 Z20.093
(finish operation: DressupTag004)
(begin postamble)
M05
G17 G54 G90 G80 G40
M2
