(Exported by FreeCAD)
(Post Processor: mach3_mach4_post)
(Output Time:2026-05-11 11:38:12.465839)
(begin preamble)
G17 G54 G40 G49 G80 G90
G21
(begin operation: Fixture)
(machine: mach3_4, mm/min)
G54
(finish operation: Fixture)
(begin operation: TC: 6mm Endmill custom)
(machine: mach3_4, mm/min)
(TC: 6mm Endmill custom)
M5
M6 T3 
G43 H3
M3 S19000
(finish operation: TC: 6mm Endmill custom)
(begin operation: DressupTag005)
(machine: mach3_4, mm/min)
G0 Z20.093
G0 X500.492 Y127.023 Z20.093
G0 X500.492 Y127.023 Z18.093
G1 X500.492 Y127.023 Z9.100 F200.000
G2 X501.371 Y124.901 Z9.100 I-2.121 J-2.122 F1330.000
G1 X501.367 Y83.501 Z9.100 F1330.000
G2 X498.367 Y80.501 Z9.100 I-3.000 J0.000 F1330.000
G1 X478.367 Y80.503 Z9.100 F1330.000
G2 X475.367 Y83.503 Z9.100 I0.000 J3.000 F1330.000
G1 X475.371 Y124.903 Z9.100 F1330.000
G2 X478.371 Y127.903 Z9.100 I3.000 J-0.000 F1330.000
G1 X498.371 Y127.901 Z9.100 F1330.000
G2 X500.492 Y127.023 Z9.100 I-0.000 J-3.000 F1330.000
G1 X500.492 Y127.023 Z3.100 F200.000
G2 X501.371 Y124.901 Z3.100 I-2.121 J-2.122 F1330.000
G1 X501.370 Y116.595 Z3.100 F1330.000
G1 X501.370 Y114.551 Z5.164 F761.421
G1 X501.370 Y112.507 Z3.100 F761.421
G1 X501.367 Y83.501 Z3.100 F1330.000
G2 X498.367 Y80.501 Z3.100 I-3.000 J0.000 F1330.000
G1 X478.367 Y80.503 Z3.100 F1330.000
G2 X475.367 Y83.503 Z3.100 I0.000 J3.000 F1330.000
G1 X475.368 Y91.810 Z3.100 F1330.000
G1 X475.368 Y93.853 Z5.164 F761.421
G1 X475.368 Y95.897 Z3.100 F761.421
G1 X475.371 Y124.903 Z3.100 F1330.000
G2 X478.371 Y127.903 Z3.100 I3.000 J-0.000 F1330.000
G1 X498.371 Y127.901 Z3.100 F1330.000
G2 X500.492 Y127.023 Z3.100 I-0.000 J-3.000 F1330.000
G1 X500.492 Y127.023 Z0.095 F200.000
G2 X501.371 Y124.901 Z0.095 I-2.121 J-2.122 F1330.000
G1 X501.371 Y119.570 Z0.095 F1330.000
G1 X501.370 Y114.551 Z5.164 F761.421
G1 X501.370 Y109.532 Z0.095 F761.421
G1 X501.367 Y83.501 Z0.095 F1330.000
G2 X498.367 Y80.501 Z0.095 I-3.000 J0.000 F1330.000
G1 X478.367 Y80.503 Z0.095 F1330.000
G2 X475.367 Y83.503 Z0.095 I0.000 J3.000 F1330.000
G1 X475.368 Y88.834 Z0.095 F1330.000
G1 X475.368 Y93.853 Z5.164 F761.421
G1 X475.369 Y98.873 Z0.095 F761.421
G1 X475.371 Y124.903 Z0.095 F1330.000
G2 X478.371 Y127.903 Z0.095 I3.000 J-0.000 F1330.000
G1 X498.371 Y127.901 Z0.095 F1330.000
G2 X500.492 Y127.023 Z0.095 I-0.000 J-3.000 F1330.000
G0 X500.492 Y127.023 Z20.093
(finish operation: DressupTag005)
(begin postamble)
M05
G17 G54 G90 G80 G40
M2
