(Exported by FreeCAD)
(Post Processor: mach3_mach4_post)
(Output Time:2026-05-11 11:38:12.465839)
(begin preamble)
G17 G54 G40 G49 G80 G90
G21
(begin operation: Fixture)
(machine: mach3_4, mm/min)
G54
(finish operation: Fixture)
(begin operation: TC: 6mm Endmill custom)
(machine: mach3_4, mm/min)
(TC: 6mm Endmill custom)
M5
M6 T3 
G43 H3
M3 S19000
(finish operation: TC: 6mm Endmill custom)
(begin operation: LeadInOutDressup)
(machine: mach3_4, mm/min)
(Profile001)
(Compensated Tool Path. Diameter: 6.0)
G0 Z18.093
G0 Z20.093
G0 X551.000 Y276.073
G0 Z18.093
G1 Z9.100 F200.000
G2 X550.000 Y275.902 Z9.100 I-1.000 J2.829 F1330.000
G1 X2.742 Y275.902 Z9.100 F1330.000
G2 X2.200 Y275.951 Z9.100 I0.000 J3.000 F1330.000
G0 Z18.093
G0 Z20.093
G0 X2.200 Y291.852
G0 Z18.093
G1 Z9.100 F200.000
G2 X2.742 Y291.902 Z9.100 I0.543 J-2.950 F1330.000
G2 X24.669 Y291.902 Z9.100 I36.833 J-8161526.728 F1330.000
G3 X29.715 Y296.412 Z9.100 I0.066 J5.004 F1330.000
G3 X29.742 Y298.902 Z9.100 I-25.329 J1.527 F1330.000
G2 X32.743 Y301.902 Z9.100 I3.000 J-0.000 F1330.000
G1 X550.000 Y301.902 Z9.100 F1330.000
G2 X551.000 Y301.730 Z9.100 I0.000 J-3.000 F1330.000
G0 Z18.093
G0 Z20.093
G0 X551.000 Y276.073
G0 Z18.093
G1 Z3.100 F200.000
G2 X550.000 Y275.902 Z3.100 I-1.000 J2.829 F1330.000
G1 X2.742 Y275.902 Z3.100 F1330.000
G2 X2.200 Y275.951 Z3.100 I0.000 J3.000 F1330.000
G0 Z18.093
G0 Z20.093
G0 X2.200 Y291.852
G0 Z18.093
G1 Z3.100 F200.000
G2 X2.742 Y291.902 Z3.100 I0.543 J-2.950 F1330.000
G2 X24.669 Y291.902 Z3.100 I36.833 J-8161526.728 F1330.000
G3 X29.715 Y296.412 Z3.100 I0.066 J5.004 F1330.000
G3 X29.742 Y298.902 Z3.100 I-25.329 J1.527 F1330.000
G2 X32.743 Y301.902 Z3.100 I3.000 J-0.000 F1330.000
G1 X550.000 Y301.902 Z3.100 F1330.000
G2 X551.000 Y301.730 Z3.100 I0.000 J-3.000 F1330.000
G0 Z18.093
G0 Z20.093
G0 X551.000 Y276.073
G0 Z18.093
G1 Z0.099 F200.000
G2 X550.000 Y275.902 Z0.099 I-1.000 J2.829 F1330.000
G1 X2.742 Y275.902 Z0.099 F1330.000
G2 X2.200 Y275.951 Z0.099 I0.000 J3.000 F1330.000
G0 Z18.093
G0 Z20.093
G0 X2.200 Y291.852
G0 Z18.093
G1 Z0.099 F200.000
G2 X2.742 Y291.902 Z0.099 I0.543 J-2.950 F1330.000
G2 X24.669 Y291.902 Z0.099 I36.833 J-8161526.728 F1330.000
G3 X29.715 Y296.412 Z0.099 I0.066 J5.004 F1330.000
G3 X29.742 Y298.902 Z0.099 I-25.329 J1.527 F1330.000
G2 X32.743 Y301.902 Z0.099 I3.000 J-0.000 F1330.000
G1 X550.000 Y301.902 Z0.099 F1330.000
G2 X551.000 Y301.730 Z0.099 I0.000 J-3.000 F1330.000
G0 Z18.093
G0 Z20.093
(finish operation: LeadInOutDressup)
(begin postamble)
M05
G17 G54 G90 G80 G40
M2
