(Exported by FreeCAD)
(Post Processor: mach3_mach4_post)
(Output Time:2026-05-15 09:06:25.145064)
(begin preamble)
G17 G54 G40 G49 G80 G90
G21
(begin operation: Fixture)
(machine: mach3_4, mm/min)
G54
(finish operation: Fixture)
(begin operation: TC: 6mm Endmill custom)
(machine: mach3_4, mm/min)
(TC: 6mm Endmill custom)
M5
M6 T3 
G43 H3
M3 S19000
(finish operation: TC: 6mm Endmill custom)
(begin operation: RampEntryDressup004)
(machine: mach3_4, mm/min)
G0 Z20.093
G0 X87.124 Y100.408 Z20.093
G0 X87.124 Y100.408 Z18.093
G2 X88.003 Y98.286 Z18.027 I-2.121 J-2.121 F1330.000
G3 X88.003 Y83.287 Z17.605 I307202.672 J-7.502 F1330.000
G2 X85.003 Y80.286 Z17.472 I-3.000 J-0.000 F1330.000
G2 X72.003 Y80.286 Z17.106 I-7.598 J404450.163 F1330.000
G1 X72.003 Y80.286 Z17.106 F1330.000
G1 X71.101 Y80.286 Z17.080 F1330.000
G3 X70.003 Y79.188 Z17.031 I-0.076 J-1.022 F1330.000
G1 X70.003 Y21.385 Z15.403 F1330.000
G3 X70.873 Y20.301 Z15.360 I1.011 J-0.079 F1330.000
G3 X85.003 Y20.286 Z14.962 I8.876 J1713.711 F1330.000
G2 X88.003 Y17.286 Z14.830 I0.000 J-3.000 F1330.000
G1 X88.003 Y2.286 Z14.407 F1330.000
G2 X85.003 Y-0.714 Z14.275 I-3.000 J0.000 F1330.000
G1 X47.003 Y-0.714 Z13.205 F1330.000
G2 X44.003 Y2.286 Z13.072 I-0.000 J3.000 F1330.000
G1 X44.003 Y98.286 Z10.369 F1330.000
G2 X44.927 Y100.451 Z10.301 I2.992 J0.002 F1330.000
G1 X44.926 Y100.452 Z10.301 F1330.000
G2 X46.053 Y101.132 Z10.263 I2.300 J-2.535 F1330.000
G2 X47.003 Y101.286 Z10.236 I0.950 J-2.846 F1330.000
G1 X85.003 Y101.286 Z9.166 F1330.000
G2 X87.124 Y100.408 Z9.100 I-0.000 J-3.000 F1330.000
G1 X87.124 Y100.408 Z3.100 F200.000
G2 X88.003 Y98.286 Z3.100 I-2.121 J-2.121 F1330.000
G3 X88.003 Y83.287 Z3.100 I307202.672 J-7.502 F1330.000
G2 X85.003 Y80.286 Z3.100 I-3.000 J-0.000 F1330.000
G2 X72.003 Y80.286 Z3.100 I-7.598 J404450.163 F1330.000
G1 X72.003 Y80.286 Z3.100 F1330.000
G1 X71.101 Y80.286 Z3.100 F1330.000
G3 X70.003 Y79.188 Z3.100 I-0.076 J-1.022 F1330.000
G1 X70.003 Y21.385 Z3.100 F1330.000
G3 X70.873 Y20.301 Z3.100 I1.011 J-0.079 F1330.000
G3 X85.003 Y20.286 Z3.100 I8.876 J1713.711 F1330.000
G2 X88.003 Y17.286 Z3.100 I0.000 J-3.000 F1330.000
G1 X88.003 Y2.286 Z3.100 F1330.000
G2 X85.003 Y-0.714 Z3.100 I-3.000 J0.000 F1330.000
G1 X47.003 Y-0.714 Z3.100 F1330.000
G2 X44.003 Y2.286 Z3.100 I-0.000 J3.000 F1330.000
G1 X44.003 Y69.562 Z3.100 F1330.000
G1 X44.003 Y74.061 Z7.599 F1330.000
G1 X44.003 Y74.511 Z7.599 F1330.000
G1 X44.003 Y79.011 Z3.100 F1330.000
G1 X44.003 Y98.286 Z3.100 F1330.000
G2 X44.927 Y100.451 Z3.100 I2.992 J0.002 F1330.000
G1 X44.926 Y100.452 Z3.100 F1330.000
G2 X46.053 Y101.132 Z3.100 I2.300 J-2.535 F1330.000
G2 X47.003 Y101.286 Z3.100 I0.950 J-2.846 F1330.000
G1 X85.003 Y101.286 Z3.100 F1330.000
G2 X87.124 Y100.408 Z3.100 I-0.000 J-3.000 F1330.000
G1 X87.124 Y100.408 Z0.099 F200.000
G2 X88.003 Y98.286 Z0.099 I-2.121 J-2.121 F1330.000
G3 X88.003 Y83.287 Z0.099 I307202.672 J-7.502 F1330.000
G2 X85.003 Y80.286 Z0.099 I-3.000 J-0.000 F1330.000
G2 X72.003 Y80.286 Z0.099 I-7.598 J404450.163 F1330.000
G1 X72.003 Y80.286 Z0.099 F1330.000
G1 X71.101 Y80.286 Z0.099 F1330.000
G3 X70.003 Y79.188 Z0.099 I-0.076 J-1.022 F1330.000
G1 X70.003 Y21.385 Z0.099 F1330.000
G3 X70.873 Y20.301 Z0.099 I1.011 J-0.079 F1330.000
G3 X85.003 Y20.286 Z0.099 I8.876 J1713.711 F1330.000
G2 X88.003 Y17.286 Z0.099 I0.000 J-3.000 F1330.000
G1 X88.003 Y2.286 Z0.099 F1330.000
G2 X85.003 Y-0.714 Z0.099 I-3.000 J0.000 F1330.000
G1 X47.003 Y-0.714 Z0.099 F1330.000
G2 X44.003 Y2.286 Z0.099 I-0.000 J3.000 F1330.000
G1 X44.003 Y66.561 Z0.099 F1330.000
G1 X44.003 Y74.061 Z7.599 F1330.000
G1 X44.003 Y74.511 Z7.599 F1330.000
G1 X44.003 Y82.011 Z0.099 F1330.000
G1 X44.003 Y98.286 Z0.099 F1330.000
G2 X44.927 Y100.451 Z0.099 I2.992 J0.002 F1330.000
G1 X44.926 Y100.452 Z0.099 F1330.000
G2 X46.053 Y101.132 Z0.099 I2.300 J-2.535 F1330.000
G2 X47.003 Y101.286 Z0.099 I0.950 J-2.846 F1330.000
G1 X85.003 Y101.286 Z0.099 F1330.000
G2 X87.124 Y100.408 Z0.099 I-0.000 J-3.000 F1330.000
G0 X87.124 Y100.408 Z20.093
(finish operation: RampEntryDressup004)
(begin postamble)
M05
G17 G54 G90 G80 G40
M2
