(Exported by FreeCAD)
(Post Processor: mach3_mach4_post)
(Output Time:2026-05-15 09:06:25.145064)
(begin preamble)
G17 G54 G40 G49 G80 G90
G21
(begin operation: Fixture)
(machine: mach3_4, mm/min)
G54
(finish operation: Fixture)
(begin operation: TC: 6mm Endmill custom)
(machine: mach3_4, mm/min)
(TC: 6mm Endmill custom)
M5
M6 T3 
G43 H3
M3 S19000
(finish operation: TC: 6mm Endmill custom)
(begin operation: DressupPathBoundary013)
(machine: mach3_4, mm/min)
(Profile018)
(Compensated Tool Path. Diameter: 6.0)
G0 Z18.093
G0 Z20.093
G0 X431.332 Y-1.653
G0 Z18.093
G1 Z16.100 F200.000
G1 X228.192 Y-1.653 Z13.646 F1321.309
G2 X219.197 Y7.179 Z13.477 I0.006 J9.002 F1330.000
G2 X219.192 Y25.347 Z13.257 I9089.913 J11.445 F1330.000
G2 X228.192 Y34.347 Z13.087 I9.008 J-0.008 F1330.000
G1 X511.388 Y34.347 Z9.665 F1330.000
G1 X548.500 Y55.773 Z9.147 F1330.000
G1 X548.921 Y55.974 Z9.142 F1321.300
G1 X549.368 Y56.108 Z9.136 F1321.300
G1 X549.682 Y56.158 Z9.132 F1321.305
G1 X550.000 Y56.175 Z9.128 F1321.305
G0 Z18.093
G0 Z20.093
G0 X550.000 Y15.070
G0 Z18.093
G1 Z8.762 F200.000
G1 X521.731 Y-1.251 Z8.499 F1324.202
G2 X520.231 Y-1.653 Z8.487 I-1.500 J2.598 F1330.000
G1 X228.192 Y-1.653 Z6.133 F1330.000
G2 X219.197 Y7.179 Z6.020 I0.006 J9.002 F1330.000
G2 X219.192 Y25.347 Z5.874 I9089.913 J11.445 F1330.000
G2 X228.192 Y34.347 Z5.760 I9.008 J-0.008 F1330.000
G1 X511.388 Y34.347 Z3.477 F1330.000
G1 X548.500 Y55.773 Z3.132 F1330.000
G1 X548.921 Y55.974 Z3.128 F1324.196
G1 X549.368 Y56.108 Z3.124 F1324.196
G1 X549.682 Y56.158 Z3.121 F1324.199
G1 X550.000 Y56.175 Z3.119 F1324.199
G0 Z18.093
G0 Z20.093
G0 X550.000 Y15.070
G0 Z18.093
G1 Z2.931 F200.000
G1 X521.731 Y-1.251 Z2.799 F1327.099
G2 X520.231 Y-1.653 Z2.793 I-1.500 J2.598 F1330.000
G1 X228.192 Y-1.653 Z1.615 F1330.000
G2 X219.197 Y7.179 Z1.559 I0.006 J9.002 F1330.000
G2 X219.192 Y25.347 Z1.486 I9089.913 J11.445 F1330.000
G2 X228.192 Y34.347 Z1.429 I9.008 J-0.008 F1330.000
G1 X511.388 Y34.347 Z0.286 F1330.000
G1 X548.500 Y55.773 Z0.114 F1330.000
G1 X548.921 Y55.974 Z0.112 F1327.096
G1 X549.368 Y56.108 Z0.110 F1327.096
G1 X549.682 Y56.158 Z0.109 F1327.097
G1 X550.000 Y56.175 Z0.107 F1327.097
G0 Z18.093
G0 Z20.093
G0 X550.000 Y15.070
G0 Z18.093
G1 Z0.098 F200.000
G1 X521.731 Y-1.251 Z0.098 F1330.000
G2 X520.231 Y-1.653 Z0.098 I-1.500 J2.598 F1330.000
G1 X228.192 Y-1.653 Z0.098 F1330.000
G2 X219.197 Y7.179 Z0.098 I0.006 J9.002 F1330.000
G2 X219.192 Y25.347 Z0.098 I9089.913 J11.445 F1330.000
G2 X228.192 Y34.347 Z0.098 I9.008 J-0.008 F1330.000
G1 X511.388 Y34.347 Z0.098 F1330.000
G1 X548.500 Y55.773 Z0.098 F1330.000
G2 X550.000 Y56.175 Z0.098 I1.500 J-2.598 F1330.000
G0 Z18.093
G0 Z20.093
(finish operation: DressupPathBoundary013)
(begin postamble)
M05
G17 G54 G90 G80 G40
M2
