(Exported by FreeCAD)
(Post Processor: mach3_mach4_post)
(Output Time:2026-05-11 11:38:12.465839)
(begin preamble)
G17 G54 G40 G49 G80 G90
G21
(begin operation: Fixture)
(machine: mach3_4, mm/min)
G54
(finish operation: Fixture)
(begin operation: TC: 6mm Endmill custom)
(machine: mach3_4, mm/min)
(TC: 6mm Endmill custom)
M5
M6 T3 
G43 H3
M3 S19000
(finish operation: TC: 6mm Endmill custom)
(begin operation: DressupTag010)
(machine: mach3_4, mm/min)
G0 Z20.093
G0 X424.492 Y127.031 Z20.093
G0 X424.492 Y127.031 Z18.093
G1 X424.492 Y127.031 Z9.100 F200.000
G2 X425.371 Y124.908 Z9.100 I-2.121 J-2.122 F1330.000
G1 X425.367 Y83.508 Z9.100 F1330.000
G2 X422.367 Y80.509 Z9.100 I-3.000 J0.000 F1330.000
G1 X402.367 Y80.511 Z9.100 F1330.000
G2 X399.367 Y83.511 Z9.100 I0.000 J3.000 F1330.000
G2 X399.369 Y98.510 Z9.100 I2273655.161 J-204.399 F1330.000
G1 X399.368 Y98.511 Z9.100 F1330.000
G1 X399.369 Y101.511 Z9.100 F1330.000
G1 X399.369 Y101.511 Z9.100 F1330.000
G1 X399.371 Y124.911 Z9.100 F1330.000
G2 X400.281 Y127.063 Z9.100 I3.000 J-0.000 F1330.000
G2 X401.070 Y127.614 Z9.100 I1.726 J-1.631 F1330.000
G2 X402.250 Y127.908 Z9.100 I1.300 J-2.700 F1330.000
G2 X422.371 Y127.909 Z9.100 I10.599 J-21731.250 F1330.000
G2 X424.492 Y127.031 Z9.100 I-0.000 J-3.000 F1330.000
G1 X424.492 Y127.031 Z3.100 F200.000
G2 X425.371 Y124.908 Z3.100 I-2.121 J-2.122 F1330.000
G1 X425.368 Y95.903 Z3.100 F1330.000
G1 X425.368 Y93.858 Z5.165 F761.430
G1 X425.368 Y91.814 Z3.100 F761.427
G1 X425.367 Y83.508 Z3.100 F1330.000
G2 X422.367 Y80.509 Z3.100 I-3.000 J0.000 F1330.000
G1 X402.367 Y80.511 Z3.100 F1330.000
G2 X399.367 Y83.511 Z3.100 I0.000 J3.000 F1330.000
G2 X399.369 Y98.510 Z3.100 I2273655.161 J-204.399 F1330.000
G1 X399.368 Y98.511 Z3.100 F1330.000
G1 X399.369 Y101.511 Z3.100 F1330.000
G1 X399.369 Y101.511 Z3.100 F1330.000
G1 X399.371 Y124.911 Z3.100 F1330.000
G2 X400.281 Y127.063 Z3.100 I3.000 J-0.000 F1330.000
G2 X401.070 Y127.614 Z3.100 I1.726 J-1.631 F1330.000
G2 X402.250 Y127.908 Z3.100 I1.300 J-2.700 F1330.000
G2 X422.371 Y127.909 Z3.100 I10.599 J-21731.250 F1330.000
G2 X424.492 Y127.031 Z3.100 I-0.000 J-3.000 F1330.000
G1 X424.492 Y127.031 Z0.095 F200.000
G2 X425.371 Y124.908 Z0.095 I-2.121 J-2.122 F1330.000
G1 X425.369 Y98.878 Z0.095 F1330.000
G1 X425.368 Y93.867 Z5.156 F761.421
G1 X425.368 Y93.858 Z5.165 F763.384
G1 X425.368 Y88.839 Z0.095 F761.423
G1 X425.367 Y83.508 Z0.095 F1330.000
G2 X422.367 Y80.509 Z0.095 I-3.000 J0.000 F1330.000
G1 X402.367 Y80.511 Z0.095 F1330.000
G2 X399.367 Y83.511 Z0.095 I0.000 J3.000 F1330.000
G2 X399.369 Y98.510 Z0.095 I2273655.161 J-204.399 F1330.000
G1 X399.368 Y98.511 Z0.095 F1330.000
G1 X399.369 Y101.511 Z0.095 F1330.000
G1 X399.369 Y101.511 Z0.095 F1330.000
G1 X399.371 Y124.911 Z0.095 F1330.000
G2 X400.281 Y127.063 Z0.095 I3.000 J-0.000 F1330.000
G2 X401.070 Y127.614 Z0.095 I1.726 J-1.631 F1330.000
G2 X402.250 Y127.908 Z0.095 I1.300 J-2.700 F1330.000
G2 X422.371 Y127.909 Z0.095 I10.599 J-21731.250 F1330.000
G2 X424.492 Y127.031 Z0.095 I-0.000 J-3.000 F1330.000
G0 X424.492 Y127.031 Z20.093
(finish operation: DressupTag010)
(begin postamble)
M05
G17 G54 G90 G80 G40
M2
