(Exported by FreeCAD)
(Post Processor: mach3_mach4_post)
(Output Time:2026-05-11 11:38:12.465839)
(begin preamble)
G17 G54 G40 G49 G80 G90
G21
(begin operation: Fixture)
(machine: mach3_4, mm/min)
G54
(finish operation: Fixture)
(begin operation: TC: 6mm Endmill custom)
(machine: mach3_4, mm/min)
(TC: 6mm Endmill custom)
M5
M6 T3 
G43 H3
M3 S19000
(finish operation: TC: 6mm Endmill custom)
(begin operation: DressupTag006)
(machine: mach3_4, mm/min)
G0 Z20.093
G0 X215.762 Y111.312 Z20.093
G0 X215.762 Y111.312 Z18.093
G1 X215.762 Y111.312 Z9.100 F200.000
G2 X195.077 Y61.808 Z9.100 I-20.505 J-20.505 F1330.000
G2 X193.491 Y61.862 Z9.100 I0.179 J28.998 F1330.000
G2 X196.394 Y119.783 Z9.100 I1.766 J28.945 F1330.000
G2 X215.762 Y111.312 Z9.100 I-1.137 J-28.977 F1330.000
G0 X215.762 Y111.312 Z20.093
G0 X163.792 Y95.776 Z20.093
G0 X163.792 Y95.776 Z18.093
G1 X163.792 Y95.776 Z9.100 F200.000
G2 X135.828 Y58.471 Z9.100 I-27.784 J-8.306 F1330.000
G2 X134.242 Y58.524 Z9.100 I0.179 J28.998 F1330.000
G2 X137.145 Y116.446 Z9.100 I1.766 J28.945 F1330.000
G2 X163.792 Y95.776 Z9.100 I-1.137 J-28.977 F1330.000
G0 X163.792 Y95.776 Z20.093
G0 X172.919 Y60.882 Z20.093
G0 X172.919 Y60.882 Z18.093
G1 X172.919 Y60.882 Z9.100 F200.000
G2 X181.394 Y61.804 Z9.100 I7.338 J-28.055 F1330.000
G2 X180.078 Y3.829 Z9.100 I-1.137 J-28.977 F1330.000
G2 X178.491 Y3.882 Z9.100 I0.179 J28.998 F1330.000
G2 X172.919 Y60.882 Z9.100 I1.766 J28.945 F1330.000
G1 X172.919 Y60.882 Z6.552 F200.000
G1 X174.330 Y61.214 Z5.092 F762.311
G1 X174.974 Y61.341 Z4.431 F762.380
G1 X176.279 Y61.552 Z3.100 F762.668
G2 X181.394 Y61.804 Z3.100 I3.978 J-28.725 F1330.000
G2 X189.267 Y5.263 Z3.100 I-1.137 J-28.977 F1330.000
G1 X188.096 Y4.908 Z4.332 F762.372
G1 X186.515 Y4.511 Z5.976 F761.889
G1 X185.767 Y4.356 Z6.748 F761.743
G1 X185.416 Y4.291 Z7.107 F761.879
G1 X185.050 Y4.227 Z7.481 F763.296
G1 X184.927 Y4.207 Z7.583 F835.127
G1 X184.568 Y4.150 Z7.267 F815.363
G1 X184.085 Y4.082 Z6.775 F762.007
G1 X183.504 Y4.010 Z6.185 F761.747
G1 X182.057 Y3.884 Z4.720 F761.830
G1 X181.657 Y3.862 Z4.316 F762.099
G1 X180.451 Y3.829 Z3.100 F762.376
G2 X180.078 Y3.829 Z3.100 I-0.194 J28.998 F1330.000
G2 X178.491 Y3.882 Z3.100 I0.179 J28.998 F1330.000
G2 X167.721 Y58.976 Z3.100 I1.766 J28.945 F1330.000
G1 X169.044 Y59.571 Z4.560 F762.640
G1 X169.276 Y59.667 Z4.813 F762.401
G1 X170.068 Y59.977 Z5.670 F762.295
G1 X170.869 Y60.265 Z6.527 F762.367
G1 X171.374 Y60.432 Z7.062 F763.303
G1 X171.729 Y60.544 Z7.429 F770.179
G1 X171.875 Y60.588 Z7.548 F852.549
G1 X171.946 Y60.610 Z7.538 F1232.792
G1 X172.148 Y60.669 Z7.352 F811.061
G1 X172.341 Y60.725 Z7.153 F768.857
G1 X172.919 Y60.882 Z6.552 F763.618
G1 X172.919 Y60.882 Z20.093 F200.000
G0 X177.910 Y67.568 Z20.093
G0 X177.910 Y67.568 Z18.093
G1 X177.910 Y67.568 Z3.100 F200.000
G2 X185.862 Y118.242 Z3.100 I17.347 J23.238 F1330.000
G1 X187.522 Y118.755 Z4.850 F762.446
G1 X188.334 Y118.967 Z5.696 F762.121
G1 X189.210 Y119.168 Z6.602 F762.106
G1 X189.621 Y119.253 Z7.024 F762.608
G1 X190.139 Y119.351 Z7.539 F773.119
G1 X190.211 Y119.363 Z7.568 F1064.106
G1 X190.264 Y119.373 Z7.538 F965.310
G1 X190.861 Y119.471 Z6.945 F771.755
G1 X191.335 Y119.539 Z6.462 F762.431
G1 X192.108 Y119.634 Z5.677 F762.088
G1 X192.884 Y119.709 Z4.892 F762.120
G1 X194.660 Y119.800 Z3.100 F762.437
G2 X196.394 Y119.783 Z3.100 I0.596 J-28.993 F1330.000
G2 X214.344 Y68.975 Z3.100 I-1.137 J-28.977 F1330.000
G1 X213.073 Y67.926 Z4.758 F762.670
G1 X212.393 Y67.413 Z5.617 F762.397
G1 X211.699 Y66.919 Z6.475 F762.505
G1 X211.275 Y66.633 Z6.988 F763.470
G1 X210.807 Y66.329 Z7.519 F782.668
G1 X210.738 Y66.286 Z7.541 F1141.800
G1 X210.618 Y66.211 Z7.445 F897.907
G1 X210.314 Y66.023 Z7.097 F774.512
G1 X210.297 Y66.013 Z7.077 F765.979
G1 X209.780 Y65.707 Z6.474 F763.713
G1 X208.776 Y65.152 Z5.319 F762.461
G1 X207.475 Y64.507 Z3.857 F762.487
G1 X206.789 Y64.199 Z3.100 F762.865
G2 X195.077 Y61.808 Z3.100 I-11.532 J26.608 F1330.000
G2 X193.491 Y61.862 Z3.100 I0.179 J28.998 F1330.000
G2 X177.910 Y67.568 Z3.100 I1.766 J28.945 F1330.000
G0 X177.910 Y67.568 Z20.093
G0 X162.202 Y75.028 Z20.093
G0 X162.202 Y75.028 Z18.093
G1 X162.202 Y75.028 Z3.100 F200.000
G2 X135.828 Y58.471 Z3.100 I-26.195 J12.441 F1330.000
G2 X134.242 Y58.524 Z3.100 I0.179 J28.998 F1330.000
G2 X134.204 Y58.527 Z3.100 I1.766 J28.945 F1330.000
G1 X132.758 Y58.653 Z4.562 F762.152
G1 X132.018 Y58.746 Z5.315 F761.795
G1 X130.933 Y58.918 Z6.424 F761.570
G1 X130.394 Y59.019 Z6.979 F761.465
G1 X129.773 Y59.149 Z7.619 F761.461
G1 X130.070 Y59.085 Z7.932 F754.840
G1 X128.731 Y59.398 Z6.543 F761.440
G1 X127.334 Y59.798 Z5.076 F761.569
G1 X125.485 Y60.447 Z3.100 F762.029
G2 X129.073 Y115.627 Z3.100 I10.523 J27.022 F1330.000
G1 X130.490 Y115.939 Z4.561 F762.567
G1 X130.741 Y115.986 Z4.818 F762.319
G1 X131.583 Y116.129 Z5.678 F762.198
G1 X132.477 Y116.253 Z6.588 F762.223
G1 X132.826 Y116.294 Z6.942 F762.761
G1 X133.376 Y116.349 Z7.487 F769.325
G1 X133.489 Y116.359 Z7.561 F916.841
G1 X133.582 Y116.367 Z7.515 F1001.039
G1 X133.902 Y116.392 Z7.206 F778.157
G1 X133.926 Y116.394 Z7.182 F765.156
G1 X134.477 Y116.428 Z6.627 F763.316
G1 X135.028 Y116.452 Z6.071 F762.297
G1 X136.082 Y116.468 Z5.009 F762.166
G1 X137.145 Y116.446 Z3.938 F762.366
G1 X137.976 Y116.402 Z3.100 F762.708
G2 X162.202 Y75.028 Z3.100 I-1.968 J-28.932 F1330.000
G1 X162.202 Y75.028 Z0.098 F200.000
G2 X137.191 Y58.495 Z0.098 I-26.195 J12.441 F1330.000
G1 X135.828 Y58.471 Z1.465 F763.870
G1 X134.242 Y58.524 Z3.061 F762.903
G1 X132.797 Y58.649 Z4.524 F762.167
G1 X131.061 Y58.896 Z6.294 F761.641
G1 X130.430 Y59.012 Z6.941 F761.472
G1 X129.773 Y59.149 Z7.619 F761.459
G1 X128.904 Y59.354 Z6.723 F763.746
G1 X127.505 Y59.745 Z5.257 F761.536
G1 X126.127 Y60.206 Z3.791 F761.900
G1 X124.774 Y60.735 Z2.328 F762.491
G1 X123.449 Y61.331 Z0.868 F763.309
G1 X122.761 Y61.673 Z0.098 F764.108
G2 X126.210 Y114.763 Z0.098 I13.247 J25.796 F1330.000
G1 X127.587 Y115.219 Z1.551 F764.222
G1 X129.532 Y115.736 Z3.574 F763.114
G1 X131.001 Y116.033 Z5.084 F762.396
G1 X131.716 Y116.149 Z5.813 F762.175
G1 X132.484 Y116.254 Z6.595 F762.242
G1 X132.792 Y116.290 Z6.907 F762.723
G1 X133.306 Y116.342 Z7.422 F766.477
G1 X133.446 Y116.355 Z7.545 F812.825
G1 X133.512 Y116.361 Z7.559 F1179.741
G1 X133.648 Y116.372 Z7.455 F860.637
G1 X133.821 Y116.386 Z7.286 F775.538
G1 X134.234 Y116.414 Z6.872 F764.429
G1 X134.698 Y116.439 Z6.404 F762.557
G1 X135.938 Y116.468 Z5.153 F762.167
G1 X137.145 Y116.446 Z3.938 F762.342
G1 X138.595 Y116.353 Z2.476 F762.825
G1 X140.038 Y116.187 Z1.017 F763.605
G1 X140.492 Y116.120 Z0.558 F764.273
G1 X140.945 Y116.045 Z0.098 F764.617
G2 X162.202 Y75.028 Z0.098 I-4.938 J-28.576 F1330.000
G0 X162.202 Y75.028 Z20.093
G0 X169.086 Y78.314 Z20.093
G0 X169.086 Y78.314 Z18.093
G1 X169.086 Y78.314 Z0.098 F200.000
G2 X183.087 Y117.129 Z0.098 I26.170 J12.492 F1330.000
G1 X184.417 Y117.704 Z1.551 F764.172
G1 X186.403 Y118.421 Z3.674 F763.031
G1 X187.783 Y118.826 Z5.123 F762.316
G1 X188.513 Y119.011 Z5.882 F762.091
G1 X189.248 Y119.177 Z6.642 F762.132
G1 X189.651 Y119.259 Z7.055 F762.685
G1 X190.162 Y119.355 Z7.557 F777.160
G1 X190.219 Y119.365 Z7.562 F1267.367
G1 X190.316 Y119.382 Z7.493 F888.341
G1 X190.325 Y119.383 Z7.485 F793.312
G1 X191.001 Y119.492 Z6.803 F766.417
G1 X191.747 Y119.593 Z6.043 F762.204
G1 X192.906 Y119.710 Z4.870 F762.091
G1 X194.068 Y119.781 Z3.697 F762.361
G1 X195.521 Y119.805 Z2.235 F762.884
G1 X196.394 Y119.783 Z1.358 F763.542
G1 X197.649 Y119.707 Z0.098 F764.249
G2 X216.492 Y71.058 Z0.098 I-2.392 J-28.900 F1330.000
G1 X215.478 Y70.021 Z1.550 F764.344
G1 X214.182 Y68.834 Z3.316 F763.325
G1 X212.961 Y67.840 Z4.901 F762.614
G1 X212.355 Y67.385 Z5.665 F762.391
G1 X211.689 Y66.912 Z6.487 F762.518
G1 X211.253 Y66.619 Z7.014 F763.550
G1 X210.807 Y66.329 Z7.519 F783.551
G1 X210.738 Y66.286 Z7.541 F1141.800
G1 X210.618 Y66.211 Z7.445 F897.907
G1 X210.314 Y66.023 Z7.097 F774.512
G1 X210.297 Y66.013 Z7.077 F765.979
G1 X209.780 Y65.707 Z6.474 F763.713
G1 X208.776 Y65.152 Z5.319 F762.461
G1 X207.475 Y64.507 Z3.857 F762.487
G1 X206.958 Y64.273 Z3.286 F762.831
G1 X205.614 Y63.720 Z1.826 F763.273
G1 X203.986 Y63.153 Z0.098 F764.235
G2 X195.077 Y61.808 Z0.098 I-8.729 J27.654 F1330.000
G2 X193.491 Y61.862 Z0.098 I0.179 J28.998 F1330.000
G2 X169.086 Y78.314 Z0.098 I1.766 J28.945 F1330.000
G0 X169.086 Y78.314 Z20.093
G0 X173.341 Y60.989 Z20.093
G0 X173.341 Y60.989 Z18.093
G1 X173.341 Y60.989 Z6.114 F200.000
G1 X174.759 Y61.300 Z4.651 F762.277
G1 X175.945 Y61.504 Z3.440 F762.572
G1 X177.387 Y61.684 Z1.979 F763.129
G1 X179.259 Y61.809 Z0.098 F764.114
G2 X181.394 Y61.804 Z0.098 I0.998 J-28.982 F1330.000
G2 X192.056 Y6.337 Z0.098 I-1.137 J-28.977 F1330.000
G1 X190.717 Y5.780 Z1.551 F763.997
G1 X189.352 Y5.291 Z3.009 F763.061
G1 X188.170 Y4.929 Z4.255 F762.406
G1 X188.112 Y4.912 Z4.315 F762.178
G1 X186.586 Y4.527 Z5.903 F761.902
G1 X185.816 Y4.366 Z6.697 F761.742
G1 X185.455 Y4.298 Z7.067 F761.848
G1 X185.050 Y4.227 Z7.481 F763.171
G1 X184.927 Y4.207 Z7.583 F835.127
G1 X184.568 Y4.150 Z7.267 F815.363
G1 X184.085 Y4.082 Z6.775 F762.007
G1 X183.504 Y4.010 Z6.185 F761.747
G1 X182.057 Y3.884 Z4.720 F761.830
G1 X181.657 Y3.862 Z4.316 F762.099
G1 X180.078 Y3.829 Z2.724 F762.441
G1 X178.491 Y3.882 Z1.129 F763.262
G1 X177.465 Y3.963 Z0.098 F764.165
G2 X165.094 Y57.546 Z0.098 I2.792 J28.864 F1330.000
G1 X166.348 Y58.273 Z1.550 F764.284
G1 X168.031 Y59.123 Z3.445 F763.220
G1 X169.436 Y59.732 Z4.987 F762.506
G1 X170.150 Y60.008 Z5.759 F762.283
G1 X170.871 Y60.265 Z6.530 F762.382
G1 X171.234 Y60.387 Z6.915 F763.016
G1 X171.756 Y60.552 Z7.455 F769.548
G1 X171.888 Y60.592 Z7.551 F891.191
G1 X171.970 Y60.617 Z7.521 F1087.205
G1 X172.271 Y60.705 Z7.226 F786.865
G1 X172.333 Y60.722 Z7.162 F766.374
G1 X172.860 Y60.867 Z6.614 F763.757
G1 X173.341 Y60.989 Z6.114 F762.499
G1 X173.341 Y60.989 Z20.093 F200.000
(finish operation: DressupTag006)
(begin postamble)
M05
G17 G54 G90 G80 G40
M2
