(Exported by FreeCAD)
(Post Processor: mach3_mach4_post)
(Output Time:2026-05-11 11:38:12.465839)
(begin preamble)
G17 G54 G40 G49 G80 G90
G21
(begin operation: Fixture)
(machine: mach3_4, mm/min)
G54
(finish operation: Fixture)
(begin operation: TC: 6mm Endmill custom)
(machine: mach3_4, mm/min)
(TC: 6mm Endmill custom)
M5
M6 T3 
G43 H3
M3 S19000
(finish operation: TC: 6mm Endmill custom)
(begin operation: DressupPathBoundary001)
(machine: mach3_4, mm/min)
(Profile002)
(Compensated Tool Path. Diameter: 6.0)
G0 Z18.093
G0 Z20.093
G0 X550.000 Y249.902
G0 Z18.093
G1 Z9.100 F200.000
G1 X2.528 Y249.902 Z9.100 F1330.000
G2 X2.200 Y249.920 Z9.100 I0.000 J3.000 F1330.000
G0 Z18.093
G0 Z20.093
G0 X2.200 Y265.884
G0 Z18.093
G1 Z9.100 F200.000
G2 X2.528 Y265.902 Z9.100 I0.328 J-2.982 F1330.000
G2 X24.454 Y265.902 Z9.100 I10.985 J-2365985.610 F1330.000
G3 X29.500 Y270.412 Z9.100 I0.066 J5.004 F1330.000
G3 X29.528 Y272.901 Z9.100 I-25.273 J1.524 F1330.000
G2 X32.528 Y275.902 Z9.100 I3.000 J0.000 F1330.000
G1 X550.000 Y275.902 Z9.100 F1330.000
G0 Z18.093
G0 Z20.093
G0 X550.000 Y249.902
G0 Z18.093
G1 Z3.100 F200.000
G1 X2.528 Y249.902 Z3.100 F1330.000
G2 X2.200 Y249.920 Z3.100 I0.000 J3.000 F1330.000
G0 Z18.093
G0 Z20.093
G0 X2.200 Y265.884
G0 Z18.093
G1 Z3.100 F200.000
G2 X2.528 Y265.902 Z3.100 I0.328 J-2.982 F1330.000
G2 X24.454 Y265.902 Z3.100 I10.985 J-2365985.610 F1330.000
G3 X29.500 Y270.412 Z3.100 I0.066 J5.004 F1330.000
G3 X29.528 Y272.901 Z3.100 I-25.273 J1.524 F1330.000
G2 X32.528 Y275.902 Z3.100 I3.000 J0.000 F1330.000
G1 X550.000 Y275.902 Z3.100 F1330.000
G0 Z18.093
G0 Z20.093
G0 X550.000 Y249.902
G0 Z18.093
G1 Z0.099 F200.000
G1 X2.528 Y249.902 Z0.099 F1330.000
G2 X2.200 Y249.920 Z0.099 I0.000 J3.000 F1330.000
G0 Z18.093
G0 Z20.093
G0 X2.200 Y265.884
G0 Z18.093
G1 Z0.099 F200.000
G2 X2.528 Y265.902 Z0.099 I0.328 J-2.982 F1330.000
G2 X24.454 Y265.902 Z0.099 I10.985 J-2365985.610 F1330.000
G3 X29.500 Y270.412 Z0.099 I0.066 J5.004 F1330.000
G3 X29.528 Y272.901 Z0.099 I-25.273 J1.524 F1330.000
G2 X32.528 Y275.902 Z0.099 I3.000 J0.000 F1330.000
G1 X550.000 Y275.902 Z0.099 F1330.000
G0 Z18.093
G0 Z20.093
(finish operation: DressupPathBoundary001)
(begin postamble)
M05
G17 G54 G90 G80 G40
M2
