(Exported by FreeCAD)
(Post Processor: mach3_mach4_post)
(Output Time:2026-05-11 11:38:12.465839)
(begin preamble)
G17 G54 G40 G49 G80 G90
G21
(begin operation: Fixture)
(machine: mach3_4, mm/min)
G54
(finish operation: Fixture)
(begin operation: TC: 6mm Endmill custom)
(machine: mach3_4, mm/min)
(TC: 6mm Endmill custom)
M5
M6 T3 
G43 H3
M3 S19000
(finish operation: TC: 6mm Endmill custom)
(begin operation: DressupPathBoundary005)
(machine: mach3_4, mm/min)
(Profile009)
(Compensated Tool Path. Diameter: 6.0)
G0 Z18.093
G0 Z20.093
G0 X551.000 Y146.073
G0 Z18.093
G1 Z9.100 F200.000
G2 X550.000 Y145.902 Z9.100 I-1.000 J2.828 F1330.000
G1 X3.856 Y145.902 Z9.100 F1330.000
G2 X1.200 Y147.507 Z9.100 I-0.000 J3.000 F1330.000
G0 Z18.093
G0 Z20.093
G0 X1.200 Y160.296
G0 Z18.093
G1 Z9.100 F200.000
G2 X3.856 Y161.902 Z9.100 I2.656 J-1.395 F1330.000
G2 X14.866 Y161.902 Z9.100 I5.614 J-518088.328 F1330.000
G1 X14.866 Y161.902 Z9.100 F1330.000
G1 X25.782 Y161.902 Z9.100 F1330.000
G3 X30.828 Y166.412 Z9.100 I0.066 J5.004 F1330.000
G3 X30.856 Y168.901 Z9.100 I-25.272 J1.524 F1330.000
G2 X33.856 Y171.902 Z9.100 I3.000 J0.000 F1330.000
G1 X550.000 Y171.902 Z9.100 F1330.000
G2 X551.000 Y171.730 Z9.100 I0.000 J-3.000 F1330.000
G0 Z18.093
G0 Z20.093
G0 X551.000 Y146.073
G0 Z18.093
G1 Z3.100 F200.000
G2 X550.000 Y145.902 Z3.100 I-1.000 J2.828 F1330.000
G1 X3.856 Y145.902 Z3.100 F1330.000
G2 X1.200 Y147.507 Z3.100 I-0.000 J3.000 F1330.000
G0 Z18.093
G0 Z20.093
G0 X1.200 Y160.296
G0 Z18.093
G1 Z3.100 F200.000
G2 X3.856 Y161.902 Z3.100 I2.656 J-1.395 F1330.000
G2 X14.866 Y161.902 Z3.100 I5.614 J-518088.328 F1330.000
G1 X14.866 Y161.902 Z3.100 F1330.000
G1 X25.782 Y161.902 Z3.100 F1330.000
G3 X30.828 Y166.412 Z3.100 I0.066 J5.004 F1330.000
G3 X30.856 Y168.901 Z3.100 I-25.272 J1.524 F1330.000
G2 X33.856 Y171.902 Z3.100 I3.000 J0.000 F1330.000
G1 X550.000 Y171.902 Z3.100 F1330.000
G2 X551.000 Y171.730 Z3.100 I0.000 J-3.000 F1330.000
G0 Z18.093
G0 Z20.093
G0 X551.000 Y146.073
G0 Z18.093
G1 Z0.099 F200.000
G2 X550.000 Y145.902 Z0.099 I-1.000 J2.828 F1330.000
G1 X3.856 Y145.902 Z0.099 F1330.000
G2 X1.200 Y147.507 Z0.099 I-0.000 J3.000 F1330.000
G0 Z18.093
G0 Z20.093
G0 X1.200 Y160.296
G0 Z18.093
G1 Z0.099 F200.000
G2 X3.856 Y161.902 Z0.099 I2.656 J-1.395 F1330.000
G2 X14.866 Y161.902 Z0.099 I5.614 J-518088.328 F1330.000
G1 X14.866 Y161.902 Z0.099 F1330.000
G1 X25.782 Y161.902 Z0.099 F1330.000
G3 X30.828 Y166.412 Z0.099 I0.066 J5.004 F1330.000
G3 X30.856 Y168.901 Z0.099 I-25.272 J1.524 F1330.000
G2 X33.856 Y171.902 Z0.099 I3.000 J0.000 F1330.000
G1 X550.000 Y171.902 Z0.099 F1330.000
G2 X551.000 Y171.730 Z0.099 I0.000 J-3.000 F1330.000
G0 Z18.093
G0 Z20.093
(finish operation: DressupPathBoundary005)
(begin postamble)
M05
G17 G54 G90 G80 G40
M2
