(Exported by FreeCAD)
(Post Processor: mach3_mach4_post)
(Output Time:2026-05-15 09:06:25.145064)
(begin preamble)
G17 G54 G40 G49 G80 G90
G21
(begin operation: Fixture)
(machine: mach3_4, mm/min)
G54
(finish operation: Fixture)
(begin operation: TC: 6mm Endmill custom)
(machine: mach3_4, mm/min)
(TC: 6mm Endmill custom)
M5
M6 T3 
G43 H3
M3 S19000
(finish operation: TC: 6mm Endmill custom)
(begin operation: DressupPathBoundary010)
(machine: mach3_4, mm/min)
(Profile001)
(Compensated Tool Path. Diameter: 6.0)
G0 Z18.093
G0 Z20.093
G0 X249.305 Y275.902
G0 Z18.093
G1 Z16.100 F200.000
G1 X2.742 Y275.902 Z14.600 F1325.625
G2 X-0.258 Y278.902 Z14.572 I0.000 J3.000 F1330.000
G1 X-0.258 Y288.902 Z14.511 F1330.000
G2 X2.743 Y291.902 Z14.482 I3.000 J-0.000 F1330.000
G3 X24.669 Y291.902 Z14.349 I7.092 J2467188.338 F1330.000
G3 X29.715 Y296.412 Z14.304 I0.066 J5.004 F1330.000
G3 X29.742 Y298.902 Z14.289 I-25.329 J1.527 F1330.000
G2 X32.742 Y301.902 Z14.260 I3.000 J0.000 F1330.000
G1 X550.000 Y301.902 Z11.114 F1330.000
G1 X550.465 Y301.865 Z11.111 F1325.621
G1 X551.000 Y301.730 Z11.108 F1325.619
G0 Z18.093
G0 Z20.093
G0 X551.000 Y276.073
G0 Z18.093
G1 Z11.009 F200.000
G1 X550.549 Y275.952 Z11.008 F1327.495
G1 X550.000 Y275.902 Z11.006 F1327.494
G1 X2.742 Y275.902 Z9.102 F1330.000
G2 X-0.258 Y278.902 Z9.086 I0.000 J3.000 F1330.000
G1 X-0.258 Y288.902 Z9.051 F1330.000
G2 X2.743 Y291.902 Z9.035 I3.000 J-0.000 F1330.000
G3 X24.669 Y291.902 Z8.958 I7.092 J2467188.338 F1330.000
G3 X29.715 Y296.412 Z8.932 I0.066 J5.004 F1330.000
G3 X29.742 Y298.902 Z8.924 I-25.329 J1.527 F1330.000
G2 X32.742 Y301.902 Z8.907 I3.000 J0.000 F1330.000
G1 X550.000 Y301.902 Z7.108 F1330.000
G1 X550.465 Y301.865 Z7.106 F1327.495
G1 X551.000 Y301.730 Z7.105 F1327.494
G0 Z18.093
G0 Z20.093
G0 X551.000 Y276.073
G0 Z18.093
G1 Z7.009 F200.000
G1 X550.549 Y275.952 Z7.008 F1327.495
G1 X550.000 Y275.902 Z7.006 F1327.494
G1 X2.742 Y275.902 Z5.102 F1330.000
G2 X-0.258 Y278.902 Z5.086 I0.000 J3.000 F1330.000
G1 X-0.258 Y288.902 Z5.051 F1330.000
G2 X2.743 Y291.902 Z5.035 I3.000 J-0.000 F1330.000
G3 X24.669 Y291.902 Z4.958 I7.092 J2467188.338 F1330.000
G3 X29.715 Y296.412 Z4.932 I0.066 J5.004 F1330.000
G3 X29.742 Y298.902 Z4.924 I-25.329 J1.527 F1330.000
G2 X32.742 Y301.902 Z4.907 I3.000 J0.000 F1330.000
G1 X550.000 Y301.902 Z3.108 F1330.000
G1 X550.465 Y301.865 Z3.106 F1327.495
G1 X551.000 Y301.730 Z3.105 F1327.494
G0 Z18.093
G0 Z20.093
G0 X551.000 Y276.073
G0 Z18.093
G1 Z3.032 F200.000
G1 X550.549 Y275.952 Z3.031 F1328.121
G1 X550.000 Y275.902 Z3.029 F1328.120
G1 X2.742 Y275.902 Z1.601 F1330.000
G2 X-0.258 Y278.902 Z1.589 I0.000 J3.000 F1330.000
G1 X-0.258 Y288.902 Z1.563 F1330.000
G2 X2.743 Y291.902 Z1.550 I3.000 J-0.000 F1330.000
G3 X24.669 Y291.902 Z1.493 I7.092 J2467188.338 F1330.000
G3 X29.715 Y296.412 Z1.474 I0.066 J5.004 F1330.000
G3 X29.742 Y298.902 Z1.467 I-25.329 J1.527 F1330.000
G2 X32.742 Y301.902 Z1.455 I3.000 J0.000 F1330.000
G1 X550.000 Y301.902 Z0.105 F1330.000
G1 X550.465 Y301.865 Z0.104 F1328.121
G1 X551.000 Y301.730 Z0.102 F1328.120
G0 Z18.093
G0 Z20.093
G0 X551.000 Y276.073
G0 Z18.093
G1 Z0.099 F200.000
G2 X550.000 Y275.902 Z0.099 I-1.000 J2.828 F1330.000
G1 X2.742 Y275.902 Z0.099 F1330.000
G2 X-0.258 Y278.902 Z0.099 I0.000 J3.000 F1330.000
G1 X-0.258 Y288.902 Z0.099 F1330.000
G2 X2.743 Y291.902 Z0.099 I3.000 J-0.000 F1330.000
G3 X24.669 Y291.902 Z0.099 I7.092 J2467188.338 F1330.000
G3 X29.715 Y296.412 Z0.099 I0.066 J5.004 F1330.000
G3 X29.742 Y298.902 Z0.099 I-25.329 J1.527 F1330.000
G2 X32.742 Y301.902 Z0.099 I3.000 J0.000 F1330.000
G1 X550.000 Y301.902 Z0.099 F1330.000
G2 X551.000 Y301.730 Z0.099 I0.000 J-3.000 F1330.000
G0 Z18.093
G0 Z20.093
(finish operation: DressupPathBoundary010)
(begin postamble)
M05
G17 G54 G90 G80 G40
M2
