(Exported by FreeCAD)
(Post Processor: mach3_mach4_post)
(Output Time:2026-05-11 11:38:12.465839)
(begin preamble)
G17 G54 G40 G49 G80 G90
G21
(begin operation: Fixture)
(machine: mach3_4, mm/min)
G54
(finish operation: Fixture)
(begin operation: TC: 6mm Endmill custom)
(machine: mach3_4, mm/min)
(TC: 6mm Endmill custom)
M5
M6 T3 
G43 H3
M3 S19000
(finish operation: TC: 6mm Endmill custom)
(begin operation: DressupPathBoundary007)
(machine: mach3_4, mm/min)
(Profile010)
(Compensated Tool Path. Diameter: 6.0)
G0 Z18.093
G0 Z20.093
G0 X550.000 Y128.842
G0 Z18.093
G1 Z9.100 F200.000
G1 X4.760 Y119.903 Z9.100 F1330.000
G2 X2.200 Y121.261 Z9.100 I-0.049 J3.000 F1330.000
G0 Z18.093
G0 Z20.093
G0 X2.200 Y144.770
G0 Z18.093
G1 Z9.100 F200.000
G2 X4.547 Y145.902 Z9.100 I2.347 J-1.869 F1330.000
G1 X550.000 Y145.902 Z9.100 F1330.000
G0 Z18.093
G0 Z20.093
G0 X550.000 Y128.842
G0 Z18.093
G1 Z3.100 F200.000
G1 X4.760 Y119.903 Z3.100 F1330.000
G2 X2.200 Y121.261 Z3.100 I-0.049 J3.000 F1330.000
G0 Z18.093
G0 Z20.093
G0 X2.200 Y144.770
G0 Z18.093
G1 Z3.100 F200.000
G2 X4.547 Y145.902 Z3.100 I2.347 J-1.869 F1330.000
G1 X550.000 Y145.902 Z3.100 F1330.000
G0 Z18.093
G0 Z20.093
G0 X550.000 Y128.842
G0 Z18.093
G1 Z0.100 F200.000
G1 X4.760 Y119.903 Z0.100 F1330.000
G2 X2.200 Y121.261 Z0.100 I-0.049 J3.000 F1330.000
G0 Z18.093
G0 Z20.093
G0 X2.200 Y144.770
G0 Z18.093
G1 Z0.100 F200.000
G2 X4.547 Y145.902 Z0.100 I2.347 J-1.869 F1330.000
G1 X550.000 Y145.902 Z0.100 F1330.000
G0 Z18.093
G0 Z20.093
(finish operation: DressupPathBoundary007)
(begin postamble)
M05
G17 G54 G90 G80 G40
M2
