(Exported by FreeCAD)
(Post Processor: mach3_mach4_post)
(Output Time:2026-05-11 11:38:12.465839)
(begin preamble)
G17 G54 G40 G49 G80 G90
G21
(begin operation: Fixture)
(machine: mach3_4, mm/min)
G54
(finish operation: Fixture)
(begin operation: TC: 6mm Endmill custom)
(machine: mach3_4, mm/min)
(TC: 6mm Endmill custom)
M5
M6 T3 
G43 H3
M3 S19000
(finish operation: TC: 6mm Endmill custom)
(begin operation: DressupPathBoundary003)
(machine: mach3_4, mm/min)
(Profile007)
(Compensated Tool Path. Diameter: 6.0)
G0 Z18.093
G0 Z20.093
G0 X551.000 Y198.073
G0 Z18.093
G1 Z9.100 F200.000
G2 X550.000 Y197.902 Z9.100 I-1.000 J2.828 F1330.000
G1 X2.200 Y197.902 Z9.100 F1330.000
G2 X1.200 Y198.073 Z9.100 I0.000 J3.000 F1330.000
G0 Z18.093
G0 Z20.093
G0 X1.200 Y213.730
G0 Z18.093
G1 Z9.100 F200.000
G2 X2.200 Y213.902 Z9.100 I1.000 J-2.828 F1330.000
G2 X24.126 Y213.902 Z9.100 I19.466 J-2670982.177 F1330.000
G3 X29.172 Y218.412 Z9.100 I0.066 J5.004 F1330.000
G3 X29.200 Y220.902 Z9.100 I-25.329 J1.527 F1330.000
G2 X32.200 Y223.902 Z9.100 I3.000 J-0.000 F1330.000
G1 X550.000 Y223.902 Z9.100 F1330.000
G2 X551.000 Y223.730 Z9.100 I0.000 J-3.000 F1330.000
G0 Z18.093
G0 Z20.093
G0 X551.000 Y198.073
G0 Z18.093
G1 Z3.100 F200.000
G2 X550.000 Y197.902 Z3.100 I-1.000 J2.828 F1330.000
G1 X2.200 Y197.902 Z3.100 F1330.000
G2 X1.200 Y198.073 Z3.100 I0.000 J3.000 F1330.000
G0 Z18.093
G0 Z20.093
G0 X1.200 Y213.730
G0 Z18.093
G1 Z3.100 F200.000
G2 X2.200 Y213.902 Z3.100 I1.000 J-2.828 F1330.000
G2 X24.126 Y213.902 Z3.100 I19.466 J-2670982.177 F1330.000
G3 X29.172 Y218.412 Z3.100 I0.066 J5.004 F1330.000
G3 X29.200 Y220.902 Z3.100 I-25.329 J1.527 F1330.000
G2 X32.200 Y223.902 Z3.100 I3.000 J-0.000 F1330.000
G1 X550.000 Y223.902 Z3.100 F1330.000
G2 X551.000 Y223.730 Z3.100 I0.000 J-3.000 F1330.000
G0 Z18.093
G0 Z20.093
G0 X551.000 Y198.073
G0 Z18.093
G1 Z0.099 F200.000
G2 X550.000 Y197.902 Z0.099 I-1.000 J2.828 F1330.000
G1 X2.200 Y197.902 Z0.099 F1330.000
G2 X1.200 Y198.073 Z0.099 I0.000 J3.000 F1330.000
G0 Z18.093
G0 Z20.093
G0 X1.200 Y213.730
G0 Z18.093
G1 Z0.099 F200.000
G2 X2.200 Y213.902 Z0.099 I1.000 J-2.828 F1330.000
G2 X24.126 Y213.902 Z0.099 I19.466 J-2670982.177 F1330.000
G3 X29.172 Y218.412 Z0.099 I0.066 J5.004 F1330.000
G3 X29.200 Y220.902 Z0.099 I-25.329 J1.527 F1330.000
G2 X32.200 Y223.902 Z0.099 I3.000 J-0.000 F1330.000
G1 X550.000 Y223.902 Z0.099 F1330.000
G2 X551.000 Y223.730 Z0.099 I0.000 J-3.000 F1330.000
G0 Z18.093
G0 Z20.093
(finish operation: DressupPathBoundary003)
(begin postamble)
M05
G17 G54 G90 G80 G40
M2
