(Exported by FreeCAD)
(Post Processor: mach3_mach4_post)
(Output Time:2026-05-15 09:06:25.145064)
(begin preamble)
G17 G54 G40 G49 G80 G90
G21
(begin operation: Fixture)
(machine: mach3_4, mm/min)
G54
(finish operation: Fixture)
(begin operation: TC: 6mm Endmill custom)
(machine: mach3_4, mm/min)
(TC: 6mm Endmill custom)
M5
M6 T3 
G43 H3
M3 S19000
(finish operation: TC: 6mm Endmill custom)
(begin operation: DressupPathBoundary012)
(machine: mach3_4, mm/min)
(Profile021)
(Compensated Tool Path. Diameter: 6.0)
G0 Z18.093
G0 Z20.093
G0 X243.029 Y123.809
G0 Z18.093
G1 Z16.100 F200.000
G1 X4.760 Y119.903 Z14.639 F1325.590
G2 X1.711 Y122.878 Z14.610 I-0.049 J3.000 F1330.000
G1 X1.547 Y142.877 Z14.487 F1330.000
G2 X4.547 Y145.902 Z14.458 I3.000 J0.025 F1330.000
G1 X550.000 Y145.902 Z11.114 F1330.000
G1 X550.302 Y145.886 Z11.113 F1325.588
G1 X550.600 Y145.841 Z11.111 F1325.588
G0 Z18.093
G0 Z20.093
G0 X550.600 Y128.903
G0 Z18.093
G1 Z11.038 F200.000
G1 X550.049 Y128.842 Z11.037 F1327.474
G1 X4.760 Y119.903 Z9.124 F1330.000
G2 X1.711 Y122.878 Z9.108 I-0.049 J3.000 F1330.000
G1 X1.547 Y142.877 Z9.037 F1330.000
G2 X4.547 Y145.902 Z9.021 I3.000 J0.025 F1330.000
G1 X550.000 Y145.902 Z7.108 F1330.000
G1 X550.302 Y145.886 Z7.107 F1327.476
G1 X550.600 Y145.841 Z7.106 F1327.476
G0 Z18.093
G0 Z20.093
G0 X550.600 Y128.903
G0 Z18.093
G1 Z7.038 F200.000
G1 X550.049 Y128.842 Z7.037 F1327.474
G1 X4.760 Y119.903 Z5.124 F1330.000
G2 X1.711 Y122.878 Z5.108 I-0.049 J3.000 F1330.000
G1 X1.547 Y142.877 Z5.037 F1330.000
G2 X4.547 Y145.902 Z5.021 I3.000 J0.025 F1330.000
G1 X550.000 Y145.902 Z3.108 F1330.000
G1 X550.302 Y145.886 Z3.107 F1327.476
G1 X550.600 Y145.841 Z3.106 F1327.476
G0 Z18.093
G0 Z20.093
G0 X550.600 Y128.903
G0 Z18.093
G1 Z3.054 F200.000
G1 X550.049 Y128.842 Z3.052 F1328.105
G1 X4.760 Y119.903 Z1.618 F1330.000
G2 X1.711 Y122.878 Z1.605 I-0.049 J3.000 F1330.000
G1 X1.547 Y142.877 Z1.553 F1330.000
G2 X4.547 Y145.902 Z1.540 I3.000 J0.025 F1330.000
G1 X550.000 Y145.902 Z0.106 F1330.000
G1 X550.302 Y145.886 Z0.105 F1328.107
G1 X550.600 Y145.841 Z0.104 F1328.107
G0 Z18.093
G0 Z20.093
G0 X550.600 Y128.903
G0 Z18.093
G1 Z0.099 F200.000
G2 X550.049 Y128.842 Z0.099 I-0.600 J2.939 F1330.000
G1 X4.760 Y119.903 Z0.099 F1330.000
G2 X1.711 Y122.878 Z0.099 I-0.049 J3.000 F1330.000
G1 X1.547 Y142.877 Z0.099 F1330.000
G2 X4.547 Y145.902 Z0.099 I3.000 J0.025 F1330.000
G1 X550.000 Y145.902 Z0.099 F1330.000
G2 X550.600 Y145.841 Z0.099 I-0.000 J-3.000 F1330.000
G0 Z18.093
G0 Z20.093
(finish operation: DressupPathBoundary012)
(begin postamble)
M05
G17 G54 G90 G80 G40
M2
