(Exported by FreeCAD)
(Post Processor: mach3_mach4_post)
(Output Time:2026-05-11 11:38:12.465839)
(begin preamble)
G17 G54 G40 G49 G80 G90
G21
(begin operation: Fixture)
(machine: mach3_4, mm/min)
G54
(finish operation: Fixture)
(begin operation: TC: 6mm Endmill custom)
(machine: mach3_4, mm/min)
(TC: 6mm Endmill custom)
M5
M6 T3 
G43 H3
M3 S19000
(finish operation: TC: 6mm Endmill custom)
(begin operation: DressupTag001)
(machine: mach3_4, mm/min)
G0 Z20.093
G0 X43.124 Y100.875 Z20.093
G0 X43.124 Y100.875 Z18.093
G1 X43.124 Y100.875 Z9.100 F200.000
G2 X44.003 Y98.753 Z9.100 I-2.121 J-2.121 F1330.000
G1 X44.003 Y2.753 Z9.100 F1330.000
G2 X41.003 Y-0.247 Z9.100 I-3.000 J-0.000 F1330.000
G1 X3.003 Y-0.247 Z9.100 F1330.000
G2 X0.003 Y2.753 Z9.100 I-0.000 J3.000 F1330.000
G1 X0.003 Y17.753 Z9.100 F1330.000
G2 X3.003 Y20.753 Z9.100 I3.000 J-0.000 F1330.000
G3 X16.905 Y20.753 Z9.100 I6.518 J519025.102 F1330.000
G3 X18.003 Y21.852 Z9.100 I0.076 J1.023 F1330.000
G1 X18.003 Y79.655 Z9.100 F1330.000
G3 X16.905 Y80.753 Z9.100 I-1.022 J0.076 F1330.000
G1 X3.003 Y80.753 Z9.100 F1330.000
G2 X0.003 Y83.753 Z9.100 I0.000 J3.000 F1330.000
G1 X0.003 Y98.753 Z9.100 F1330.000
G2 X3.003 Y101.753 Z9.100 I3.000 J0.000 F1330.000
G1 X41.003 Y101.753 Z9.100 F1330.000
G2 X43.124 Y100.875 Z9.100 I0.000 J-3.000 F1330.000
G1 X43.124 Y100.875 Z3.100 F200.000
G2 X44.003 Y98.753 Z3.100 I-2.121 J-2.121 F1330.000
G1 X44.003 Y31.478 Z3.100 F1330.000
G1 X44.003 Y26.978 Z7.600 F765.000
G1 X44.003 Y26.528 Z7.600 F1330.000
G1 X44.003 Y22.028 Z3.100 F765.000
G1 X44.003 Y2.753 Z3.100 F1330.000
G2 X41.003 Y-0.247 Z3.100 I-3.000 J-0.000 F1330.000
G1 X3.003 Y-0.247 Z3.100 F1330.000
G2 X0.003 Y2.753 Z3.100 I-0.000 J3.000 F1330.000
G1 X0.003 Y17.753 Z3.100 F1330.000
G2 X3.003 Y20.753 Z3.100 I3.000 J-0.000 F1330.000
G3 X16.905 Y20.753 Z3.100 I6.518 J519025.102 F1330.000
G3 X18.003 Y21.852 Z3.100 I0.076 J1.023 F1330.000
G1 X18.003 Y79.655 Z3.100 F1330.000
G3 X16.905 Y80.753 Z3.100 I-1.022 J0.076 F1330.000
G1 X3.003 Y80.753 Z3.100 F1330.000
G2 X0.003 Y83.753 Z3.100 I0.000 J3.000 F1330.000
G1 X0.003 Y98.753 Z3.100 F1330.000
G2 X3.003 Y101.753 Z3.100 I3.000 J0.000 F1330.000
G1 X41.003 Y101.753 Z3.100 F1330.000
G2 X43.124 Y100.875 Z3.100 I0.000 J-3.000 F1330.000
G1 X43.124 Y100.875 Z0.100 F200.000
G2 X44.003 Y98.753 Z0.100 I-2.121 J-2.121 F1330.000
G1 X44.003 Y34.478 Z0.100 F1330.000
G1 X44.003 Y26.978 Z7.600 F765.000
G1 X44.003 Y26.528 Z7.600 F1330.000
G1 X44.003 Y19.028 Z0.100 F765.000
G1 X44.003 Y2.753 Z0.100 F1330.000
G2 X41.003 Y-0.247 Z0.100 I-3.000 J-0.000 F1330.000
G1 X3.003 Y-0.247 Z0.100 F1330.000
G2 X0.003 Y2.753 Z0.100 I-0.000 J3.000 F1330.000
G1 X0.003 Y17.753 Z0.100 F1330.000
G2 X3.003 Y20.753 Z0.100 I3.000 J-0.000 F1330.000
G3 X16.905 Y20.753 Z0.100 I6.518 J519025.102 F1330.000
G3 X18.003 Y21.852 Z0.100 I0.076 J1.023 F1330.000
G1 X18.003 Y79.655 Z0.100 F1330.000
G3 X16.905 Y80.753 Z0.100 I-1.022 J0.076 F1330.000
G1 X3.003 Y80.753 Z0.100 F1330.000
G2 X0.003 Y83.753 Z0.100 I0.000 J3.000 F1330.000
G1 X0.003 Y98.753 Z0.100 F1330.000
G2 X3.003 Y101.753 Z0.100 I3.000 J0.000 F1330.000
G1 X41.003 Y101.753 Z0.100 F1330.000
G2 X43.124 Y100.875 Z0.100 I0.000 J-3.000 F1330.000
G0 X43.124 Y100.875 Z20.093
(finish operation: DressupTag001)
(begin postamble)
M05
G17 G54 G90 G80 G40
M2
