(Exported by FreeCAD)
(Post Processor: mach3_mach4_post)
(Output Time:2026-05-11 15:44:48.477445)
(begin preamble)
G17 G54 G40 G49 G80 G90
G21
(begin operation: Fixture)
(machine: mach3_4, mm/min)
G54
(finish operation: Fixture)
(begin operation: TC: 6mm Endmill custom002)
(machine: mach3_4, mm/min)
(TC: 6mm Endmill custom002)
M5
M6 T2 
G43 H2
M3 S19000
(finish operation: TC: 6mm Endmill custom002)
(begin operation: DressupTag002)
(machine: mach3_4, mm/min)
G0 Z19.095
G0 X0.000 Y0.000 Z21.095
G0 X316.717 Y144.994 Z21.095
G0 X316.717 Y144.994 Z19.095
G1 X316.717 Y144.994 Z16.092 F200.000
G1 X316.717 Y144.994 Z10.095 F200.000
G2 X317.567 Y142.926 Z10.095 I-2.150 J-2.093 F1330.000
G1 X317.649 Y132.927 Z10.095 F1330.000
G2 X314.698 Y129.902 Z10.095 I-3.000 J-0.025 F1330.000
G1 X250.049 Y128.842 Z10.095 F1330.000
G2 X249.700 Y128.857 Z10.095 I-0.049 J3.000 F1330.000
G0 X249.700 Y128.857 Z19.095
G0 X249.700 Y128.857 Z21.095
G0 X249.700 Y145.887 Z21.095
G0 X249.700 Y145.887 Z19.095
G1 X249.700 Y145.887 Z10.095 F200.000
G2 X250.000 Y145.902 Z10.095 I0.300 J-2.985 F1330.000
G1 X314.567 Y145.902 Z10.095 F1330.000
G2 X316.717 Y144.994 Z10.095 I-0.000 J-3.000 F1330.000
G1 X316.717 Y144.994 Z4.095 F200.000
G2 X317.567 Y142.926 Z4.095 I-2.150 J-2.093 F1330.000
G1 X317.649 Y132.927 Z4.095 F1330.000
G2 X314.698 Y129.902 Z4.095 I-3.000 J-0.025 F1330.000
G1 X260.771 Y129.018 Z4.095 F1330.000
G1 X258.635 Y128.983 Z6.252 F761.425
G1 X258.562 Y128.982 Z6.325 F765.012
G1 X258.536 Y128.982 Z6.304 F837.354
G1 X256.348 Y128.946 Z4.095 F761.434
G1 X250.049 Y128.842 Z4.095 F1330.000
G2 X249.700 Y128.857 Z4.095 I-0.049 J3.000 F1330.000
G0 X249.700 Y128.857 Z19.095
G0 X249.700 Y128.857 Z21.095
G0 X249.700 Y145.887 Z21.095
G0 X249.700 Y145.887 Z19.095
G1 X249.700 Y145.887 Z4.095 F200.000
G2 X250.000 Y145.902 Z4.095 I0.300 J-2.985 F1330.000
G1 X256.358 Y145.902 Z4.095 F1330.000
G1 X258.587 Y145.902 Z6.312 F766.840
G1 X260.782 Y145.902 Z4.095 F761.433
G1 X314.567 Y145.902 Z4.095 F1330.000
G2 X316.717 Y144.994 Z4.095 I-0.000 J-3.000 F1330.000
G1 X316.717 Y144.994 Z0.094 F200.000
G2 X317.567 Y142.926 Z0.094 I-2.150 J-2.093 F1330.000
G1 X317.649 Y132.927 Z0.094 F1330.000
G2 X314.698 Y129.902 Z0.094 I-3.000 J-0.025 F1330.000
G1 X264.732 Y129.083 Z0.094 F1330.000
G1 X258.441 Y128.980 Z6.209 F775.244
G1 X252.388 Y128.881 Z0.094 F761.422
G1 X250.049 Y128.842 Z0.094 F1330.000
G2 X249.700 Y128.857 Z0.094 I-0.049 J3.000 F1330.000
G0 X249.700 Y128.857 Z19.095
G0 X249.700 Y128.857 Z21.095
G0 X249.700 Y145.887 Z21.095
G0 X249.700 Y145.887 Z19.095
G1 X249.700 Y145.887 Z0.094 F200.000
G2 X250.000 Y145.902 Z0.094 I0.300 J-2.985 F1330.000
G1 X252.397 Y145.902 Z0.094 F1330.000
G1 X258.657 Y145.902 Z6.241 F771.525
G1 X264.743 Y145.902 Z0.094 F761.422
G1 X314.567 Y145.902 Z0.094 F1330.000
G2 X316.717 Y144.994 Z0.094 I-0.000 J-3.000 F1330.000
G1 X316.717 Y144.994 Z16.092 F200.000
G0 X316.717 Y144.994 Z19.095
G0 X316.717 Y144.994 Z21.095
(finish operation: DressupTag002)
(begin postamble)
M05
G17 G54 G90 G80 G40
M2
