(Exported by FreeCAD)
(Post Processor: mach3_mach4_post)
(Output Time:2026-05-15 09:05:58.035876)
(begin preamble)
G17 G54 G40 G49 G80 G90
G21
(begin operation: Fixture)
(machine: mach3_4, mm/min)
G54
(finish operation: Fixture)
(begin operation: TC: 6mm Endmill custom002)
(machine: mach3_4, mm/min)
(TC: 6mm Endmill custom002)
M5
M6 T2 
G43 H2
M3 S19000
(finish operation: TC: 6mm Endmill custom002)
(begin operation: DressupTag011)
(machine: mach3_4, mm/min)
G0 Z19.095
G0 X0.000 Y0.000 Z21.095
G0 X276.445 Y145.902 Z21.095
G0 X276.445 Y145.902 Z19.095
G1 X276.445 Y145.902 Z16.095 F200.000
G1 X250.000 Y145.902 Z14.795 F1294.673
G1 X249.535 Y145.938 Z14.772 F1294.637
G1 X249.000 Y146.073 Z14.745 F1294.623
G0 X249.000 Y146.073 Z19.095
G0 X249.000 Y146.073 Z21.095
G0 X249.000 Y171.730 Z21.095
G0 X249.000 Y171.730 Z19.095
G1 X249.000 Y171.730 Z13.399 F200.000
G1 X249.451 Y171.851 Z13.376 F1294.637
G1 X250.000 Y171.902 Z13.349 F1294.623
G1 X312.630 Y171.902 Z10.271 F1294.673
G1 X312.630 Y171.902 Z10.271 F1294.673
G1 X313.856 Y171.902 Z10.210 F1294.673
G1 X314.321 Y171.865 Z10.187 F1294.637
G1 X314.775 Y171.757 Z10.164 F1294.637
G1 X315.207 Y171.580 Z10.141 F1294.637
G1 X315.606 Y171.338 Z10.119 F1294.637
G1 X315.977 Y171.023 Z10.095 F1294.634
G1 X316.280 Y170.668 Z10.079 F1306.414
G1 X316.525 Y170.271 Z10.064 F1306.414
G1 X316.705 Y169.840 Z10.049 F1306.414
G1 X316.816 Y169.387 Z10.033 F1306.414
G1 X316.856 Y168.902 Z10.017 F1306.412
G1 X316.856 Y158.902 Z9.690 F1306.438
G1 X316.819 Y158.436 Z9.674 F1306.414
G1 X316.711 Y157.982 Z9.659 F1306.414
G1 X316.534 Y157.551 Z9.644 F1306.414
G1 X316.292 Y157.152 Z9.628 F1306.414
G1 X315.992 Y156.795 Z9.613 F1306.414
G1 X315.639 Y156.489 Z9.598 F1306.414
G1 X315.243 Y156.242 Z9.583 F1306.414
G1 X314.814 Y156.059 Z9.567 F1306.414
G1 X314.362 Y155.945 Z9.552 F1306.414
G1 X313.856 Y155.902 Z9.535 F1306.410
G1 X291.929 Y155.902 Z8.817 F1306.438
G1 X291.327 Y155.873 Z8.797 F1306.424
G1 X290.732 Y155.772 Z8.777 F1306.424
G1 X290.154 Y155.601 Z8.758 F1306.424
G1 X289.601 Y155.361 Z8.738 F1306.424
G1 X289.081 Y155.057 Z8.718 F1306.424
G1 X288.601 Y154.692 Z8.698 F1306.424
G1 X288.168 Y154.272 Z8.679 F1306.424
G1 X287.789 Y153.803 Z8.659 F1306.424
G1 X287.469 Y153.292 Z8.639 F1306.424
G1 X287.213 Y152.746 Z8.619 F1306.424
G1 X287.024 Y152.174 Z8.599 F1306.424
G1 X286.938 Y151.785 Z8.586 F1306.432
G1 X286.883 Y151.391 Z8.573 F1306.432
G1 X286.838 Y150.036 Z8.529 F1306.435
G1 X286.856 Y148.902 Z8.492 F1306.436
G1 X286.819 Y148.437 Z8.476 F1306.414
G1 X286.712 Y147.983 Z8.461 F1306.414
G1 X286.534 Y147.551 Z8.446 F1306.414
G1 X286.293 Y147.152 Z8.431 F1306.414
G1 X285.992 Y146.795 Z8.415 F1306.414
G1 X285.639 Y146.489 Z8.400 F1306.414
G1 X285.244 Y146.242 Z8.385 F1306.414
G1 X284.814 Y146.059 Z8.369 F1306.414
G1 X284.362 Y145.945 Z8.354 F1306.414
G1 X283.856 Y145.902 Z8.337 F1306.410
G1 X250.000 Y145.902 Z7.228 F1306.438
G1 X249.535 Y145.938 Z7.213 F1306.414
G1 X249.000 Y146.073 Z7.195 F1306.405
G0 X249.000 Y146.073 Z19.095
G0 X249.000 Y146.073 Z21.095
G0 X249.000 Y171.730 Z21.095
G0 X249.000 Y171.730 Z19.095
G1 X249.000 Y171.730 Z6.297 F200.000
G1 X249.451 Y171.851 Z6.282 F1306.414
G1 X250.000 Y171.902 Z6.264 F1306.405
G1 X265.846 Y171.902 Z5.745 F1306.438
G1 X266.321 Y171.902 Z6.221 F763.548
G1 X266.825 Y171.902 Z5.713 F762.068
G1 X312.630 Y171.902 Z4.212 F1306.438
G1 X312.630 Y171.902 Z4.212 F1306.438
G1 X313.856 Y171.902 Z4.172 F1306.438
G1 X314.321 Y171.865 Z4.156 F1306.414
G1 X314.775 Y171.757 Z4.141 F1306.414
G1 X315.207 Y171.580 Z4.126 F1306.414
G1 X315.606 Y171.338 Z4.111 F1306.414
G1 X315.977 Y171.023 Z4.095 F1306.412
G1 X316.280 Y170.668 Z4.084 F1314.270
G1 X316.525 Y170.271 Z4.074 F1314.270
G1 X316.705 Y169.840 Z4.064 F1314.270
G1 X316.816 Y169.387 Z4.054 F1314.270
G1 X316.856 Y168.902 Z4.043 F1314.269
G1 X316.856 Y158.902 Z3.825 F1314.286
G1 X316.819 Y158.436 Z3.814 F1314.270
G1 X316.711 Y157.982 Z3.804 F1314.270
G1 X316.534 Y157.551 Z3.794 F1314.270
G1 X316.292 Y157.152 Z3.784 F1314.270
G1 X315.992 Y156.795 Z3.774 F1314.270
G1 X315.639 Y156.489 Z3.763 F1314.270
G1 X315.243 Y156.242 Z3.753 F1314.270
G1 X314.814 Y156.059 Z3.743 F1314.270
G1 X314.362 Y155.945 Z3.733 F1314.270
G1 X313.856 Y155.902 Z3.722 F1314.267
G1 X291.929 Y155.902 Z3.243 F1314.286
G1 X291.327 Y155.873 Z3.229 F1314.277
G1 X290.732 Y155.772 Z3.216 F1314.277
G1 X290.154 Y155.601 Z3.203 F1314.277
G1 X289.601 Y155.361 Z3.190 F1314.277
G1 X289.081 Y155.057 Z3.177 F1314.277
G1 X288.601 Y154.692 Z3.164 F1314.277
G1 X288.168 Y154.272 Z3.150 F1314.276
G1 X287.789 Y153.803 Z3.137 F1314.277
G1 X287.469 Y153.292 Z3.124 F1314.277
G1 X287.213 Y152.746 Z3.111 F1314.277
G1 X287.024 Y152.174 Z3.098 F1314.277
G1 X286.938 Y151.785 Z3.089 F1314.282
G1 X286.883 Y151.391 Z3.080 F1314.282
G1 X286.838 Y150.036 Z3.051 F1314.284
G1 X286.856 Y148.902 Z3.026 F1314.285
G1 X286.819 Y148.437 Z3.016 F1314.270
G1 X286.712 Y147.983 Z3.005 F1314.270
G1 X286.534 Y147.551 Z2.995 F1314.270
G1 X286.293 Y147.152 Z2.985 F1314.270
G1 X285.992 Y146.795 Z2.975 F1314.270
G1 X285.639 Y146.489 Z2.965 F1314.270
G1 X285.244 Y146.242 Z2.954 F1314.270
G1 X284.814 Y146.059 Z2.944 F1314.270
G1 X284.362 Y145.945 Z2.934 F1314.270
G1 X283.856 Y145.902 Z2.923 F1314.267
G1 X270.996 Y145.902 Z2.642 F1314.286
G1 X267.531 Y145.902 Z6.142 F761.423
G1 X267.452 Y145.902 Z6.221 F764.344
G1 X267.415 Y145.902 Z6.188 F799.649
G1 X263.747 Y145.902 Z2.484 F761.424
G1 X250.000 Y145.902 Z2.183 F1314.286
G1 X249.535 Y145.938 Z2.173 F1314.270
G1 X249.000 Y146.073 Z2.161 F1314.264
G0 X249.000 Y146.073 Z19.095
G0 X249.000 Y146.073 Z21.095
G0 X249.000 Y171.730 Z21.095
G0 X249.000 Y171.730 Z19.095
G1 X249.000 Y171.730 Z1.563 F200.000
G1 X249.451 Y171.851 Z1.552 F1314.270
G1 X250.000 Y171.902 Z1.540 F1314.264
G1 X261.436 Y171.902 Z1.291 F1314.286
G1 X266.381 Y171.902 Z6.162 F770.351
G1 X271.420 Y171.902 Z1.072 F761.423
G1 X312.630 Y171.902 Z0.172 F1314.286
G1 X312.630 Y171.902 Z0.172 F1314.286
G1 X313.856 Y171.902 Z0.145 F1314.286
G1 X314.321 Y171.865 Z0.135 F1314.270
G1 X314.775 Y171.757 Z0.125 F1314.270
G1 X315.207 Y171.580 Z0.115 F1314.270
G1 X315.606 Y171.338 Z0.104 F1314.270
G1 X315.977 Y171.023 Z0.094 F1314.269
G2 X316.856 Y168.902 Z0.094 I-2.121 J-2.121 F1330.000
G1 X316.856 Y158.902 Z0.094 F1330.000
G2 X313.856 Y155.902 Z0.094 I-3.000 J-0.000 F1330.000
G3 X291.929 Y155.902 Z0.094 I-7.021 J-1258142.789 F1330.000
G3 X286.883 Y151.391 Z0.094 I-0.066 J-5.004 F1330.000
G3 X286.856 Y148.902 Z0.094 I25.275 J-1.524 F1330.000
G2 X283.856 Y145.902 Z0.094 I-3.000 J-0.000 F1330.000
G1 X273.519 Y145.902 Z0.094 F1330.000
G1 X267.368 Y145.902 Z6.141 F771.090
G1 X261.381 Y145.902 Z0.094 F761.422
G1 X250.000 Y145.902 Z0.094 F1330.000
G2 X249.000 Y146.073 Z0.094 I-0.000 J3.000 F1330.000
G0 X249.000 Y146.073 Z19.095
G0 X249.000 Y146.073 Z21.095
G0 X249.000 Y171.730 Z21.095
G0 X249.000 Y171.730 Z19.095
G1 X249.000 Y171.730 Z0.094 F200.000
G2 X250.000 Y171.902 Z0.094 I1.000 J-2.828 F1330.000
G1 X260.251 Y171.902 Z0.094 F1330.000
G1 X266.405 Y171.902 Z6.137 F771.500
G1 X272.389 Y171.902 Z0.094 F761.422
G1 X312.630 Y171.902 Z0.094 F1330.000
G1 X312.630 Y171.902 Z0.094 F1330.000
G1 X313.856 Y171.902 Z0.094 F1330.000
G2 X315.977 Y171.023 Z0.094 I-0.000 J-3.000 F1330.000
G1 X315.977 Y171.023 Z16.095 F200.000
G0 X315.977 Y171.023 Z19.095
G0 X315.977 Y171.023 Z21.095
(finish operation: DressupTag011)
(begin postamble)
M05
G17 G54 G90 G80 G40
M2
