(Exported by FreeCAD)
(Post Processor: mach3_mach4_post)
(Output Time:2026-05-11 15:44:48.477445)
(begin preamble)
G17 G54 G40 G49 G80 G90
G21
(begin operation: Fixture)
(machine: mach3_4, mm/min)
G54
(finish operation: Fixture)
(begin operation: TC: 6mm Endmill custom002)
(machine: mach3_4, mm/min)
(TC: 6mm Endmill custom002)
M5
M6 T2 
G43 H2
M3 S19000
(finish operation: TC: 6mm Endmill custom002)
(begin operation: DressupTag004)
(machine: mach3_4, mm/min)
G0 Z19.095
G0 X0.000 Y0.000 Z21.095
G0 X315.021 Y197.023 Z21.095
G0 X315.021 Y197.023 Z19.095
G1 X315.021 Y197.023 Z16.092 F200.000
G1 X315.021 Y197.023 Z10.095 F200.000
G2 X315.900 Y194.902 Z10.095 I-2.121 J-2.121 F1330.000
G1 X315.900 Y184.902 Z10.095 F1330.000
G2 X312.900 Y181.902 Z10.095 I-3.000 J-0.000 F1330.000
G3 X290.972 Y181.902 Z10.095 I-7.649 J-1055205.132 F1330.000
G3 X285.926 Y177.383 Z10.095 I-0.063 J-5.006 F1330.000
G3 X285.900 Y174.902 Z10.095 I26.159 J-1.517 F1330.000
G2 X282.900 Y171.902 Z10.095 I-3.000 J0.000 F1330.000
G1 X250.000 Y171.902 Z10.095 F1330.000
G2 X249.700 Y171.917 Z10.095 I0.000 J3.000 F1330.000
G0 X249.700 Y171.917 Z19.095
G0 X249.700 Y171.917 Z21.095
G0 X249.700 Y197.887 Z21.095
G0 X249.700 Y197.887 Z19.095
G1 X249.700 Y197.887 Z10.095 F200.000
G2 X250.000 Y197.902 Z10.095 I0.300 J-2.985 F1330.000
G1 X312.900 Y197.902 Z10.095 F1330.000
G2 X315.021 Y197.023 Z10.095 I-0.000 J-3.000 F1330.000
G1 X315.021 Y197.023 Z4.095 F200.000
G2 X315.900 Y194.902 Z4.095 I-2.121 J-2.121 F1330.000
G1 X315.900 Y184.902 Z4.095 F1330.000
G2 X312.900 Y181.902 Z4.095 I-3.000 J-0.000 F1330.000
G3 X290.972 Y181.902 Z4.095 I-7.649 J-1055205.132 F1330.000
G3 X285.926 Y177.383 Z4.095 I-0.063 J-5.006 F1330.000
G3 X285.900 Y174.902 Z4.095 I26.159 J-1.517 F1330.000
G2 X282.900 Y171.902 Z4.095 I-3.000 J0.000 F1330.000
G1 X259.742 Y171.902 Z4.095 F1330.000
G1 X257.604 Y171.902 Z6.222 F766.763
G1 X255.498 Y171.902 Z4.095 F761.435
G1 X250.000 Y171.902 Z4.095 F1330.000
G2 X249.700 Y171.917 Z4.095 I0.000 J3.000 F1330.000
G0 X249.700 Y171.917 Z19.095
G0 X249.700 Y171.917 Z21.095
G0 X249.700 Y197.887 Z21.095
G0 X249.700 Y197.887 Z19.095
G1 X249.700 Y197.887 Z4.095 F200.000
G2 X250.000 Y197.902 Z4.095 I0.300 J-2.985 F1330.000
G1 X255.298 Y197.902 Z4.095 F1330.000
G1 X257.436 Y197.902 Z6.222 F766.786
G1 X259.542 Y197.902 Z4.095 F761.435
G1 X304.088 Y197.902 Z4.095 F1330.000
G1 X306.225 Y197.902 Z6.223 F766.620
G1 X308.332 Y197.902 Z4.095 F761.435
G1 X312.900 Y197.902 Z4.095 F1330.000
G2 X315.021 Y197.023 Z4.095 I-0.000 J-3.000 F1330.000
G1 X315.021 Y197.023 Z0.094 F200.000
G2 X315.900 Y194.902 Z0.094 I-2.121 J-2.121 F1330.000
G1 X315.900 Y184.902 Z0.094 F1330.000
G2 X312.900 Y181.902 Z0.094 I-3.000 J-0.000 F1330.000
G3 X290.972 Y181.902 Z0.094 I-7.649 J-1055205.132 F1330.000
G3 X285.926 Y177.383 Z0.094 I-0.063 J-5.006 F1330.000
G3 X285.900 Y174.902 Z0.094 I26.159 J-1.517 F1330.000
G2 X282.900 Y171.902 Z0.094 I-3.000 J0.000 F1330.000
G1 X263.704 Y171.902 Z0.094 F1330.000
G1 X257.535 Y171.902 Z6.152 F771.532
G1 X251.536 Y171.902 Z0.094 F761.422
G1 X250.000 Y171.902 Z0.094 F1330.000
G2 X249.700 Y171.917 Z0.094 I0.000 J3.000 F1330.000
G0 X249.700 Y171.917 Z19.095
G0 X249.700 Y171.917 Z21.095
G0 X249.700 Y197.887 Z21.095
G0 X249.700 Y197.887 Z19.095
G1 X249.700 Y197.887 Z0.094 F200.000
G2 X250.000 Y197.902 Z0.094 I0.300 J-2.985 F1330.000
G1 X251.336 Y197.902 Z0.094 F1330.000
G1 X257.506 Y197.902 Z6.151 F771.569
G1 X263.504 Y197.902 Z0.094 F761.422
G1 X300.126 Y197.902 Z0.094 F1330.000
G1 X306.294 Y197.902 Z6.154 F771.305
G1 X312.294 Y197.902 Z0.094 F761.422
G1 X312.900 Y197.902 Z0.094 F1330.000
G2 X315.021 Y197.023 Z0.094 I-0.000 J-3.000 F1330.000
G1 X315.021 Y197.023 Z16.092 F200.000
G0 X315.021 Y197.023 Z19.095
G0 X315.021 Y197.023 Z21.095
(finish operation: DressupTag004)
(begin postamble)
M05
G17 G54 G90 G80 G40
M2
