(Exported by FreeCAD)
(Post Processor: mach3_mach4_post)
(Output Time:2026-05-15 09:05:58.035876)
(begin preamble)
G17 G54 G40 G49 G80 G90
G21
(begin operation: Fixture)
(machine: mach3_4, mm/min)
G54
(finish operation: Fixture)
(begin operation: TC: 6mm Endmill custom002)
(machine: mach3_4, mm/min)
(TC: 6mm Endmill custom002)
M5
M6 T2 
G43 H2
M3 S19000
(finish operation: TC: 6mm Endmill custom002)
(begin operation: DressupTag014)
(machine: mach3_4, mm/min)
G0 Z19.095
G0 X0.000 Y0.000 Z21.095
G0 X279.264 Y75.392 Z21.095
G0 X279.264 Y75.392 Z19.095
G1 X279.264 Y75.392 Z16.095 F200.000
G1 X251.500 Y59.365 Z14.817 F1301.341
G1 X251.064 Y59.158 Z14.797 F1301.341
G1 X250.616 Y59.027 Z14.779 F1301.312
G1 X250.153 Y58.967 Z14.760 F1301.312
G1 X249.687 Y58.980 Z14.742 F1301.312
G1 X249.228 Y59.065 Z14.723 F1301.312
G1 X249.000 Y59.135 Z14.713 F1301.333
G0 X249.000 Y59.135 Z19.095
G0 X249.000 Y59.135 Z21.095
G0 X249.000 Y99.489 Z21.095
G0 X249.000 Y99.489 Z19.095
G1 X249.000 Y99.489 Z13.037 F200.000
G1 X299.657 Y128.729 Z10.706 F1301.341
G1 X300.375 Y129.101 Z10.674 F1301.331
G1 X301.124 Y129.408 Z10.641 F1301.331
G1 X301.898 Y129.645 Z10.609 F1301.331
G1 X302.690 Y129.812 Z10.577 F1301.331
G1 X303.493 Y129.908 Z10.545 F1301.331
G1 X304.302 Y129.931 Z10.512 F1301.331
G1 X305.109 Y129.881 Z10.480 F1301.331
G1 X305.909 Y129.759 Z10.448 F1301.331
G1 X306.695 Y129.566 Z10.416 F1301.331
G1 X307.460 Y129.303 Z10.383 F1301.331
G1 X308.199 Y128.973 Z10.351 F1301.331
G1 X308.905 Y128.577 Z10.319 F1301.331
G1 X309.572 Y128.120 Z10.287 F1301.331
G1 X310.196 Y127.605 Z10.254 F1301.331
G1 X310.771 Y127.035 Z10.222 F1301.331
G1 X311.293 Y126.417 Z10.190 F1301.331
G1 X311.951 Y125.434 Z10.143 F1301.320
G1 X312.553 Y124.391 Z10.095 F1301.341
G1 X320.949 Y109.845 Z9.648 F1310.888
G1 X321.322 Y109.127 Z9.627 F1310.882
G1 X321.628 Y108.378 Z9.605 F1310.882
G1 X321.865 Y107.605 Z9.584 F1310.882
G1 X322.033 Y106.813 Z9.562 F1310.882
G1 X322.128 Y106.010 Z9.541 F1310.882
G1 X322.151 Y105.202 Z9.519 F1310.882
G1 X322.102 Y104.394 Z9.498 F1310.882
G1 X321.980 Y103.595 Z9.476 F1310.882
G1 X321.787 Y102.809 Z9.455 F1310.882
G1 X321.524 Y102.044 Z9.433 F1310.882
G1 X321.193 Y101.306 Z9.412 F1310.882
G1 X320.798 Y100.600 Z9.390 F1310.882
G1 X320.341 Y99.933 Z9.369 F1310.882
G1 X319.826 Y99.309 Z9.347 F1310.882
G1 X319.256 Y98.734 Z9.326 F1310.882
G1 X318.638 Y98.213 Z9.304 F1310.882
G1 X317.797 Y97.639 Z9.277 F1310.878
G1 X317.792 Y97.646 Z9.277 F1310.888
G1 X317.654 Y97.551 Z9.272 F1310.888
G1 X251.500 Y59.365 Z7.243 F1310.888
G1 X251.064 Y59.158 Z7.230 F1310.888
G1 X250.616 Y59.027 Z7.217 F1310.869
G1 X250.153 Y58.967 Z7.205 F1310.869
G1 X249.687 Y58.980 Z7.193 F1310.869
G1 X249.228 Y59.065 Z7.180 F1310.869
G1 X249.000 Y59.135 Z7.174 F1310.883
G0 X249.000 Y59.135 Z19.095
G0 X249.000 Y59.135 Z21.095
G0 X249.000 Y99.489 Z21.095
G0 X249.000 Y99.489 Z19.095
G1 X249.000 Y99.489 Z6.056 F200.000
G1 X260.583 Y106.175 Z5.701 F1310.888
G1 X261.626 Y106.777 Z6.907 F764.725
G1 X262.719 Y107.408 Z5.635 F762.173
G1 X299.657 Y128.729 Z4.502 F1310.888
G1 X300.375 Y129.101 Z4.481 F1310.882
G1 X301.124 Y129.408 Z4.459 F1310.882
G1 X301.898 Y129.645 Z4.438 F1310.882
G1 X302.690 Y129.812 Z4.416 F1310.882
G1 X303.493 Y129.908 Z4.395 F1310.882
G1 X304.302 Y129.931 Z4.373 F1310.882
G1 X305.109 Y129.881 Z4.352 F1310.882
G1 X305.909 Y129.759 Z4.330 F1310.882
G1 X306.695 Y129.566 Z4.309 F1310.882
G1 X307.460 Y129.303 Z4.287 F1310.882
G1 X308.199 Y128.973 Z4.266 F1310.882
G1 X308.905 Y128.577 Z4.244 F1310.882
G1 X309.572 Y128.120 Z4.223 F1310.882
G1 X310.196 Y127.605 Z4.201 F1310.882
G1 X310.771 Y127.035 Z4.180 F1310.882
G1 X311.293 Y126.417 Z4.158 F1310.882
G1 X311.951 Y125.434 Z4.127 F1310.874
G1 X312.553 Y124.391 Z4.095 F1310.888
G1 X320.949 Y109.845 Z3.797 F1317.256
G1 X321.322 Y109.127 Z3.783 F1317.252
G1 X321.628 Y108.378 Z3.768 F1317.252
G1 X321.865 Y107.605 Z3.754 F1317.252
G1 X322.033 Y106.813 Z3.740 F1317.252
G1 X322.128 Y106.010 Z3.725 F1317.252
G1 X322.151 Y105.202 Z3.711 F1317.252
G1 X322.102 Y104.394 Z3.697 F1317.252
G1 X321.980 Y103.595 Z3.682 F1317.252
G1 X321.787 Y102.809 Z3.668 F1317.252
G1 X321.524 Y102.044 Z3.654 F1317.252
G1 X321.193 Y101.306 Z3.639 F1317.252
G1 X320.798 Y100.600 Z3.625 F1317.252
G1 X320.341 Y99.933 Z3.611 F1317.252
G1 X319.826 Y99.309 Z3.596 F1317.252
G1 X319.256 Y98.734 Z3.582 F1317.252
G1 X318.638 Y98.213 Z3.568 F1317.252
G1 X317.797 Y97.639 Z3.550 F1317.249
G1 X317.792 Y97.646 Z3.549 F1317.256
G1 X317.654 Y97.551 Z3.546 F1317.256
G1 X267.464 Y68.580 Z2.520 F1317.256
G1 X263.773 Y66.450 Z6.824 F761.441
G1 X263.693 Y66.404 Z6.906 F808.787
G1 X263.424 Y66.248 Z6.595 F765.530
G1 X259.795 Y64.153 Z2.363 F761.426
G1 X251.500 Y59.365 Z2.193 F1317.256
G1 X251.064 Y59.158 Z2.185 F1317.256
G1 X250.616 Y59.027 Z2.176 F1317.243
G1 X250.153 Y58.967 Z2.168 F1317.243
G1 X249.687 Y58.980 Z2.160 F1317.243
G1 X249.228 Y59.065 Z2.151 F1317.243
G1 X249.000 Y59.135 Z2.147 F1317.253
G0 X249.000 Y59.135 Z19.095
G0 X249.000 Y59.135 Z21.095
G0 X249.000 Y99.489 Z21.095
G0 X249.000 Y99.489 Z19.095
G1 X249.000 Y99.489 Z1.402 F200.000
G1 X256.761 Y103.969 Z1.243 F1317.256
G1 X261.626 Y106.777 Z6.907 F762.128
G1 X266.658 Y109.682 Z1.041 F761.585
G1 X299.657 Y128.729 Z0.366 F1317.256
G1 X300.375 Y129.101 Z0.352 F1317.252
G1 X301.124 Y129.408 Z0.337 F1317.252
G1 X301.898 Y129.645 Z0.323 F1317.252
G1 X302.690 Y129.812 Z0.309 F1317.252
G1 X303.493 Y129.908 Z0.294 F1317.252
G1 X304.302 Y129.931 Z0.280 F1317.252
G1 X305.109 Y129.881 Z0.266 F1317.252
G1 X305.909 Y129.759 Z0.251 F1317.252
G1 X306.695 Y129.566 Z0.237 F1317.252
G1 X307.460 Y129.303 Z0.223 F1317.252
G1 X308.199 Y128.973 Z0.208 F1317.252
G1 X308.905 Y128.577 Z0.194 F1317.252
G1 X309.572 Y128.120 Z0.180 F1317.252
G1 X310.196 Y127.605 Z0.165 F1317.252
G1 X310.771 Y127.035 Z0.151 F1317.252
G1 X311.293 Y126.417 Z0.136 F1317.252
G1 X311.951 Y125.434 Z0.116 F1317.247
G1 X312.553 Y124.391 Z0.094 F1317.256
G1 X320.949 Y109.845 Z0.094 F1330.000
G2 X317.797 Y97.639 Z0.094 I-7.799 J-4.496 F1330.000
G1 X317.792 Y97.646 Z0.094 F1330.000
G1 X317.654 Y97.551 Z0.094 F1330.000
G1 X269.544 Y69.781 Z0.094 F1330.000
G1 X263.758 Y66.441 Z6.842 F761.437
G1 X263.686 Y66.400 Z6.900 F889.883
G1 X263.221 Y66.131 Z6.358 F762.497
G1 X257.849 Y63.030 Z0.094 F761.423
G1 X251.500 Y59.365 Z0.094 F1330.000
G1 X251.064 Y59.158 Z0.094 F1330.000
G2 X249.000 Y59.135 Z0.094 I-1.064 J2.805 F1330.000
G0 X249.000 Y59.135 Z19.095
G0 X249.000 Y59.135 Z21.095
G0 X249.000 Y99.489 Z21.095
G0 X249.000 Y99.489 Z19.095
G1 X249.000 Y99.489 Z0.094 F200.000
G1 X255.775 Y103.400 Z0.094 F1330.000
G1 X261.626 Y106.777 Z6.907 F762.009
G1 X267.470 Y110.151 Z0.094 F761.562
G1 X299.657 Y128.729 Z0.094 F1330.000
G2 X311.951 Y125.434 Z0.094 I4.497 J-7.805 F1330.000
G1 X312.553 Y124.391 Z0.094 F1330.000
G1 X312.553 Y124.391 Z16.095 F200.000
G0 X312.553 Y124.391 Z19.095
G0 X312.553 Y124.391 Z21.095
(finish operation: DressupTag014)
(begin postamble)
M05
G17 G54 G90 G80 G40
M2
