(Exported by FreeCAD)
(Post Processor: mach3_mach4_post)
(Output Time:2026-05-15 09:05:58.035876)
(begin preamble)
G17 G54 G40 G49 G80 G90
G21
(begin operation: Fixture)
(machine: mach3_4, mm/min)
G54
(finish operation: Fixture)
(begin operation: TC: 6mm Endmill custom002)
(machine: mach3_4, mm/min)
(TC: 6mm Endmill custom002)
M5
M6 T2 
G43 H2
M3 S19000
(finish operation: TC: 6mm Endmill custom002)
(begin operation: DressupTag012)
(machine: mach3_4, mm/min)
G0 Z19.095
G0 X0.000 Y0.000 Z21.095
G0 X275.305 Y129.256 Z21.095
G0 X275.305 Y129.256 Z19.095
G1 X275.305 Y129.256 Z16.095 F200.000
G1 X250.049 Y128.842 Z14.750 F1291.756
G1 X249.583 Y128.871 Z14.726 F1291.717
G1 X249.000 Y129.014 Z14.694 F1291.692
G0 X249.000 Y129.014 Z19.095
G0 X249.000 Y129.014 Z21.095
G0 X249.000 Y145.730 Z21.095
G0 X249.000 Y145.730 Z19.095
G1 X249.000 Y145.730 Z13.712 F200.000
G1 X249.451 Y145.851 Z13.687 F1291.718
G1 X250.000 Y145.902 Z13.658 F1291.702
G1 X314.567 Y145.902 Z10.222 F1291.756
G1 X315.033 Y145.865 Z10.197 F1291.718
G1 X315.487 Y145.757 Z10.172 F1291.718
G1 X315.918 Y145.580 Z10.148 F1291.718
G1 X316.317 Y145.338 Z10.123 F1291.718
G1 X316.717 Y144.994 Z10.095 F1291.707
G1 X317.016 Y144.635 Z10.078 F1304.465
G1 X317.255 Y144.235 Z10.061 F1304.465
G1 X317.429 Y143.802 Z10.045 F1304.465
G1 X317.534 Y143.347 Z10.028 F1304.465
G1 X317.567 Y142.926 Z10.013 F1304.470
G1 X317.649 Y132.927 Z9.659 F1304.491
G1 X317.617 Y132.461 Z9.642 F1304.465
G1 X317.512 Y132.006 Z9.625 F1304.465
G1 X317.339 Y131.573 Z9.609 F1304.465
G1 X317.100 Y131.172 Z9.592 F1304.465
G1 X316.802 Y130.813 Z9.576 F1304.465
G1 X316.452 Y130.504 Z9.559 F1304.465
G1 X316.059 Y130.254 Z9.543 F1304.465
G1 X315.631 Y130.067 Z9.526 F1304.465
G1 X315.179 Y129.949 Z9.509 F1304.465
G1 X314.698 Y129.902 Z9.492 F1304.463
G1 X250.049 Y128.842 Z7.198 F1304.491
G1 X249.583 Y128.871 Z7.182 F1304.465
G1 X249.000 Y129.014 Z7.161 F1304.448
G0 X249.000 Y129.014 Z19.095
G0 X249.000 Y129.014 Z21.095
G0 X249.000 Y145.730 Z21.095
G0 X249.000 Y145.730 Z19.095
G1 X249.000 Y145.730 Z6.506 F200.000
G1 X249.451 Y145.851 Z6.490 F1304.465
G1 X250.000 Y145.902 Z6.470 F1304.455
G1 X265.032 Y145.902 Z5.937 F1304.491
G1 X265.420 Y145.902 Z6.327 F763.294
G1 X265.836 Y145.902 Z5.908 F762.503
G1 X314.567 Y145.902 Z4.180 F1304.491
G1 X315.033 Y145.865 Z4.163 F1304.465
G1 X315.487 Y145.757 Z4.146 F1304.465
G1 X315.918 Y145.580 Z4.130 F1304.465
G1 X316.317 Y145.338 Z4.113 F1304.465
G1 X316.717 Y144.994 Z4.095 F1304.458
G1 X317.016 Y144.635 Z4.083 F1312.971
G1 X317.255 Y144.235 Z4.072 F1312.971
G1 X317.429 Y143.802 Z4.061 F1312.971
G1 X317.534 Y143.347 Z4.050 F1312.971
G1 X317.567 Y142.926 Z4.040 F1312.974
G1 X317.649 Y132.927 Z3.804 F1312.988
G1 X317.617 Y132.461 Z3.793 F1312.971
G1 X317.512 Y132.006 Z3.782 F1312.971
G1 X317.339 Y131.573 Z3.771 F1312.971
G1 X317.100 Y131.172 Z3.760 F1312.971
G1 X316.802 Y130.813 Z3.749 F1312.971
G1 X316.452 Y130.504 Z3.738 F1312.971
G1 X316.059 Y130.254 Z3.726 F1312.971
G1 X315.631 Y130.067 Z3.715 F1312.971
G1 X315.179 Y129.949 Z3.704 F1312.971
G1 X314.698 Y129.902 Z3.693 F1312.969
G1 X269.116 Y129.155 Z2.615 F1312.988
G1 X265.536 Y129.096 Z6.232 F761.433
G1 X265.440 Y129.095 Z6.324 F778.353
G1 X265.260 Y129.092 Z6.146 F771.403
G1 X261.587 Y129.032 Z2.437 F761.427
G1 X250.049 Y128.842 Z2.164 F1312.988
G1 X249.583 Y128.871 Z2.153 F1312.971
G1 X249.000 Y129.014 Z2.138 F1312.960
G0 X249.000 Y129.014 Z19.095
G0 X249.000 Y129.014 Z21.095
G0 X249.000 Y145.730 Z21.095
G0 X249.000 Y145.730 Z19.095
G1 X249.000 Y145.730 Z1.702 F200.000
G1 X249.451 Y145.851 Z1.691 F1312.971
G1 X250.000 Y145.902 Z1.678 F1312.964
G1 X260.568 Y145.902 Z1.428 F1312.988
G1 X265.480 Y145.902 Z6.268 F770.272
G1 X270.505 Y145.902 Z1.193 F761.423
G1 X314.567 Y145.902 Z0.151 F1312.988
G1 X315.033 Y145.865 Z0.140 F1312.971
G1 X315.487 Y145.757 Z0.129 F1312.971
G1 X315.918 Y145.580 Z0.118 F1312.971
G1 X316.317 Y145.338 Z0.107 F1312.971
G1 X316.717 Y144.994 Z0.094 F1312.966
G2 X317.567 Y142.926 Z0.094 I-2.150 J-2.093 F1330.000
G1 X317.649 Y132.927 Z0.094 F1330.000
G2 X314.698 Y129.902 Z0.094 I-3.000 J-0.025 F1330.000
G1 X271.612 Y129.196 Z0.094 F1330.000
G1 X265.524 Y129.096 Z6.244 F761.429
G1 X265.436 Y129.095 Z6.322 F803.933
G1 X265.083 Y129.089 Z5.968 F763.716
G1 X259.268 Y128.994 Z0.094 F761.423
G1 X250.049 Y128.842 Z0.094 F1330.000
G2 X249.000 Y129.014 Z0.094 I-0.049 J3.000 F1330.000
G0 X249.000 Y129.014 Z19.095
G0 X249.000 Y129.014 Z21.095
G0 X249.000 Y145.730 Z21.095
G0 X249.000 Y145.730 Z19.095
G1 X249.000 Y145.730 Z0.094 F200.000
G2 X250.000 Y145.902 Z0.094 I1.000 J-2.828 F1330.000
G1 X259.247 Y145.902 Z0.094 F1330.000
G1 X265.507 Y145.902 Z6.241 F771.548
G1 X271.593 Y145.902 Z0.094 F761.422
G1 X314.567 Y145.902 Z0.094 F1330.000
G2 X316.717 Y144.994 Z0.094 I0.000 J-3.000 F1330.000
G1 X316.717 Y144.994 Z16.095 F200.000
G0 X316.717 Y144.994 Z19.095
G0 X316.717 Y144.994 Z21.095
(finish operation: DressupTag012)
(begin postamble)
M05
G17 G54 G90 G80 G40
M2
