(Exported by FreeCAD)
(Post Processor: mach3_mach4_post)
(Output Time:2026-05-15 09:05:58.035876)
(begin preamble)
G17 G54 G40 G49 G80 G90
G21
(begin operation: Fixture)
(machine: mach3_4, mm/min)
G54
(finish operation: Fixture)
(begin operation: TC: 6mm Endmill custom002)
(machine: mach3_4, mm/min)
(TC: 6mm Endmill custom002)
M5
M6 T2 
G43 H2
M3 S19000
(finish operation: TC: 6mm Endmill custom002)
(begin operation: Array)
(machine: mach3_4, mm/min)
G0 Z19.095
G0 X0.000 Y26.000 Z21.095
G0 X276.445 Y171.902 Z21.095
G0 X276.445 Y171.902 Z19.095
G1 X276.445 Y171.902 Z16.095 F200.000
G1 X250.000 Y171.902 Z14.795 F1294.673
G1 X249.535 Y171.938 Z14.772 F1294.637
G1 X249.000 Y172.073 Z14.745 F1294.623
G0 X249.000 Y172.073 Z19.095
G0 X249.000 Y172.073 Z21.095
G0 X249.000 Y197.730 Z21.095
G0 X249.000 Y197.730 Z19.095
G1 X249.000 Y197.730 Z13.399 F200.000
G1 X249.451 Y197.851 Z13.376 F1294.637
G1 X250.000 Y197.902 Z13.349 F1294.623
G1 X312.630 Y197.902 Z10.271 F1294.673
G1 X312.630 Y197.902 Z10.271 F1294.673
G1 X313.856 Y197.902 Z10.210 F1294.673
G1 X314.321 Y197.865 Z10.187 F1294.637
G1 X314.775 Y197.757 Z10.164 F1294.637
G1 X315.207 Y197.580 Z10.141 F1294.637
G1 X315.606 Y197.338 Z10.119 F1294.637
G1 X315.977 Y197.023 Z10.095 F1294.634
G1 X316.280 Y196.668 Z10.079 F1306.414
G1 X316.525 Y196.271 Z10.064 F1306.414
G1 X316.705 Y195.840 Z10.049 F1306.414
G1 X316.816 Y195.387 Z10.033 F1306.414
G1 X316.856 Y194.902 Z10.017 F1306.412
G1 X316.856 Y184.902 Z9.690 F1306.438
G1 X316.819 Y184.436 Z9.674 F1306.414
G1 X316.711 Y183.982 Z9.659 F1306.414
G1 X316.534 Y183.551 Z9.644 F1306.415
G1 X316.293 Y183.152 Z9.628 F1306.414
G1 X315.992 Y182.795 Z9.613 F1306.414
G1 X315.639 Y182.489 Z9.598 F1306.414
G1 X315.243 Y182.242 Z9.583 F1306.414
G1 X314.814 Y182.059 Z9.567 F1306.415
G1 X314.362 Y181.945 Z9.552 F1306.414
G1 X313.856 Y181.902 Z9.535 F1306.410
G1 X291.929 Y181.902 Z8.817 F1306.438
G1 X291.327 Y181.873 Z8.797 F1306.424
G1 X290.732 Y181.772 Z8.777 F1306.424
G1 X290.154 Y181.601 Z8.758 F1306.424
G1 X289.601 Y181.361 Z8.738 F1306.424
G1 X289.081 Y181.057 Z8.718 F1306.424
G1 X288.601 Y180.692 Z8.698 F1306.424
G1 X288.168 Y180.272 Z8.679 F1306.424
G1 X287.789 Y179.803 Z8.659 F1306.424
G1 X287.469 Y179.292 Z8.639 F1306.424
G1 X287.213 Y178.746 Z8.619 F1306.424
G1 X287.024 Y178.174 Z8.599 F1306.424
G1 X286.938 Y177.785 Z8.586 F1306.432
G1 X286.883 Y177.391 Z8.573 F1306.432
G1 X286.838 Y176.036 Z8.529 F1306.435
G1 X286.856 Y174.902 Z8.492 F1306.436
G1 X286.819 Y174.437 Z8.476 F1306.414
G1 X286.712 Y173.983 Z8.461 F1306.414
G1 X286.534 Y173.551 Z8.446 F1306.415
G1 X286.293 Y173.152 Z8.431 F1306.414
G1 X285.992 Y172.795 Z8.415 F1306.414
G1 X285.639 Y172.489 Z8.400 F1306.414
G1 X285.244 Y172.242 Z8.385 F1306.414
G1 X284.814 Y172.059 Z8.369 F1306.415
G1 X284.362 Y171.945 Z8.354 F1306.414
G1 X283.856 Y171.902 Z8.337 F1306.410
G1 X250.000 Y171.902 Z7.228 F1306.438
G1 X249.535 Y171.938 Z7.213 F1306.414
G1 X249.000 Y172.073 Z7.195 F1306.405
G0 X249.000 Y172.073 Z19.095
G0 X249.000 Y172.073 Z21.095
G0 X249.000 Y197.730 Z21.095
G0 X249.000 Y197.730 Z19.095
G1 X249.000 Y197.730 Z6.297 F200.000
G1 X249.451 Y197.851 Z6.282 F1306.414
G1 X250.000 Y197.902 Z6.264 F1306.405
G1 X265.846 Y197.902 Z5.745 F1306.438
G1 X266.321 Y197.902 Z6.221 F763.548
G1 X266.825 Y197.902 Z5.713 F762.068
G1 X312.630 Y197.902 Z4.212 F1306.438
G1 X312.630 Y197.902 Z4.212 F1306.438
G1 X313.856 Y197.902 Z4.172 F1306.438
G1 X314.321 Y197.865 Z4.156 F1306.414
G1 X314.775 Y197.757 Z4.141 F1306.414
G1 X315.207 Y197.580 Z4.126 F1306.414
G1 X315.606 Y197.338 Z4.111 F1306.414
G1 X315.977 Y197.023 Z4.095 F1306.412
G1 X316.280 Y196.668 Z4.084 F1314.270
G1 X316.525 Y196.271 Z4.074 F1314.270
G1 X316.705 Y195.840 Z4.064 F1314.270
G1 X316.816 Y195.387 Z4.054 F1314.270
G1 X316.856 Y194.902 Z4.043 F1314.269
G1 X316.856 Y184.902 Z3.825 F1314.286
G1 X316.819 Y184.436 Z3.814 F1314.270
G1 X316.711 Y183.982 Z3.804 F1314.270
G1 X316.534 Y183.551 Z3.794 F1314.270
G1 X316.293 Y183.152 Z3.784 F1314.270
G1 X315.992 Y182.795 Z3.774 F1314.270
G1 X315.639 Y182.489 Z3.763 F1314.270
G1 X315.243 Y182.242 Z3.753 F1314.270
G1 X314.814 Y182.059 Z3.743 F1314.270
G1 X314.362 Y181.945 Z3.733 F1314.270
G1 X313.856 Y181.902 Z3.722 F1314.267
G1 X291.929 Y181.902 Z3.243 F1314.286
G1 X291.327 Y181.873 Z3.229 F1314.277
G1 X290.732 Y181.772 Z3.216 F1314.277
G1 X290.154 Y181.601 Z3.203 F1314.277
G1 X289.601 Y181.361 Z3.190 F1314.277
G1 X289.081 Y181.057 Z3.177 F1314.277
G1 X288.601 Y180.692 Z3.164 F1314.277
G1 X288.168 Y180.272 Z3.150 F1314.276
G1 X287.789 Y179.803 Z3.137 F1314.277
G1 X287.469 Y179.292 Z3.124 F1314.277
G1 X287.213 Y178.746 Z3.111 F1314.277
G1 X287.024 Y178.174 Z3.098 F1314.277
G1 X286.938 Y177.785 Z3.089 F1314.282
G1 X286.883 Y177.391 Z3.080 F1314.282
G1 X286.838 Y176.036 Z3.051 F1314.284
G1 X286.856 Y174.902 Z3.026 F1314.285
G1 X286.819 Y174.437 Z3.016 F1314.270
G1 X286.712 Y173.983 Z3.005 F1314.270
G1 X286.534 Y173.551 Z2.995 F1314.270
G1 X286.293 Y173.152 Z2.985 F1314.270
G1 X285.992 Y172.795 Z2.975 F1314.270
G1 X285.639 Y172.489 Z2.965 F1314.270
G1 X285.244 Y172.242 Z2.954 F1314.270
G1 X284.814 Y172.059 Z2.944 F1314.270
G1 X284.362 Y171.945 Z2.934 F1314.270
G1 X283.856 Y171.902 Z2.923 F1314.267
G1 X270.996 Y171.902 Z2.642 F1314.286
G1 X267.531 Y171.902 Z6.142 F761.423
G1 X267.452 Y171.902 Z6.221 F764.344
G1 X267.415 Y171.902 Z6.188 F799.649
G1 X263.747 Y171.902 Z2.484 F761.424
G1 X250.000 Y171.902 Z2.183 F1314.286
G1 X249.535 Y171.938 Z2.173 F1314.270
G1 X249.000 Y172.073 Z2.161 F1314.264
G0 X249.000 Y172.073 Z19.095
G0 X249.000 Y172.073 Z21.095
G0 X249.000 Y197.730 Z21.095
G0 X249.000 Y197.730 Z19.095
G1 X249.000 Y197.730 Z1.563 F200.000
G1 X249.451 Y197.851 Z1.552 F1314.270
G1 X250.000 Y197.902 Z1.540 F1314.264
G1 X261.436 Y197.902 Z1.291 F1314.286
G1 X266.381 Y197.902 Z6.162 F770.351
G1 X271.420 Y197.902 Z1.072 F761.423
G1 X312.630 Y197.902 Z0.172 F1314.286
G1 X312.630 Y197.902 Z0.172 F1314.286
G1 X313.856 Y197.902 Z0.145 F1314.286
G1 X314.321 Y197.865 Z0.135 F1314.270
G1 X314.775 Y197.757 Z0.125 F1314.270
G1 X315.207 Y197.580 Z0.115 F1314.270
G1 X315.606 Y197.338 Z0.104 F1314.270
G1 X315.977 Y197.023 Z0.094 F1314.269
G2 X316.856 Y194.902 Z0.094 I-2.121 J-2.121 F1330.000
G1 X316.856 Y184.902 Z0.094 F1330.000
G2 X313.856 Y181.902 Z0.094 I-3.000 J-0.000 F1330.000
G3 X291.929 Y181.902 Z0.094 I-7.021 J-1258142.789 F1330.000
G3 X286.883 Y177.391 Z0.094 I-0.066 J-5.004 F1330.000
G3 X286.856 Y174.902 Z0.094 I25.275 J-1.524 F1330.000
G2 X283.856 Y171.902 Z0.094 I-3.000 J-0.000 F1330.000
G1 X273.519 Y171.902 Z0.094 F1330.000
G1 X267.368 Y171.902 Z6.141 F771.090
G1 X261.381 Y171.902 Z0.094 F761.422
G1 X250.000 Y171.902 Z0.094 F1330.000
G2 X249.000 Y172.073 Z0.094 I-0.000 J3.000 F1330.000
G0 X249.000 Y172.073 Z19.095
G0 X249.000 Y172.073 Z21.095
G0 X249.000 Y197.730 Z21.095
G0 X249.000 Y197.730 Z19.095
G1 X249.000 Y197.730 Z0.094 F200.000
G2 X250.000 Y197.902 Z0.094 I1.000 J-2.828 F1330.000
G1 X260.251 Y197.902 Z0.094 F1330.000
G1 X266.405 Y197.902 Z6.137 F771.500
G1 X272.389 Y197.902 Z0.094 F761.422
G1 X312.630 Y197.902 Z0.094 F1330.000
G1 X312.630 Y197.902 Z0.094 F1330.000
G1 X313.856 Y197.902 Z0.094 F1330.000
G2 X315.977 Y197.023 Z0.094 I-0.000 J-3.000 F1330.000
G1 X315.977 Y197.023 Z16.095 F200.000
G0 X315.977 Y197.023 Z19.095
G0 X315.977 Y197.023 Z21.095
G0 Z19.095
G0 X0.000 Y52.000 Z21.095
G0 X276.445 Y197.902 Z21.095
G0 X276.445 Y197.902 Z19.095
G1 X276.445 Y197.902 Z16.095 F200.000
G1 X250.000 Y197.902 Z14.795 F1294.673
G1 X249.535 Y197.938 Z14.772 F1294.637
G1 X249.000 Y198.073 Z14.745 F1294.623
G0 X249.000 Y198.073 Z19.095
G0 X249.000 Y198.073 Z21.095
G0 X249.000 Y223.730 Z21.095
G0 X249.000 Y223.730 Z19.095
G1 X249.000 Y223.730 Z13.399 F200.000
G1 X249.451 Y223.851 Z13.376 F1294.637
G1 X250.000 Y223.902 Z13.349 F1294.623
G1 X312.630 Y223.902 Z10.271 F1294.673
G1 X312.630 Y223.902 Z10.271 F1294.673
G1 X313.856 Y223.902 Z10.210 F1294.673
G1 X314.321 Y223.865 Z10.187 F1294.637
G1 X314.775 Y223.757 Z10.164 F1294.637
G1 X315.207 Y223.580 Z10.141 F1294.637
G1 X315.606 Y223.338 Z10.119 F1294.637
G1 X315.977 Y223.023 Z10.095 F1294.634
G1 X316.280 Y222.668 Z10.079 F1306.414
G1 X316.525 Y222.271 Z10.064 F1306.414
G1 X316.705 Y221.840 Z10.049 F1306.414
G1 X316.816 Y221.387 Z10.033 F1306.414
G1 X316.856 Y220.902 Z10.017 F1306.412
G1 X316.856 Y210.902 Z9.690 F1306.438
G1 X316.819 Y210.436 Z9.674 F1306.414
G1 X316.711 Y209.982 Z9.659 F1306.414
G1 X316.534 Y209.551 Z9.644 F1306.415
G1 X316.293 Y209.152 Z9.628 F1306.414
G1 X315.992 Y208.795 Z9.613 F1306.414
G1 X315.639 Y208.489 Z9.598 F1306.414
G1 X315.243 Y208.242 Z9.583 F1306.414
G1 X314.814 Y208.059 Z9.567 F1306.415
G1 X314.362 Y207.945 Z9.552 F1306.414
G1 X313.856 Y207.902 Z9.535 F1306.410
G1 X291.929 Y207.902 Z8.817 F1306.438
G1 X291.327 Y207.873 Z8.797 F1306.424
G1 X290.732 Y207.772 Z8.777 F1306.424
G1 X290.154 Y207.601 Z8.758 F1306.424
G1 X289.601 Y207.361 Z8.738 F1306.424
G1 X289.081 Y207.057 Z8.718 F1306.424
G1 X288.601 Y206.692 Z8.698 F1306.424
G1 X288.168 Y206.272 Z8.679 F1306.424
G1 X287.789 Y205.803 Z8.659 F1306.424
G1 X287.469 Y205.292 Z8.639 F1306.424
G1 X287.213 Y204.746 Z8.619 F1306.424
G1 X287.024 Y204.174 Z8.599 F1306.424
G1 X286.938 Y203.785 Z8.586 F1306.432
G1 X286.883 Y203.391 Z8.573 F1306.432
G1 X286.838 Y202.036 Z8.529 F1306.435
G1 X286.856 Y200.902 Z8.492 F1306.436
G1 X286.819 Y200.437 Z8.476 F1306.414
G1 X286.712 Y199.983 Z8.461 F1306.414
G1 X286.534 Y199.551 Z8.446 F1306.415
G1 X286.293 Y199.152 Z8.431 F1306.414
G1 X285.992 Y198.795 Z8.415 F1306.414
G1 X285.639 Y198.489 Z8.400 F1306.414
G1 X285.244 Y198.242 Z8.385 F1306.414
G1 X284.814 Y198.059 Z8.369 F1306.415
G1 X284.362 Y197.945 Z8.354 F1306.414
G1 X283.856 Y197.902 Z8.337 F1306.410
G1 X250.000 Y197.902 Z7.228 F1306.438
G1 X249.535 Y197.938 Z7.213 F1306.414
G1 X249.000 Y198.073 Z7.195 F1306.405
G0 X249.000 Y198.073 Z19.095
G0 X249.000 Y198.073 Z21.095
G0 X249.000 Y223.730 Z21.095
G0 X249.000 Y223.730 Z19.095
G1 X249.000 Y223.730 Z6.297 F200.000
G1 X249.451 Y223.851 Z6.282 F1306.414
G1 X250.000 Y223.902 Z6.264 F1306.405
G1 X265.846 Y223.902 Z5.745 F1306.438
G1 X266.321 Y223.902 Z6.221 F763.548
G1 X266.825 Y223.902 Z5.713 F762.068
G1 X312.630 Y223.902 Z4.212 F1306.438
G1 X312.630 Y223.902 Z4.212 F1306.438
G1 X313.856 Y223.902 Z4.172 F1306.438
G1 X314.321 Y223.865 Z4.156 F1306.414
G1 X314.775 Y223.757 Z4.141 F1306.414
G1 X315.207 Y223.580 Z4.126 F1306.414
G1 X315.606 Y223.338 Z4.111 F1306.414
G1 X315.977 Y223.023 Z4.095 F1306.412
G1 X316.280 Y222.668 Z4.084 F1314.270
G1 X316.525 Y222.271 Z4.074 F1314.270
G1 X316.705 Y221.840 Z4.064 F1314.270
G1 X316.816 Y221.387 Z4.054 F1314.270
G1 X316.856 Y220.902 Z4.043 F1314.269
G1 X316.856 Y210.902 Z3.825 F1314.286
G1 X316.819 Y210.436 Z3.814 F1314.270
G1 X316.711 Y209.982 Z3.804 F1314.270
G1 X316.534 Y209.551 Z3.794 F1314.270
G1 X316.293 Y209.152 Z3.784 F1314.270
G1 X315.992 Y208.795 Z3.774 F1314.270
G1 X315.639 Y208.489 Z3.763 F1314.270
G1 X315.243 Y208.242 Z3.753 F1314.270
G1 X314.814 Y208.059 Z3.743 F1314.270
G1 X314.362 Y207.945 Z3.733 F1314.270
G1 X313.856 Y207.902 Z3.722 F1314.267
G1 X291.929 Y207.902 Z3.243 F1314.286
G1 X291.327 Y207.873 Z3.229 F1314.277
G1 X290.732 Y207.772 Z3.216 F1314.277
G1 X290.154 Y207.601 Z3.203 F1314.277
G1 X289.601 Y207.361 Z3.190 F1314.277
G1 X289.081 Y207.057 Z3.177 F1314.277
G1 X288.601 Y206.692 Z3.164 F1314.277
G1 X288.168 Y206.272 Z3.150 F1314.276
G1 X287.789 Y205.803 Z3.137 F1314.277
G1 X287.469 Y205.292 Z3.124 F1314.277
G1 X287.213 Y204.746 Z3.111 F1314.277
G1 X287.024 Y204.174 Z3.098 F1314.277
G1 X286.938 Y203.785 Z3.089 F1314.282
G1 X286.883 Y203.391 Z3.080 F1314.282
G1 X286.838 Y202.036 Z3.051 F1314.284
G1 X286.856 Y200.902 Z3.026 F1314.285
G1 X286.819 Y200.437 Z3.016 F1314.270
G1 X286.712 Y199.983 Z3.005 F1314.270
G1 X286.534 Y199.551 Z2.995 F1314.270
G1 X286.293 Y199.152 Z2.985 F1314.270
G1 X285.992 Y198.795 Z2.975 F1314.270
G1 X285.639 Y198.489 Z2.965 F1314.270
G1 X285.244 Y198.242 Z2.954 F1314.270
G1 X284.814 Y198.059 Z2.944 F1314.270
G1 X284.362 Y197.945 Z2.934 F1314.270
G1 X283.856 Y197.902 Z2.923 F1314.267
G1 X270.996 Y197.902 Z2.642 F1314.286
G1 X267.531 Y197.902 Z6.142 F761.423
G1 X267.452 Y197.902 Z6.221 F764.344
G1 X267.415 Y197.902 Z6.188 F799.649
G1 X263.747 Y197.902 Z2.484 F761.424
G1 X250.000 Y197.902 Z2.183 F1314.286
G1 X249.535 Y197.938 Z2.173 F1314.270
G1 X249.000 Y198.073 Z2.161 F1314.264
G0 X249.000 Y198.073 Z19.095
G0 X249.000 Y198.073 Z21.095
G0 X249.000 Y223.730 Z21.095
G0 X249.000 Y223.730 Z19.095
G1 X249.000 Y223.730 Z1.563 F200.000
G1 X249.451 Y223.851 Z1.552 F1314.270
G1 X250.000 Y223.902 Z1.540 F1314.264
G1 X261.436 Y223.902 Z1.291 F1314.286
G1 X266.381 Y223.902 Z6.162 F770.351
G1 X271.420 Y223.902 Z1.072 F761.423
G1 X312.630 Y223.902 Z0.172 F1314.286
G1 X312.630 Y223.902 Z0.172 F1314.286
G1 X313.856 Y223.902 Z0.145 F1314.286
G1 X314.321 Y223.865 Z0.135 F1314.270
G1 X314.775 Y223.757 Z0.125 F1314.270
G1 X315.207 Y223.580 Z0.115 F1314.270
G1 X315.606 Y223.338 Z0.104 F1314.270
G1 X315.977 Y223.023 Z0.094 F1314.269
G2 X316.856 Y220.902 Z0.094 I-2.121 J-2.121 F1330.000
G1 X316.856 Y210.902 Z0.094 F1330.000
G2 X313.856 Y207.902 Z0.094 I-3.000 J-0.000 F1330.000
G3 X291.929 Y207.902 Z0.094 I-7.021 J-1258142.789 F1330.000
G3 X286.883 Y203.391 Z0.094 I-0.066 J-5.004 F1330.000
G3 X286.856 Y200.902 Z0.094 I25.275 J-1.524 F1330.000
G2 X283.856 Y197.902 Z0.094 I-3.000 J-0.000 F1330.000
G1 X273.519 Y197.902 Z0.094 F1330.000
G1 X267.368 Y197.902 Z6.141 F771.090
G1 X261.381 Y197.902 Z0.094 F761.422
G1 X250.000 Y197.902 Z0.094 F1330.000
G2 X249.000 Y198.073 Z0.094 I-0.000 J3.000 F1330.000
G0 X249.000 Y198.073 Z19.095
G0 X249.000 Y198.073 Z21.095
G0 X249.000 Y223.730 Z21.095
G0 X249.000 Y223.730 Z19.095
G1 X249.000 Y223.730 Z0.094 F200.000
G2 X250.000 Y223.902 Z0.094 I1.000 J-2.828 F1330.000
G1 X260.251 Y223.902 Z0.094 F1330.000
G1 X266.405 Y223.902 Z6.137 F771.500
G1 X272.389 Y223.902 Z0.094 F761.422
G1 X312.630 Y223.902 Z0.094 F1330.000
G1 X312.630 Y223.902 Z0.094 F1330.000
G1 X313.856 Y223.902 Z0.094 F1330.000
G2 X315.977 Y223.023 Z0.094 I-0.000 J-3.000 F1330.000
G1 X315.977 Y223.023 Z16.095 F200.000
G0 X315.977 Y223.023 Z19.095
G0 X315.977 Y223.023 Z21.095
G0 Z19.095
G0 X0.000 Y78.000 Z21.095
G0 X276.445 Y223.902 Z21.095
G0 X276.445 Y223.902 Z19.095
G1 X276.445 Y223.902 Z16.095 F200.000
G1 X250.000 Y223.902 Z14.795 F1294.673
G1 X249.535 Y223.938 Z14.772 F1294.637
G1 X249.000 Y224.073 Z14.745 F1294.623
G0 X249.000 Y224.073 Z19.095
G0 X249.000 Y224.073 Z21.095
G0 X249.000 Y249.730 Z21.095
G0 X249.000 Y249.730 Z19.095
G1 X249.000 Y249.730 Z13.399 F200.000
G1 X249.451 Y249.851 Z13.376 F1294.637
G1 X250.000 Y249.902 Z13.349 F1294.623
G1 X312.630 Y249.902 Z10.271 F1294.673
G1 X312.630 Y249.902 Z10.271 F1294.673
G1 X313.856 Y249.902 Z10.210 F1294.673
G1 X314.321 Y249.865 Z10.187 F1294.637
G1 X314.775 Y249.757 Z10.164 F1294.637
G1 X315.207 Y249.580 Z10.141 F1294.637
G1 X315.606 Y249.338 Z10.119 F1294.637
G1 X315.977 Y249.023 Z10.095 F1294.634
G1 X316.280 Y248.668 Z10.079 F1306.414
G1 X316.525 Y248.271 Z10.064 F1306.414
G1 X316.705 Y247.840 Z10.049 F1306.414
G1 X316.816 Y247.387 Z10.033 F1306.414
G1 X316.856 Y246.902 Z10.017 F1306.412
G1 X316.856 Y236.902 Z9.690 F1306.438
G1 X316.819 Y236.436 Z9.674 F1306.414
G1 X316.711 Y235.982 Z9.659 F1306.414
G1 X316.534 Y235.551 Z9.644 F1306.415
G1 X316.293 Y235.152 Z9.628 F1306.414
G1 X315.992 Y234.795 Z9.613 F1306.414
G1 X315.639 Y234.489 Z9.598 F1306.414
G1 X315.243 Y234.242 Z9.583 F1306.414
G1 X314.814 Y234.059 Z9.567 F1306.415
G1 X314.362 Y233.945 Z9.552 F1306.414
G1 X313.856 Y233.902 Z9.535 F1306.410
G1 X291.929 Y233.902 Z8.817 F1306.438
G1 X291.327 Y233.873 Z8.797 F1306.424
G1 X290.732 Y233.772 Z8.777 F1306.424
G1 X290.154 Y233.601 Z8.758 F1306.424
G1 X289.601 Y233.361 Z8.738 F1306.424
G1 X289.081 Y233.057 Z8.718 F1306.424
G1 X288.601 Y232.692 Z8.698 F1306.424
G1 X288.168 Y232.272 Z8.679 F1306.424
G1 X287.789 Y231.803 Z8.659 F1306.424
G1 X287.469 Y231.292 Z8.639 F1306.424
G1 X287.213 Y230.746 Z8.619 F1306.424
G1 X287.024 Y230.174 Z8.599 F1306.424
G1 X286.938 Y229.785 Z8.586 F1306.432
G1 X286.883 Y229.391 Z8.573 F1306.432
G1 X286.838 Y228.036 Z8.529 F1306.435
G1 X286.856 Y226.902 Z8.492 F1306.436
G1 X286.819 Y226.437 Z8.476 F1306.414
G1 X286.712 Y225.983 Z8.461 F1306.414
G1 X286.534 Y225.551 Z8.446 F1306.415
G1 X286.293 Y225.152 Z8.431 F1306.414
G1 X285.992 Y224.795 Z8.415 F1306.414
G1 X285.639 Y224.489 Z8.400 F1306.414
G1 X285.244 Y224.242 Z8.385 F1306.414
G1 X284.814 Y224.059 Z8.369 F1306.415
G1 X284.362 Y223.945 Z8.354 F1306.414
G1 X283.856 Y223.902 Z8.337 F1306.410
G1 X250.000 Y223.902 Z7.228 F1306.438
G1 X249.535 Y223.938 Z7.213 F1306.414
G1 X249.000 Y224.073 Z7.195 F1306.405
G0 X249.000 Y224.073 Z19.095
G0 X249.000 Y224.073 Z21.095
G0 X249.000 Y249.730 Z21.095
G0 X249.000 Y249.730 Z19.095
G1 X249.000 Y249.730 Z6.297 F200.000
G1 X249.451 Y249.851 Z6.282 F1306.414
G1 X250.000 Y249.902 Z6.264 F1306.405
G1 X265.846 Y249.902 Z5.745 F1306.438
G1 X266.321 Y249.902 Z6.221 F763.548
G1 X266.825 Y249.902 Z5.713 F762.068
G1 X312.630 Y249.902 Z4.212 F1306.438
G1 X312.630 Y249.902 Z4.212 F1306.438
G1 X313.856 Y249.902 Z4.172 F1306.438
G1 X314.321 Y249.865 Z4.156 F1306.414
G1 X314.775 Y249.757 Z4.141 F1306.414
G1 X315.207 Y249.580 Z4.126 F1306.414
G1 X315.606 Y249.338 Z4.111 F1306.414
G1 X315.977 Y249.023 Z4.095 F1306.412
G1 X316.280 Y248.668 Z4.084 F1314.270
G1 X316.525 Y248.271 Z4.074 F1314.270
G1 X316.705 Y247.840 Z4.064 F1314.270
G1 X316.816 Y247.387 Z4.054 F1314.270
G1 X316.856 Y246.902 Z4.043 F1314.269
G1 X316.856 Y236.902 Z3.825 F1314.286
G1 X316.819 Y236.436 Z3.814 F1314.270
G1 X316.711 Y235.982 Z3.804 F1314.270
G1 X316.534 Y235.551 Z3.794 F1314.270
G1 X316.293 Y235.152 Z3.784 F1314.270
G1 X315.992 Y234.795 Z3.774 F1314.270
G1 X315.639 Y234.489 Z3.763 F1314.270
G1 X315.243 Y234.242 Z3.753 F1314.270
G1 X314.814 Y234.059 Z3.743 F1314.270
G1 X314.362 Y233.945 Z3.733 F1314.270
G1 X313.856 Y233.902 Z3.722 F1314.267
G1 X291.929 Y233.902 Z3.243 F1314.286
G1 X291.327 Y233.873 Z3.229 F1314.277
G1 X290.732 Y233.772 Z3.216 F1314.277
G1 X290.154 Y233.601 Z3.203 F1314.277
G1 X289.601 Y233.361 Z3.190 F1314.277
G1 X289.081 Y233.057 Z3.177 F1314.277
G1 X288.601 Y232.692 Z3.164 F1314.277
G1 X288.168 Y232.272 Z3.150 F1314.276
G1 X287.789 Y231.803 Z3.137 F1314.277
G1 X287.469 Y231.292 Z3.124 F1314.277
G1 X287.213 Y230.746 Z3.111 F1314.277
G1 X287.024 Y230.174 Z3.098 F1314.277
G1 X286.938 Y229.785 Z3.089 F1314.282
G1 X286.883 Y229.391 Z3.080 F1314.282
G1 X286.838 Y228.036 Z3.051 F1314.284
G1 X286.856 Y226.902 Z3.026 F1314.285
G1 X286.819 Y226.437 Z3.016 F1314.270
G1 X286.712 Y225.983 Z3.005 F1314.270
G1 X286.534 Y225.551 Z2.995 F1314.270
G1 X286.293 Y225.152 Z2.985 F1314.270
G1 X285.992 Y224.795 Z2.975 F1314.270
G1 X285.639 Y224.489 Z2.965 F1314.270
G1 X285.244 Y224.242 Z2.954 F1314.270
G1 X284.814 Y224.059 Z2.944 F1314.270
G1 X284.362 Y223.945 Z2.934 F1314.270
G1 X283.856 Y223.902 Z2.923 F1314.267
G1 X270.996 Y223.902 Z2.642 F1314.286
G1 X267.531 Y223.902 Z6.142 F761.423
G1 X267.452 Y223.902 Z6.221 F764.344
G1 X267.415 Y223.902 Z6.188 F799.649
G1 X263.747 Y223.902 Z2.484 F761.424
G1 X250.000 Y223.902 Z2.183 F1314.286
G1 X249.535 Y223.938 Z2.173 F1314.270
G1 X249.000 Y224.073 Z2.161 F1314.264
G0 X249.000 Y224.073 Z19.095
G0 X249.000 Y224.073 Z21.095
G0 X249.000 Y249.730 Z21.095
G0 X249.000 Y249.730 Z19.095
G1 X249.000 Y249.730 Z1.563 F200.000
G1 X249.451 Y249.851 Z1.552 F1314.270
G1 X250.000 Y249.902 Z1.540 F1314.264
G1 X261.436 Y249.902 Z1.291 F1314.286
G1 X266.381 Y249.902 Z6.162 F770.351
G1 X271.420 Y249.902 Z1.072 F761.423
G1 X312.630 Y249.902 Z0.172 F1314.286
G1 X312.630 Y249.902 Z0.172 F1314.286
G1 X313.856 Y249.902 Z0.145 F1314.286
G1 X314.321 Y249.865 Z0.135 F1314.270
G1 X314.775 Y249.757 Z0.125 F1314.270
G1 X315.207 Y249.580 Z0.115 F1314.270
G1 X315.606 Y249.338 Z0.104 F1314.270
G1 X315.977 Y249.023 Z0.094 F1314.269
G2 X316.856 Y246.902 Z0.094 I-2.121 J-2.121 F1330.000
G1 X316.856 Y236.902 Z0.094 F1330.000
G2 X313.856 Y233.902 Z0.094 I-3.000 J-0.000 F1330.000
G3 X291.929 Y233.902 Z0.094 I-7.021 J-1258142.789 F1330.000
G3 X286.883 Y229.391 Z0.094 I-0.066 J-5.004 F1330.000
G3 X286.856 Y226.902 Z0.094 I25.275 J-1.524 F1330.000
G2 X283.856 Y223.902 Z0.094 I-3.000 J-0.000 F1330.000
G1 X273.519 Y223.902 Z0.094 F1330.000
G1 X267.368 Y223.902 Z6.141 F771.090
G1 X261.381 Y223.902 Z0.094 F761.422
G1 X250.000 Y223.902 Z0.094 F1330.000
G2 X249.000 Y224.073 Z0.094 I-0.000 J3.000 F1330.000
G0 X249.000 Y224.073 Z19.095
G0 X249.000 Y224.073 Z21.095
G0 X249.000 Y249.730 Z21.095
G0 X249.000 Y249.730 Z19.095
G1 X249.000 Y249.730 Z0.094 F200.000
G2 X250.000 Y249.902 Z0.094 I1.000 J-2.828 F1330.000
G1 X260.251 Y249.902 Z0.094 F1330.000
G1 X266.405 Y249.902 Z6.137 F771.500
G1 X272.389 Y249.902 Z0.094 F761.422
G1 X312.630 Y249.902 Z0.094 F1330.000
G1 X312.630 Y249.902 Z0.094 F1330.000
G1 X313.856 Y249.902 Z0.094 F1330.000
G2 X315.977 Y249.023 Z0.094 I-0.000 J-3.000 F1330.000
G1 X315.977 Y249.023 Z16.095 F200.000
G0 X315.977 Y249.023 Z19.095
G0 X315.977 Y249.023 Z21.095
G0 Z19.095
G0 X0.000 Y104.000 Z21.095
G0 X276.445 Y249.902 Z21.095
G0 X276.445 Y249.902 Z19.095
G1 X276.445 Y249.902 Z16.095 F200.000
G1 X250.000 Y249.902 Z14.795 F1294.673
G1 X249.535 Y249.938 Z14.772 F1294.637
G1 X249.000 Y250.073 Z14.745 F1294.623
G0 X249.000 Y250.073 Z19.095
G0 X249.000 Y250.073 Z21.095
G0 X249.000 Y275.730 Z21.095
G0 X249.000 Y275.730 Z19.095
G1 X249.000 Y275.730 Z13.399 F200.000
G1 X249.451 Y275.851 Z13.376 F1294.637
G1 X250.000 Y275.902 Z13.349 F1294.623
G1 X312.630 Y275.902 Z10.271 F1294.673
G1 X312.630 Y275.902 Z10.271 F1294.673
G1 X313.856 Y275.902 Z10.210 F1294.673
G1 X314.321 Y275.865 Z10.187 F1294.637
G1 X314.775 Y275.757 Z10.164 F1294.637
G1 X315.207 Y275.580 Z10.141 F1294.637
G1 X315.606 Y275.338 Z10.119 F1294.637
G1 X315.977 Y275.023 Z10.095 F1294.634
G1 X316.280 Y274.668 Z10.079 F1306.414
G1 X316.525 Y274.271 Z10.064 F1306.414
G1 X316.705 Y273.840 Z10.049 F1306.414
G1 X316.816 Y273.387 Z10.033 F1306.414
G1 X316.856 Y272.902 Z10.017 F1306.412
G1 X316.856 Y262.902 Z9.690 F1306.438
G1 X316.819 Y262.436 Z9.674 F1306.414
G1 X316.711 Y261.982 Z9.659 F1306.414
G1 X316.534 Y261.551 Z9.644 F1306.415
G1 X316.293 Y261.152 Z9.628 F1306.414
G1 X315.992 Y260.795 Z9.613 F1306.414
G1 X315.639 Y260.489 Z9.598 F1306.414
G1 X315.243 Y260.242 Z9.583 F1306.414
G1 X314.814 Y260.059 Z9.567 F1306.415
G1 X314.362 Y259.945 Z9.552 F1306.414
G1 X313.856 Y259.902 Z9.535 F1306.410
G1 X291.929 Y259.902 Z8.817 F1306.438
G1 X291.327 Y259.873 Z8.797 F1306.424
G1 X290.732 Y259.772 Z8.777 F1306.424
G1 X290.154 Y259.601 Z8.758 F1306.424
G1 X289.601 Y259.361 Z8.738 F1306.424
G1 X289.081 Y259.057 Z8.718 F1306.424
G1 X288.601 Y258.692 Z8.698 F1306.424
G1 X288.168 Y258.272 Z8.679 F1306.424
G1 X287.789 Y257.803 Z8.659 F1306.424
G1 X287.469 Y257.292 Z8.639 F1306.424
G1 X287.213 Y256.746 Z8.619 F1306.424
G1 X287.024 Y256.174 Z8.599 F1306.424
G1 X286.938 Y255.785 Z8.586 F1306.432
G1 X286.883 Y255.391 Z8.573 F1306.432
G1 X286.838 Y254.036 Z8.529 F1306.435
G1 X286.856 Y252.902 Z8.492 F1306.436
G1 X286.819 Y252.437 Z8.476 F1306.414
G1 X286.712 Y251.983 Z8.461 F1306.414
G1 X286.534 Y251.551 Z8.446 F1306.415
G1 X286.293 Y251.152 Z8.431 F1306.414
G1 X285.992 Y250.795 Z8.415 F1306.414
G1 X285.639 Y250.489 Z8.400 F1306.414
G1 X285.244 Y250.242 Z8.385 F1306.414
G1 X284.814 Y250.059 Z8.369 F1306.415
G1 X284.362 Y249.945 Z8.354 F1306.414
G1 X283.856 Y249.902 Z8.337 F1306.410
G1 X250.000 Y249.902 Z7.228 F1306.438
G1 X249.535 Y249.938 Z7.213 F1306.414
G1 X249.000 Y250.073 Z7.195 F1306.405
G0 X249.000 Y250.073 Z19.095
G0 X249.000 Y250.073 Z21.095
G0 X249.000 Y275.730 Z21.095
G0 X249.000 Y275.730 Z19.095
G1 X249.000 Y275.730 Z6.297 F200.000
G1 X249.451 Y275.851 Z6.282 F1306.414
G1 X250.000 Y275.902 Z6.264 F1306.405
G1 X265.846 Y275.902 Z5.745 F1306.438
G1 X266.321 Y275.902 Z6.221 F763.548
G1 X266.825 Y275.902 Z5.713 F762.068
G1 X312.630 Y275.902 Z4.212 F1306.438
G1 X312.630 Y275.902 Z4.212 F1306.438
G1 X313.856 Y275.902 Z4.172 F1306.438
G1 X314.321 Y275.865 Z4.156 F1306.414
G1 X314.775 Y275.757 Z4.141 F1306.414
G1 X315.207 Y275.580 Z4.126 F1306.414
G1 X315.606 Y275.338 Z4.111 F1306.414
G1 X315.977 Y275.023 Z4.095 F1306.412
G1 X316.280 Y274.668 Z4.084 F1314.270
G1 X316.525 Y274.271 Z4.074 F1314.270
G1 X316.705 Y273.840 Z4.064 F1314.270
G1 X316.816 Y273.387 Z4.054 F1314.270
G1 X316.856 Y272.902 Z4.043 F1314.269
G1 X316.856 Y262.902 Z3.825 F1314.286
G1 X316.819 Y262.436 Z3.814 F1314.270
G1 X316.711 Y261.982 Z3.804 F1314.270
G1 X316.534 Y261.551 Z3.794 F1314.270
G1 X316.293 Y261.152 Z3.784 F1314.270
G1 X315.992 Y260.795 Z3.774 F1314.270
G1 X315.639 Y260.489 Z3.763 F1314.270
G1 X315.243 Y260.242 Z3.753 F1314.270
G1 X314.814 Y260.059 Z3.743 F1314.270
G1 X314.362 Y259.945 Z3.733 F1314.270
G1 X313.856 Y259.902 Z3.722 F1314.267
G1 X291.929 Y259.902 Z3.243 F1314.286
G1 X291.327 Y259.873 Z3.229 F1314.277
G1 X290.732 Y259.772 Z3.216 F1314.277
G1 X290.154 Y259.601 Z3.203 F1314.277
G1 X289.601 Y259.361 Z3.190 F1314.277
G1 X289.081 Y259.057 Z3.177 F1314.277
G1 X288.601 Y258.692 Z3.164 F1314.277
G1 X288.168 Y258.272 Z3.150 F1314.276
G1 X287.789 Y257.803 Z3.137 F1314.277
G1 X287.469 Y257.292 Z3.124 F1314.277
G1 X287.213 Y256.746 Z3.111 F1314.277
G1 X287.024 Y256.174 Z3.098 F1314.277
G1 X286.938 Y255.785 Z3.089 F1314.282
G1 X286.883 Y255.391 Z3.080 F1314.282
G1 X286.838 Y254.036 Z3.051 F1314.284
G1 X286.856 Y252.902 Z3.026 F1314.285
G1 X286.819 Y252.437 Z3.016 F1314.270
G1 X286.712 Y251.983 Z3.005 F1314.270
G1 X286.534 Y251.551 Z2.995 F1314.270
G1 X286.293 Y251.152 Z2.985 F1314.270
G1 X285.992 Y250.795 Z2.975 F1314.270
G1 X285.639 Y250.489 Z2.965 F1314.270
G1 X285.244 Y250.242 Z2.954 F1314.270
G1 X284.814 Y250.059 Z2.944 F1314.270
G1 X284.362 Y249.945 Z2.934 F1314.270
G1 X283.856 Y249.902 Z2.923 F1314.267
G1 X270.996 Y249.902 Z2.642 F1314.286
G1 X267.531 Y249.902 Z6.142 F761.423
G1 X267.452 Y249.902 Z6.221 F764.344
G1 X267.415 Y249.902 Z6.188 F799.649
G1 X263.747 Y249.902 Z2.484 F761.424
G1 X250.000 Y249.902 Z2.183 F1314.286
G1 X249.535 Y249.938 Z2.173 F1314.270
G1 X249.000 Y250.073 Z2.161 F1314.264
G0 X249.000 Y250.073 Z19.095
G0 X249.000 Y250.073 Z21.095
G0 X249.000 Y275.730 Z21.095
G0 X249.000 Y275.730 Z19.095
G1 X249.000 Y275.730 Z1.563 F200.000
G1 X249.451 Y275.851 Z1.552 F1314.270
G1 X250.000 Y275.902 Z1.540 F1314.264
G1 X261.436 Y275.902 Z1.291 F1314.286
G1 X266.381 Y275.902 Z6.162 F770.351
G1 X271.420 Y275.902 Z1.072 F761.423
G1 X312.630 Y275.902 Z0.172 F1314.286
G1 X312.630 Y275.902 Z0.172 F1314.286
G1 X313.856 Y275.902 Z0.145 F1314.286
G1 X314.321 Y275.865 Z0.135 F1314.270
G1 X314.775 Y275.757 Z0.125 F1314.270
G1 X315.207 Y275.580 Z0.115 F1314.270
G1 X315.606 Y275.338 Z0.104 F1314.270
G1 X315.977 Y275.023 Z0.094 F1314.269
G2 X316.856 Y272.902 Z0.094 I-2.121 J-2.121 F1330.000
G1 X316.856 Y262.902 Z0.094 F1330.000
G2 X313.856 Y259.902 Z0.094 I-3.000 J-0.000 F1330.000
G3 X291.929 Y259.902 Z0.094 I-7.021 J-1258142.789 F1330.000
G3 X286.883 Y255.391 Z0.094 I-0.066 J-5.004 F1330.000
G3 X286.856 Y252.902 Z0.094 I25.275 J-1.524 F1330.000
G2 X283.856 Y249.902 Z0.094 I-3.000 J-0.000 F1330.000
G1 X273.519 Y249.902 Z0.094 F1330.000
G1 X267.368 Y249.902 Z6.141 F771.090
G1 X261.381 Y249.902 Z0.094 F761.422
G1 X250.000 Y249.902 Z0.094 F1330.000
G2 X249.000 Y250.073 Z0.094 I-0.000 J3.000 F1330.000
G0 X249.000 Y250.073 Z19.095
G0 X249.000 Y250.073 Z21.095
G0 X249.000 Y275.730 Z21.095
G0 X249.000 Y275.730 Z19.095
G1 X249.000 Y275.730 Z0.094 F200.000
G2 X250.000 Y275.902 Z0.094 I1.000 J-2.828 F1330.000
G1 X260.251 Y275.902 Z0.094 F1330.000
G1 X266.405 Y275.902 Z6.137 F771.500
G1 X272.389 Y275.902 Z0.094 F761.422
G1 X312.630 Y275.902 Z0.094 F1330.000
G1 X312.630 Y275.902 Z0.094 F1330.000
G1 X313.856 Y275.902 Z0.094 F1330.000
G2 X315.977 Y275.023 Z0.094 I-0.000 J-3.000 F1330.000
G1 X315.977 Y275.023 Z16.095 F200.000
G0 X315.977 Y275.023 Z19.095
G0 X315.977 Y275.023 Z21.095
G0 Z19.095
G0 X0.000 Y130.000 Z21.095
G0 X276.445 Y275.902 Z21.095
G0 X276.445 Y275.902 Z19.095
G1 X276.445 Y275.902 Z16.095 F200.000
G1 X250.000 Y275.902 Z14.795 F1294.673
G1 X249.535 Y275.938 Z14.772 F1294.637
G1 X249.000 Y276.073 Z14.745 F1294.623
G0 X249.000 Y276.073 Z19.095
G0 X249.000 Y276.073 Z21.095
G0 X249.000 Y301.730 Z21.095
G0 X249.000 Y301.730 Z19.095
G1 X249.000 Y301.730 Z13.399 F200.000
G1 X249.451 Y301.851 Z13.376 F1294.637
G1 X250.000 Y301.902 Z13.349 F1294.623
G1 X312.630 Y301.902 Z10.271 F1294.673
G1 X312.630 Y301.902 Z10.271 F1294.673
G1 X313.856 Y301.902 Z10.210 F1294.673
G1 X314.321 Y301.865 Z10.187 F1294.637
G1 X314.775 Y301.757 Z10.164 F1294.637
G1 X315.207 Y301.580 Z10.141 F1294.637
G1 X315.606 Y301.338 Z10.119 F1294.637
G1 X315.977 Y301.023 Z10.095 F1294.634
G1 X316.280 Y300.668 Z10.079 F1306.414
G1 X316.525 Y300.271 Z10.064 F1306.414
G1 X316.705 Y299.840 Z10.049 F1306.414
G1 X316.816 Y299.387 Z10.033 F1306.414
G1 X316.856 Y298.902 Z10.017 F1306.412
G1 X316.856 Y288.902 Z9.690 F1306.438
G1 X316.819 Y288.436 Z9.674 F1306.414
G1 X316.711 Y287.982 Z9.659 F1306.414
G1 X316.534 Y287.551 Z9.644 F1306.415
G1 X316.293 Y287.152 Z9.628 F1306.414
G1 X315.992 Y286.795 Z9.613 F1306.414
G1 X315.639 Y286.489 Z9.598 F1306.414
G1 X315.243 Y286.242 Z9.583 F1306.414
G1 X314.814 Y286.059 Z9.567 F1306.415
G1 X314.362 Y285.945 Z9.552 F1306.414
G1 X313.856 Y285.902 Z9.535 F1306.410
G1 X291.929 Y285.902 Z8.817 F1306.438
G1 X291.327 Y285.873 Z8.797 F1306.424
G1 X290.732 Y285.772 Z8.777 F1306.424
G1 X290.154 Y285.601 Z8.758 F1306.424
G1 X289.601 Y285.361 Z8.738 F1306.424
G1 X289.081 Y285.057 Z8.718 F1306.424
G1 X288.601 Y284.692 Z8.698 F1306.424
G1 X288.168 Y284.272 Z8.679 F1306.424
G1 X287.789 Y283.803 Z8.659 F1306.424
G1 X287.469 Y283.292 Z8.639 F1306.424
G1 X287.213 Y282.746 Z8.619 F1306.424
G1 X287.024 Y282.174 Z8.599 F1306.424
G1 X286.938 Y281.785 Z8.586 F1306.432
G1 X286.883 Y281.391 Z8.573 F1306.432
G1 X286.838 Y280.036 Z8.529 F1306.435
G1 X286.856 Y278.902 Z8.492 F1306.436
G1 X286.819 Y278.437 Z8.476 F1306.414
G1 X286.712 Y277.983 Z8.461 F1306.414
G1 X286.534 Y277.551 Z8.446 F1306.415
G1 X286.293 Y277.152 Z8.431 F1306.414
G1 X285.992 Y276.795 Z8.415 F1306.414
G1 X285.639 Y276.489 Z8.400 F1306.414
G1 X285.244 Y276.242 Z8.385 F1306.414
G1 X284.814 Y276.059 Z8.369 F1306.415
G1 X284.362 Y275.945 Z8.354 F1306.414
G1 X283.856 Y275.902 Z8.337 F1306.410
G1 X250.000 Y275.902 Z7.228 F1306.438
G1 X249.535 Y275.938 Z7.213 F1306.414
G1 X249.000 Y276.073 Z7.195 F1306.405
G0 X249.000 Y276.073 Z19.095
G0 X249.000 Y276.073 Z21.095
G0 X249.000 Y301.730 Z21.095
G0 X249.000 Y301.730 Z19.095
G1 X249.000 Y301.730 Z6.297 F200.000
G1 X249.451 Y301.851 Z6.282 F1306.414
G1 X250.000 Y301.902 Z6.264 F1306.405
G1 X265.846 Y301.902 Z5.745 F1306.438
G1 X266.321 Y301.902 Z6.221 F763.548
G1 X266.825 Y301.902 Z5.713 F762.068
G1 X312.630 Y301.902 Z4.212 F1306.438
G1 X312.630 Y301.902 Z4.212 F1306.438
G1 X313.856 Y301.902 Z4.172 F1306.438
G1 X314.321 Y301.865 Z4.156 F1306.414
G1 X314.775 Y301.757 Z4.141 F1306.414
G1 X315.207 Y301.580 Z4.126 F1306.414
G1 X315.606 Y301.338 Z4.111 F1306.414
G1 X315.977 Y301.023 Z4.095 F1306.412
G1 X316.280 Y300.668 Z4.084 F1314.270
G1 X316.525 Y300.271 Z4.074 F1314.270
G1 X316.705 Y299.840 Z4.064 F1314.270
G1 X316.816 Y299.387 Z4.054 F1314.270
G1 X316.856 Y298.902 Z4.043 F1314.269
G1 X316.856 Y288.902 Z3.825 F1314.286
G1 X316.819 Y288.436 Z3.814 F1314.270
G1 X316.711 Y287.982 Z3.804 F1314.270
G1 X316.534 Y287.551 Z3.794 F1314.270
G1 X316.293 Y287.152 Z3.784 F1314.270
G1 X315.992 Y286.795 Z3.774 F1314.270
G1 X315.639 Y286.489 Z3.763 F1314.270
G1 X315.243 Y286.242 Z3.753 F1314.270
G1 X314.814 Y286.059 Z3.743 F1314.270
G1 X314.362 Y285.945 Z3.733 F1314.270
G1 X313.856 Y285.902 Z3.722 F1314.267
G1 X291.929 Y285.902 Z3.243 F1314.286
G1 X291.327 Y285.873 Z3.229 F1314.277
G1 X290.732 Y285.772 Z3.216 F1314.277
G1 X290.154 Y285.601 Z3.203 F1314.277
G1 X289.601 Y285.361 Z3.190 F1314.277
G1 X289.081 Y285.057 Z3.177 F1314.277
G1 X288.601 Y284.692 Z3.164 F1314.277
G1 X288.168 Y284.272 Z3.150 F1314.276
G1 X287.789 Y283.803 Z3.137 F1314.277
G1 X287.469 Y283.292 Z3.124 F1314.277
G1 X287.213 Y282.746 Z3.111 F1314.277
G1 X287.024 Y282.174 Z3.098 F1314.277
G1 X286.938 Y281.785 Z3.089 F1314.282
G1 X286.883 Y281.391 Z3.080 F1314.282
G1 X286.838 Y280.036 Z3.051 F1314.284
G1 X286.856 Y278.902 Z3.026 F1314.285
G1 X286.819 Y278.437 Z3.016 F1314.270
G1 X286.712 Y277.983 Z3.005 F1314.270
G1 X286.534 Y277.551 Z2.995 F1314.270
G1 X286.293 Y277.152 Z2.985 F1314.270
G1 X285.992 Y276.795 Z2.975 F1314.270
G1 X285.639 Y276.489 Z2.965 F1314.270
G1 X285.244 Y276.242 Z2.954 F1314.270
G1 X284.814 Y276.059 Z2.944 F1314.270
G1 X284.362 Y275.945 Z2.934 F1314.270
G1 X283.856 Y275.902 Z2.923 F1314.267
G1 X270.996 Y275.902 Z2.642 F1314.286
G1 X267.531 Y275.902 Z6.142 F761.423
G1 X267.452 Y275.902 Z6.221 F764.344
G1 X267.415 Y275.902 Z6.188 F799.649
G1 X263.747 Y275.902 Z2.484 F761.424
G1 X250.000 Y275.902 Z2.183 F1314.286
G1 X249.535 Y275.938 Z2.173 F1314.270
G1 X249.000 Y276.073 Z2.161 F1314.264
G0 X249.000 Y276.073 Z19.095
G0 X249.000 Y276.073 Z21.095
G0 X249.000 Y301.730 Z21.095
G0 X249.000 Y301.730 Z19.095
G1 X249.000 Y301.730 Z1.563 F200.000
G1 X249.451 Y301.851 Z1.552 F1314.270
G1 X250.000 Y301.902 Z1.540 F1314.264
G1 X261.436 Y301.902 Z1.291 F1314.286
G1 X266.381 Y301.902 Z6.162 F770.351
G1 X271.420 Y301.902 Z1.072 F761.423
G1 X312.630 Y301.902 Z0.172 F1314.286
G1 X312.630 Y301.902 Z0.172 F1314.286
G1 X313.856 Y301.902 Z0.145 F1314.286
G1 X314.321 Y301.865 Z0.135 F1314.270
G1 X314.775 Y301.757 Z0.125 F1314.270
G1 X315.207 Y301.580 Z0.115 F1314.270
G1 X315.606 Y301.338 Z0.104 F1314.270
G1 X315.977 Y301.023 Z0.094 F1314.269
G2 X316.856 Y298.902 Z0.094 I-2.121 J-2.121 F1330.000
G1 X316.856 Y288.902 Z0.094 F1330.000
G2 X313.856 Y285.902 Z0.094 I-3.000 J-0.000 F1330.000
G3 X291.929 Y285.902 Z0.094 I-7.021 J-1258142.789 F1330.000
G3 X286.883 Y281.391 Z0.094 I-0.066 J-5.004 F1330.000
G3 X286.856 Y278.902 Z0.094 I25.275 J-1.524 F1330.000
G2 X283.856 Y275.902 Z0.094 I-3.000 J-0.000 F1330.000
G1 X273.519 Y275.902 Z0.094 F1330.000
G1 X267.368 Y275.902 Z6.141 F771.090
G1 X261.381 Y275.902 Z0.094 F761.422
G1 X250.000 Y275.902 Z0.094 F1330.000
G2 X249.000 Y276.073 Z0.094 I-0.000 J3.000 F1330.000
G0 X249.000 Y276.073 Z19.095
G0 X249.000 Y276.073 Z21.095
G0 X249.000 Y301.730 Z21.095
G0 X249.000 Y301.730 Z19.095
G1 X249.000 Y301.730 Z0.094 F200.000
G2 X250.000 Y301.902 Z0.094 I1.000 J-2.828 F1330.000
G1 X260.251 Y301.902 Z0.094 F1330.000
G1 X266.405 Y301.902 Z6.137 F771.500
G1 X272.389 Y301.902 Z0.094 F761.422
G1 X312.630 Y301.902 Z0.094 F1330.000
G1 X312.630 Y301.902 Z0.094 F1330.000
G1 X313.856 Y301.902 Z0.094 F1330.000
G2 X315.977 Y301.023 Z0.094 I-0.000 J-3.000 F1330.000
G1 X315.977 Y301.023 Z16.095 F200.000
G0 X315.977 Y301.023 Z19.095
G0 X315.977 Y301.023 Z21.095
(finish operation: Array)
(begin postamble)
M05
G17 G54 G90 G80 G40
M2
