(Exported by FreeCAD)
(Post Processor: mach3_mach4_post)
(Output Time:2026-05-15 09:05:58.035876)
(begin preamble)
G17 G54 G40 G49 G80 G90
G21
(begin operation: Fixture)
(machine: mach3_4, mm/min)
G54
(finish operation: Fixture)
(begin operation: TC: 6mm Endmill custom002)
(machine: mach3_4, mm/min)
(TC: 6mm Endmill custom002)
M5
M6 T2 
G43 H2
M3 S19000
(finish operation: TC: 6mm Endmill custom002)
(begin operation: DressupTag013)
(machine: mach3_4, mm/min)
G0 Z19.095
G0 X0.000 Y0.000 Z21.095
G0 X277.604 Y31.007 Z21.095
G0 X277.604 Y31.007 Z19.095
G1 X277.604 Y31.007 Z16.095 F200.000
G1 X251.500 Y15.936 Z14.829 F1299.810
G1 X251.074 Y15.734 Z14.809 F1299.810
G0 X251.074 Y15.734 Z19.095
G0 X251.074 Y15.734 Z21.095
G0 X249.000 Y56.062 Z21.095
G0 X249.000 Y56.062 Z19.095
G1 X249.000 Y56.062 Z12.954 F200.000
G1 X294.692 Y82.442 Z10.739 F1299.810
G1 X295.410 Y82.814 Z10.705 F1299.800
G1 X296.159 Y83.120 Z10.671 F1299.800
G1 X296.932 Y83.358 Z10.637 F1299.800
G1 X297.724 Y83.525 Z10.603 F1299.800
G1 X298.527 Y83.621 Z10.569 F1299.800
G1 X299.336 Y83.644 Z10.535 F1299.800
G1 X300.143 Y83.595 Z10.501 F1299.800
G1 X300.943 Y83.473 Z10.467 F1299.800
G1 X301.728 Y83.280 Z10.433 F1299.800
G1 X302.493 Y83.017 Z10.399 F1299.800
G1 X303.232 Y82.686 Z10.365 F1299.800
G1 X303.937 Y82.291 Z10.331 F1299.800
G1 X304.605 Y81.834 Z10.297 F1299.800
G1 X305.228 Y81.319 Z10.263 F1299.800
G1 X305.803 Y80.750 Z10.229 F1299.800
G1 X306.325 Y80.131 Z10.195 F1299.800
G1 X306.984 Y79.147 Z10.145 F1299.788
G1 X306.986 Y79.148 Z10.145 F1299.810
G1 X307.590 Y78.103 Z10.095 F1299.810
G1 X315.986 Y63.560 Z9.624 F1309.867
G1 X316.358 Y62.841 Z9.602 F1309.860
G1 X316.665 Y62.092 Z9.579 F1309.860
G1 X316.902 Y61.319 Z9.556 F1309.860
G1 X317.070 Y60.527 Z9.534 F1309.860
G1 X317.165 Y59.724 Z9.511 F1309.860
G1 X317.188 Y58.915 Z9.488 F1309.860
G1 X317.139 Y58.107 Z9.466 F1309.860
G1 X317.017 Y57.307 Z9.443 F1309.860
G1 X316.824 Y56.522 Z9.421 F1309.860
G1 X316.561 Y55.756 Z9.398 F1309.860
G1 X316.230 Y55.018 Z9.375 F1309.860
G1 X315.835 Y54.312 Z9.353 F1309.860
G1 X315.378 Y53.644 Z9.330 F1309.860
G1 X314.863 Y53.021 Z9.307 F1309.860
G1 X314.293 Y52.445 Z9.285 F1309.860
G1 X313.675 Y51.924 Z9.262 F1309.860
G1 X312.692 Y51.265 Z9.229 F1309.852
G1 X251.500 Y15.936 Z7.251 F1309.867
G1 X251.074 Y15.734 Z7.238 F1309.867
G0 X251.074 Y15.734 Z19.095
G0 X251.074 Y15.734 Z21.095
G0 X249.000 Y56.062 Z21.095
G0 X249.000 Y56.062 Z19.095
G1 X249.000 Y56.062 Z6.001 F200.000
G1 X263.645 Y64.517 Z5.528 F1309.867
G1 X264.599 Y65.068 Z6.617 F769.303
G1 X265.587 Y65.638 Z5.465 F761.498
G1 X294.692 Y82.442 Z4.524 F1309.867
G1 X295.410 Y82.814 Z4.501 F1309.860
G1 X296.159 Y83.120 Z4.479 F1309.860
G1 X296.932 Y83.358 Z4.456 F1309.860
G1 X297.724 Y83.525 Z4.433 F1309.860
G1 X298.527 Y83.621 Z4.411 F1309.860
G1 X299.336 Y83.644 Z4.388 F1309.860
G1 X300.143 Y83.595 Z4.365 F1309.860
G1 X300.943 Y83.473 Z4.343 F1309.860
G1 X301.728 Y83.280 Z4.320 F1309.860
G1 X302.493 Y83.017 Z4.298 F1309.860
G1 X303.232 Y82.686 Z4.275 F1309.860
G1 X303.937 Y82.291 Z4.252 F1309.860
G1 X304.605 Y81.834 Z4.230 F1309.860
G1 X305.228 Y81.319 Z4.207 F1309.860
G1 X305.803 Y80.750 Z4.184 F1309.860
G1 X306.325 Y80.131 Z4.162 F1309.860
G1 X306.984 Y79.147 Z4.128 F1309.852
G1 X306.986 Y79.148 Z4.128 F1309.867
G1 X307.590 Y78.103 Z4.095 F1309.867
G1 X315.986 Y63.560 Z3.781 F1316.575
G1 X316.358 Y62.841 Z3.766 F1316.571
G1 X316.665 Y62.092 Z3.751 F1316.571
G1 X316.902 Y61.319 Z3.736 F1316.571
G1 X317.070 Y60.527 Z3.721 F1316.571
G1 X317.165 Y59.724 Z3.706 F1316.571
G1 X317.188 Y58.915 Z3.690 F1316.571
G1 X317.139 Y58.107 Z3.675 F1316.571
G1 X317.017 Y57.307 Z3.660 F1316.571
G1 X316.824 Y56.522 Z3.645 F1316.571
G1 X316.561 Y55.756 Z3.630 F1316.571
G1 X316.230 Y55.018 Z3.615 F1316.571
G1 X315.835 Y54.312 Z3.600 F1316.571
G1 X315.378 Y53.644 Z3.585 F1316.571
G1 X314.863 Y53.021 Z3.570 F1316.571
G1 X314.293 Y52.445 Z3.555 F1316.571
G1 X313.675 Y51.924 Z3.539 F1316.571
G1 X312.692 Y51.265 Z3.517 F1316.566
G1 X267.201 Y25.001 Z2.537 F1316.575
G1 X263.699 Y22.979 Z6.620 F761.567
G1 X263.642 Y22.946 Z6.569 F862.276
G1 X260.052 Y20.874 Z2.383 F761.441
G1 X251.500 Y15.936 Z2.199 F1316.575
G1 X251.074 Y15.734 Z2.190 F1316.575
G0 X251.074 Y15.734 Z19.095
G0 X251.074 Y15.734 Z21.095
G0 X249.000 Y56.062 Z21.095
G0 X249.000 Y56.062 Z19.095
G1 X249.000 Y56.062 Z1.365 F200.000
G1 X259.875 Y62.340 Z1.131 F1316.575
G1 X264.704 Y65.129 Z6.494 F779.023
G1 X269.480 Y67.886 Z0.924 F761.422
G1 X294.692 Y82.442 Z0.381 F1316.575
G1 X295.410 Y82.814 Z0.366 F1316.571
G1 X296.159 Y83.120 Z0.351 F1316.571
G1 X296.932 Y83.358 Z0.335 F1316.571
G1 X297.724 Y83.525 Z0.320 F1316.571
G1 X298.527 Y83.621 Z0.305 F1316.571
G1 X299.336 Y83.644 Z0.290 F1316.571
G1 X300.143 Y83.595 Z0.275 F1316.571
G1 X300.943 Y83.473 Z0.260 F1316.571
G1 X301.728 Y83.280 Z0.245 F1316.571
G1 X302.493 Y83.017 Z0.230 F1316.571
G1 X303.232 Y82.686 Z0.215 F1316.571
G1 X303.937 Y82.291 Z0.199 F1316.571
G1 X304.605 Y81.834 Z0.184 F1316.571
G1 X305.228 Y81.319 Z0.169 F1316.571
G1 X305.803 Y80.750 Z0.154 F1316.571
G1 X306.325 Y80.131 Z0.139 F1316.571
G1 X306.984 Y79.147 Z0.117 F1316.566
G1 X306.986 Y79.148 Z0.117 F1316.575
G1 X307.590 Y78.103 Z0.094 F1316.575
G1 X315.986 Y63.560 Z0.094 F1330.000
G2 X312.692 Y51.265 Z0.094 I-7.805 J-4.497 F1330.000
G1 X269.295 Y26.210 Z0.094 F1330.000
G1 X263.699 Y22.979 Z6.620 F761.513
G1 X263.629 Y22.939 Z6.555 F842.883
G1 X258.090 Y19.741 Z0.094 F761.431
G1 X251.500 Y15.936 Z0.094 F1330.000
G1 X251.074 Y15.734 Z0.094 F1330.000
G0 X251.074 Y15.734 Z19.095
G0 X251.074 Y15.734 Z21.095
G0 X249.000 Y56.062 Z21.095
G0 X249.000 Y56.062 Z19.095
G1 X249.000 Y56.062 Z0.094 F200.000
G1 X258.986 Y61.827 Z0.094 F1330.000
G1 X264.502 Y65.012 Z6.527 F761.423
G1 X264.588 Y65.062 Z6.626 F768.138
G1 X264.736 Y65.147 Z6.457 F768.010
G1 X270.192 Y68.297 Z0.094 F761.422
G1 X294.692 Y82.442 Z0.094 F1330.000
G2 X306.984 Y79.147 Z0.094 I4.496 J-7.800 F1330.000
G1 X306.986 Y79.148 Z0.094 F1330.000
G1 X307.590 Y78.103 Z0.094 F1330.000
G1 X307.590 Y78.103 Z16.095 F200.000
G0 X307.590 Y78.103 Z19.095
G0 X307.590 Y78.103 Z21.095
(finish operation: DressupTag013)
(begin postamble)
M05
G17 G54 G90 G80 G40
M2
