(Exported by FreeCAD)
(Post Processor: mach3_mach4_post)
(Output Time:2026-05-11 15:44:48.477445)
(begin preamble)
G17 G54 G40 G49 G80 G90
G21
(begin operation: Fixture)
(machine: mach3_4, mm/min)
G54
(finish operation: Fixture)
(begin operation: TC: 6mm Endmill custom002)
(machine: mach3_4, mm/min)
(TC: 6mm Endmill custom002)
M5
M6 T2 
G43 H2
M3 S19000
(finish operation: TC: 6mm Endmill custom002)
(begin operation: DressupTag005)
(machine: mach3_4, mm/min)
G0 Z19.095
G0 X0.000 Y0.000 Z21.095
G0 X314.321 Y223.023 Z21.095
G0 X314.321 Y223.023 Z19.095
G1 X314.321 Y223.023 Z16.092 F200.000
G1 X314.321 Y223.023 Z10.095 F200.000
G2 X315.200 Y220.902 Z10.095 I-2.121 J-2.121 F1330.000
G1 X315.200 Y210.902 Z10.095 F1330.000
G2 X312.200 Y207.902 Z10.095 I-3.000 J-0.000 F1330.000
G1 X290.273 Y207.902 Z10.095 F1330.000
G3 X285.227 Y203.391 Z10.095 I-0.066 J-5.004 F1330.000
G3 X285.200 Y200.902 Z10.095 I25.329 J-1.527 F1330.000
G2 X282.200 Y197.902 Z10.095 I-3.000 J0.000 F1330.000
G1 X250.000 Y197.902 Z10.095 F1330.000
G2 X249.700 Y197.917 Z10.095 I0.000 J3.000 F1330.000
G0 X249.700 Y197.917 Z19.095
G0 X249.700 Y197.917 Z21.095
G0 X249.700 Y223.887 Z21.095
G0 X249.700 Y223.887 Z19.095
G1 X249.700 Y223.887 Z10.095 F200.000
G2 X250.000 Y223.902 Z10.095 I0.300 J-2.985 F1330.000
G1 X312.200 Y223.902 Z10.095 F1330.000
G2 X314.321 Y223.023 Z10.095 I-0.000 J-3.000 F1330.000
G1 X314.321 Y223.023 Z4.095 F200.000
G2 X315.200 Y220.902 Z4.095 I-2.121 J-2.121 F1330.000
G1 X315.200 Y210.902 Z4.095 F1330.000
G2 X312.200 Y207.902 Z4.095 I-3.000 J-0.000 F1330.000
G1 X290.273 Y207.902 Z4.095 F1330.000
G3 X285.227 Y203.391 Z4.095 I-0.066 J-5.004 F1330.000
G3 X285.200 Y200.902 Z4.095 I25.329 J-1.527 F1330.000
G2 X282.200 Y197.902 Z4.095 I-3.000 J0.000 F1330.000
G1 X258.608 Y197.902 Z4.095 F1330.000
G1 X256.505 Y197.902 Z6.187 F766.716
G1 X254.432 Y197.902 Z4.095 F761.435
G1 X250.000 Y197.902 Z4.095 F1330.000
G2 X249.700 Y197.917 Z4.095 I0.000 J3.000 F1330.000
G0 X249.700 Y197.917 Z19.095
G0 X249.700 Y197.917 Z21.095
G0 X249.700 Y223.887 Z21.095
G0 X249.700 Y223.887 Z19.095
G1 X249.700 Y223.887 Z4.095 F200.000
G2 X250.000 Y223.902 Z4.095 I0.300 J-2.985 F1330.000
G1 X254.822 Y223.902 Z4.095 F1330.000
G1 X256.925 Y223.902 Z6.187 F766.734
G1 X258.998 Y223.902 Z4.095 F761.435
G1 X288.962 Y223.902 Z4.095 F1330.000
G1 X291.065 Y223.902 Z6.188 F766.617
G1 X293.138 Y223.902 Z4.095 F761.435
G1 X312.200 Y223.902 Z4.095 F1330.000
G2 X314.321 Y223.023 Z4.095 I-0.000 J-3.000 F1330.000
G1 X314.321 Y223.023 Z0.094 F200.000
G2 X315.200 Y220.902 Z0.094 I-2.121 J-2.121 F1330.000
G1 X315.200 Y210.902 Z0.094 F1330.000
G2 X312.200 Y207.902 Z0.094 I-3.000 J-0.000 F1330.000
G1 X290.273 Y207.902 Z0.094 F1330.000
G3 X285.227 Y203.391 Z0.094 I-0.066 J-5.004 F1330.000
G3 X285.200 Y200.902 Z0.094 I25.329 J-1.527 F1330.000
G2 X282.200 Y197.902 Z0.094 I-3.000 J0.000 F1330.000
G1 X262.569 Y197.902 Z0.094 F1330.000
G1 X256.435 Y197.902 Z6.117 F771.508
G1 X250.471 Y197.902 Z0.094 F761.422
G1 X250.000 Y197.902 Z0.094 F1330.000
G2 X249.700 Y197.917 Z0.094 I0.000 J3.000 F1330.000
G0 X249.700 Y197.917 Z19.095
G0 X249.700 Y197.917 Z21.095
G0 X249.700 Y223.887 Z21.095
G0 X249.700 Y223.887 Z19.095
G1 X249.700 Y223.887 Z0.094 F200.000
G2 X250.000 Y223.902 Z0.094 I0.300 J-2.985 F1330.000
G1 X250.861 Y223.902 Z0.094 F1330.000
G1 X256.995 Y223.902 Z6.117 F771.537
G1 X262.959 Y223.902 Z0.094 F761.422
G1 X285.001 Y223.902 Z0.094 F1330.000
G1 X291.133 Y223.902 Z6.119 F771.350
G1 X297.099 Y223.902 Z0.094 F761.422
G1 X312.200 Y223.902 Z0.094 F1330.000
G2 X314.321 Y223.023 Z0.094 I-0.000 J-3.000 F1330.000
G1 X314.321 Y223.023 Z16.092 F200.000
G0 X314.321 Y223.023 Z19.095
G0 X314.321 Y223.023 Z21.095
(finish operation: DressupTag005)
(begin postamble)
M05
G17 G54 G90 G80 G40
M2
