(Exported by FreeCAD)
(Post Processor: mach3_mach4_post)
(Output Time:2026-05-11 15:44:48.477445)
(begin preamble)
G17 G54 G40 G49 G80 G90
G21
(begin operation: Fixture)
(machine: mach3_4, mm/min)
G54
(finish operation: Fixture)
(begin operation: TC: 6mm Endmill custom002)
(machine: mach3_4, mm/min)
(TC: 6mm Endmill custom002)
M5
M6 T2 
G43 H2
M3 S19000
(finish operation: TC: 6mm Endmill custom002)
(begin operation: DressupTag008)
(machine: mach3_4, mm/min)
G0 Z19.095
G0 X0.000 Y0.000 Z21.095
G0 X315.373 Y249.023 Z21.095
G0 X315.373 Y249.023 Z19.095
G1 X315.373 Y249.023 Z16.092 F200.000
G1 X315.373 Y249.023 Z10.095 F200.000
G2 X316.251 Y246.902 Z10.095 I-2.121 J-2.121 F1330.000
G1 X316.251 Y236.902 Z10.095 F1330.000
G2 X313.251 Y233.902 Z10.095 I-3.000 J-0.000 F1330.000
G1 X291.325 Y233.902 Z10.095 F1330.000
G3 X286.279 Y229.391 Z10.095 I-0.066 J-5.004 F1330.000
G3 X286.251 Y226.902 Z10.095 I25.329 J-1.527 F1330.000
G2 X283.251 Y223.902 Z10.095 I-3.000 J0.000 F1330.000
G1 X250.000 Y223.902 Z10.095 F1330.000
G2 X249.700 Y223.917 Z10.095 I0.000 J3.000 F1330.000
G0 X249.700 Y223.917 Z19.095
G0 X249.700 Y223.917 Z21.095
G0 X249.700 Y249.887 Z21.095
G0 X249.700 Y249.887 Z19.095
G1 X249.700 Y249.887 Z10.095 F200.000
G2 X250.000 Y249.902 Z10.095 I0.300 J-2.985 F1330.000
G1 X313.251 Y249.902 Z10.095 F1330.000
G2 X315.373 Y249.023 Z10.095 I-0.000 J-3.000 F1330.000
G1 X315.373 Y249.023 Z4.095 F200.000
G2 X316.251 Y246.902 Z4.095 I-2.121 J-2.121 F1330.000
G1 X316.251 Y236.902 Z4.095 F1330.000
G2 X313.251 Y233.902 Z4.095 I-3.000 J-0.000 F1330.000
G1 X305.218 Y233.902 Z4.095 F1330.000
G1 X303.125 Y233.902 Z6.178 F766.546
G1 X301.062 Y233.902 Z4.095 F761.435
G1 X291.325 Y233.902 Z4.095 F1330.000
G3 X286.279 Y229.391 Z4.095 I-0.066 J-5.004 F1330.000
G3 X286.251 Y226.902 Z4.095 I25.329 J-1.527 F1330.000
G2 X283.251 Y223.902 Z4.095 I-3.000 J0.000 F1330.000
G1 X258.918 Y223.902 Z4.095 F1330.000
G1 X256.825 Y223.902 Z6.177 F766.699
G1 X254.762 Y223.902 Z4.095 F761.436
G1 X250.000 Y223.902 Z4.095 F1330.000
G2 X249.700 Y223.917 Z4.095 I0.000 J3.000 F1330.000
G0 X249.700 Y223.917 Z19.095
G0 X249.700 Y223.917 Z21.095
G0 X249.700 Y249.887 Z21.095
G0 X249.700 Y249.887 Z19.095
G1 X249.700 Y249.887 Z4.095 F200.000
G2 X250.000 Y249.902 Z4.095 I0.300 J-2.985 F1330.000
G1 X254.762 Y249.902 Z4.095 F1330.000
G1 X256.855 Y249.902 Z6.177 F766.719
G1 X258.918 Y249.902 Z4.095 F761.436
G1 X313.251 Y249.902 Z4.095 F1330.000
G2 X315.373 Y249.023 Z4.095 I-0.000 J-3.000 F1330.000
G1 X315.373 Y249.023 Z0.093 F200.000
G2 X316.251 Y246.902 Z0.093 I-2.121 J-2.121 F1330.000
G1 X316.251 Y236.902 Z0.093 F1330.000
G2 X313.251 Y233.902 Z0.093 I-3.000 J-0.000 F1330.000
G1 X309.179 Y233.902 Z0.093 F1330.000
G1 X303.057 Y233.902 Z6.110 F771.252
G1 X297.101 Y233.902 Z0.093 F761.422
G1 X291.325 Y233.902 Z0.093 F1330.000
G3 X286.279 Y229.391 Z0.093 I-0.066 J-5.004 F1330.000
G3 X286.251 Y226.902 Z0.093 I25.329 J-1.527 F1330.000
G2 X283.251 Y223.902 Z0.093 I-3.000 J0.000 F1330.000
G1 X262.879 Y223.902 Z0.093 F1330.000
G1 X256.755 Y223.902 Z6.107 F771.497
G1 X250.801 Y223.902 Z0.093 F761.422
G1 X250.000 Y223.902 Z0.093 F1330.000
G2 X249.700 Y223.917 Z0.093 I0.000 J3.000 F1330.000
G0 X249.700 Y223.917 Z19.095
G0 X249.700 Y223.917 Z21.095
G0 X249.700 Y249.887 Z21.095
G0 X249.700 Y249.887 Z19.095
G1 X249.700 Y249.887 Z0.093 F200.000
G2 X250.000 Y249.902 Z0.093 I0.300 J-2.985 F1330.000
G1 X250.801 Y249.902 Z0.093 F1330.000
G1 X256.925 Y249.902 Z6.107 F771.528
G1 X262.879 Y249.902 Z0.093 F761.422
G1 X313.251 Y249.902 Z0.093 F1330.000
G2 X315.373 Y249.023 Z0.093 I-0.000 J-3.000 F1330.000
G1 X315.373 Y249.023 Z16.092 F200.000
G0 X315.373 Y249.023 Z19.095
G0 X315.373 Y249.023 Z21.095
(finish operation: DressupTag008)
(begin postamble)
M05
G17 G54 G90 G80 G40
M2
