(Exported by FreeCAD)
(Post Processor: mach3_mach4_post)
(Output Time:2026-05-11 15:44:48.477445)
(begin preamble)
G17 G54 G40 G49 G80 G90
G21
(begin operation: Fixture)
(machine: mach3_4, mm/min)
G54
(finish operation: Fixture)
(begin operation: TC: 6mm Endmill custom002)
(machine: mach3_4, mm/min)
(TC: 6mm Endmill custom002)
M5
M6 T2 
G43 H2
M3 S19000
(finish operation: TC: 6mm Endmill custom002)
(begin operation: DressupTag003)
(machine: mach3_4, mm/min)
G0 Z19.095
G0 X0.000 Y0.000 Z21.095
G0 X315.978 Y171.022 Z21.095
G0 X315.978 Y171.022 Z19.095
G1 X315.978 Y171.022 Z16.092 F200.000
G1 X315.978 Y171.022 Z10.095 F200.000
G2 X316.856 Y168.902 Z10.095 I-2.110 J-2.115 F1330.000
G1 X316.856 Y158.902 Z10.095 F1330.000
G2 X313.856 Y155.902 Z10.095 I-3.000 J0.000 F1330.000
G3 X313.856 Y155.909 Z10.095 I-0.000 J0.004 F1330.000
G1 X313.856 Y155.902 Z10.095 F1330.000
G1 X291.926 Y155.902 Z10.095 F1330.000
G3 X286.926 Y151.718 Z10.095 I-0.063 J-5.004 F1330.000
G3 X286.855 Y148.958 Z10.095 I17.855 J-1.840 F1330.000
G2 X283.856 Y145.902 Z10.095 I-3.000 J-0.057 F1330.000
G1 X250.000 Y145.902 Z10.095 F1330.000
G2 X249.700 Y145.917 Z10.095 I0.000 J3.000 F1330.000
G0 X249.700 Y145.917 Z19.095
G0 X249.700 Y145.917 Z21.095
G0 X249.700 Y171.887 Z21.095
G0 X249.700 Y171.887 Z19.095
G1 X249.700 Y171.887 Z10.095 F200.000
G2 X250.000 Y171.902 Z10.095 I0.300 J-2.985 F1330.000
G1 X312.630 Y171.902 Z10.095 F1330.000
G1 X312.630 Y171.902 Z10.095 F1330.000
G1 X313.856 Y171.902 Z10.095 F1330.000
G1 X313.856 Y171.894 Z10.095 F1330.000
G2 X315.978 Y171.022 Z10.095 I0.013 J-2.987 F1330.000
G1 X315.978 Y171.022 Z4.095 F200.000
G2 X316.856 Y168.902 Z4.095 I-2.110 J-2.115 F1330.000
G1 X316.856 Y158.902 Z4.095 F1330.000
G2 X313.856 Y155.902 Z4.095 I-3.000 J0.000 F1330.000
G3 X313.856 Y155.909 Z4.095 I-0.000 J0.004 F1330.000
G1 X313.856 Y155.902 Z4.095 F1330.000
G1 X291.926 Y155.902 Z4.095 F1330.000
G3 X286.926 Y151.718 Z4.095 I-0.063 J-5.004 F1330.000
G3 X286.855 Y148.958 Z4.095 I17.855 J-1.840 F1330.000
G2 X283.856 Y145.902 Z4.095 I-3.000 J-0.057 F1330.000
G1 X260.008 Y145.902 Z4.095 F1330.000
G1 X257.884 Y145.902 Z6.207 F766.740
G1 X255.792 Y145.902 Z4.095 F761.435
G1 X250.000 Y145.902 Z4.095 F1330.000
G2 X249.700 Y145.917 Z4.095 I0.000 J3.000 F1330.000
G0 X249.700 Y145.917 Z19.095
G0 X249.700 Y145.917 Z21.095
G0 X249.700 Y171.887 Z21.095
G0 X249.700 Y171.887 Z19.095
G1 X249.700 Y171.887 Z4.095 F200.000
G2 X250.000 Y171.902 Z4.095 I0.300 J-2.985 F1330.000
G1 X255.232 Y171.902 Z4.095 F1330.000
G1 X257.356 Y171.902 Z6.207 F766.762
G1 X259.448 Y171.902 Z4.095 F761.435
G1 X312.630 Y171.902 Z4.095 F1330.000
G1 X312.630 Y171.902 Z4.095 F1330.000
G1 X313.856 Y171.902 Z4.095 F1330.000
G1 X313.856 Y171.894 Z4.095 F1330.000
G2 X315.978 Y171.022 Z4.095 I0.013 J-2.987 F1330.000
G1 X315.978 Y171.022 Z0.094 F200.000
G2 X316.856 Y168.902 Z0.094 I-2.110 J-2.115 F1330.000
G1 X316.856 Y158.902 Z0.094 F1330.000
G2 X313.856 Y155.902 Z0.094 I-3.000 J0.000 F1330.000
G3 X313.856 Y155.909 Z0.094 I-0.000 J0.004 F1330.000
G1 X313.856 Y155.902 Z0.094 F1330.000
G1 X291.926 Y155.902 Z0.094 F1330.000
G3 X286.926 Y151.718 Z0.094 I-0.063 J-5.004 F1330.000
G3 X286.855 Y148.958 Z0.094 I17.855 J-1.840 F1330.000
G2 X283.856 Y145.902 Z0.094 I-3.000 J-0.057 F1330.000
G1 X263.969 Y145.902 Z0.094 F1330.000
G1 X257.815 Y145.902 Z6.137 F771.517
G1 X251.831 Y145.902 Z0.094 F761.422
G1 X250.000 Y145.902 Z0.094 F1330.000
G2 X249.700 Y145.917 Z0.094 I0.000 J3.000 F1330.000
G0 X249.700 Y145.917 Z19.095
G0 X249.700 Y145.917 Z21.095
G0 X249.700 Y171.887 Z21.095
G0 X249.700 Y171.887 Z19.095
G1 X249.700 Y171.887 Z0.094 F200.000
G2 X250.000 Y171.902 Z0.094 I0.300 J-2.985 F1330.000
G1 X251.271 Y171.902 Z0.094 F1330.000
G1 X257.425 Y171.902 Z6.137 F771.552
G1 X263.409 Y171.902 Z0.094 F761.422
G1 X312.630 Y171.902 Z0.094 F1330.000
G1 X312.630 Y171.902 Z0.094 F1330.000
G1 X313.856 Y171.902 Z0.094 F1330.000
G1 X313.856 Y171.894 Z0.094 F1330.000
G2 X315.978 Y171.022 Z0.094 I0.013 J-2.987 F1330.000
G1 X315.978 Y171.022 Z16.092 F200.000
G0 X315.978 Y171.022 Z19.095
G0 X315.978 Y171.022 Z21.095
(finish operation: DressupTag003)
(begin postamble)
M05
G17 G54 G90 G80 G40
M2
