(Exported by FreeCAD)
(Post Processor: mach3_mach4_post)
(Output Time:2026-05-11 15:44:48.477445)
(begin preamble)
G17 G54 G40 G49 G80 G90
G21
(begin operation: Fixture)
(machine: mach3_4, mm/min)
G54
(finish operation: Fixture)
(begin operation: TC: 6mm Endmill custom002)
(machine: mach3_4, mm/min)
(TC: 6mm Endmill custom002)
M5
M6 T2 
G43 H2
M3 S19000
(finish operation: TC: 6mm Endmill custom002)
(begin operation: DressupTag009)
(machine: mach3_4, mm/min)
(Profile010)
(Compensated Tool Path. Diameter: 6.0)
G0 Z19.095
G0 Z21.095
G0 X314.864 Y301.023
G0 Z19.095
G1 Z16.092 F200.000
G1 X314.864 Y301.023 Z10.095 F200.000
G2 X315.742 Y298.902 Z10.095 I-2.121 J-2.121 F1330.000
G1 X315.743 Y288.902 Z10.095 F1330.000
G2 X312.743 Y285.902 Z10.095 I-3.000 J-0.000 F1330.000
G2 X290.816 Y285.902 Z10.095 I-25.110 J4437744.475 F1330.000
G3 X285.770 Y281.391 Z10.095 I-0.066 J-5.004 F1330.000
G3 X285.743 Y278.902 Z10.095 I44.405 J-1.739 F1330.000
G2 X282.743 Y275.902 Z10.095 I-3.000 J-0.000 F1330.000
G1 X250.000 Y275.902 Z10.095 F1330.000
G2 X249.700 Y275.917 Z10.095 I-0.000 J3.000 F1330.000
G0 Z19.095
G0 Z21.095
G0 X249.700 Y301.887
G0 Z19.095
G1 Z10.095 F200.000
G2 X250.000 Y301.902 Z10.095 I0.300 J-2.985 F1330.000
G1 X311.517 Y301.902 Z10.095 F1330.000
G1 X311.517 Y301.902 Z10.095 F1330.000
G1 X312.743 Y301.902 Z10.095 F1330.000
G2 X314.864 Y301.023 Z10.095 I-0.000 J-3.000 F1330.000
G1 X314.864 Y301.023 Z4.095 F200.000
G2 X315.742 Y298.902 Z4.095 I-2.121 J-2.121 F1330.000
G1 X315.743 Y288.902 Z4.095 F1330.000
G2 X312.743 Y285.902 Z4.095 I-3.000 J-0.000 F1330.000
G2 X290.816 Y285.902 Z4.095 I-25.110 J4437744.475 F1330.000
G3 X285.770 Y281.391 Z4.095 I-0.066 J-5.004 F1330.000
G3 X285.743 Y278.902 Z4.095 I44.405 J-1.739 F1330.000
G2 X282.743 Y275.902 Z4.095 I-3.000 J-0.000 F1330.000
G1 X250.000 Y275.902 Z4.095 F1330.000
G2 X249.700 Y275.917 Z4.095 I-0.000 J3.000 F1330.000
G0 Z19.095
G0 Z21.095
G0 X249.700 Y301.887
G0 Z19.095
G1 Z4.095 F200.000
G2 X250.000 Y301.902 Z4.095 I0.300 J-2.985 F1330.000
G1 X311.517 Y301.902 Z4.095 F1330.000
G1 X311.517 Y301.902 Z4.095 F1330.000
G1 X312.743 Y301.902 Z4.095 F1330.000
G2 X314.864 Y301.023 Z4.095 I-0.000 J-3.000 F1330.000
G1 X314.864 Y301.023 Z0.093 F200.000
G2 X315.742 Y298.902 Z0.093 I-2.121 J-2.121 F1330.000
G1 X315.743 Y288.902 Z0.093 F1330.000
G2 X312.743 Y285.902 Z0.093 I-3.000 J-0.000 F1330.000
G2 X290.816 Y285.902 Z0.093 I-25.110 J4437744.475 F1330.000
G3 X285.770 Y281.391 Z0.093 I-0.066 J-5.004 F1330.000
G3 X285.743 Y278.902 Z0.093 I44.405 J-1.739 F1330.000
G2 X282.743 Y275.902 Z0.093 I-3.000 J-0.000 F1330.000
G1 X250.000 Y275.902 Z0.093 F1330.000
G2 X249.700 Y275.917 Z0.093 I-0.000 J3.000 F1330.000
G0 Z19.095
G0 Z21.095
G0 X249.700 Y301.887
G0 Z19.095
G1 Z0.093 F200.000
G2 X250.000 Y301.902 Z0.093 I0.300 J-2.985 F1330.000
G1 X311.517 Y301.902 Z0.093 F1330.000
G1 X311.517 Y301.902 Z0.093 F1330.000
G1 X312.743 Y301.902 Z0.093 F1330.000
G2 X314.864 Y301.023 Z0.093 I-0.000 J-3.000 F1330.000
G1 X314.864 Y301.023 Z16.092 F200.000
G0 Z19.095
G0 Z21.095
(finish operation: DressupTag009)
(begin postamble)
M05
G17 G54 G90 G80 G40
M2
