(Exported by FreeCAD)
(Post Processor: mach3_mach4_post)
(Output Time:2026-05-11 15:44:48.477445)
(begin preamble)
G17 G54 G40 G49 G80 G90
G21
(begin operation: Fixture)
(machine: mach3_4, mm/min)
G54
(finish operation: Fixture)
(begin operation: TC: 6mm Endmill custom002)
(machine: mach3_4, mm/min)
(TC: 6mm Endmill custom002)
M5
M6 T2 
G43 H2
M3 S19000
(finish operation: TC: 6mm Endmill custom002)
(begin operation: DressupTag006)
(machine: mach3_4, mm/min)
G0 Z19.095
G0 X0.000 Y0.000 Z21.095
G0 X314.649 Y275.023 Z21.095
G0 X314.649 Y275.023 Z19.095
G1 X314.649 Y275.023 Z16.092 F200.000
G1 X314.649 Y275.023 Z10.095 F200.000
G2 X315.528 Y272.902 Z10.095 I-2.121 J-2.121 F1330.000
G1 X315.528 Y262.902 Z10.095 F1330.000
G2 X312.528 Y259.902 Z10.095 I-3.000 J-0.000 F1330.000
G1 X290.602 Y259.902 Z10.095 F1330.000
G3 X285.556 Y255.391 Z10.095 I-0.066 J-5.004 F1330.000
G3 X285.528 Y252.902 Z10.095 I44.364 J-1.737 F1330.000
G2 X282.528 Y249.902 Z10.095 I-3.000 J-0.000 F1330.000
G1 X250.000 Y249.902 Z10.095 F1330.000
G2 X249.700 Y249.917 Z10.095 I-0.000 J3.000 F1330.000
G0 X249.700 Y249.917 Z19.095
G0 X249.700 Y249.917 Z21.095
G0 X249.700 Y275.887 Z21.095
G0 X249.700 Y275.887 Z19.095
G1 X249.700 Y275.887 Z10.095 F200.000
G2 X250.000 Y275.902 Z10.095 I0.300 J-2.985 F1330.000
G1 X311.303 Y275.902 Z10.095 F1330.000
G1 X311.303 Y275.902 Z10.095 F1330.000
G1 X312.528 Y275.902 Z10.095 F1330.000
G2 X314.649 Y275.023 Z10.095 I-0.000 J-3.000 F1330.000
G1 X314.649 Y275.023 Z4.095 F200.000
G2 X315.528 Y272.902 Z4.095 I-2.121 J-2.121 F1330.000
G1 X315.528 Y262.902 Z4.095 F1330.000
G2 X312.528 Y259.902 Z4.095 I-3.000 J-0.000 F1330.000
G1 X290.602 Y259.902 Z4.095 F1330.000
G3 X285.556 Y255.391 Z4.095 I-0.066 J-5.004 F1330.000
G3 X285.528 Y252.902 Z4.095 I44.364 J-1.737 F1330.000
G2 X282.528 Y249.902 Z4.095 I-3.000 J-0.000 F1330.000
G1 X260.123 Y249.902 Z4.095 F1330.000
G1 X258.066 Y249.902 Z6.144 F766.319
G1 X256.037 Y249.902 Z4.095 F761.436
G1 X250.000 Y249.902 Z4.095 F1330.000
G2 X249.700 Y249.917 Z4.095 I-0.000 J3.000 F1330.000
G0 X249.700 Y249.917 Z19.095
G0 X249.700 Y249.917 Z21.095
G0 X249.700 Y275.887 Z21.095
G0 X249.700 Y275.887 Z19.095
G1 X249.700 Y275.887 Z4.095 F200.000
G2 X250.000 Y275.902 Z4.095 I0.300 J-2.985 F1330.000
G1 X256.177 Y275.902 Z4.095 F1330.000
G1 X258.235 Y275.902 Z6.143 F766.657
G1 X260.263 Y275.902 Z4.095 F761.436
G1 X311.303 Y275.902 Z4.095 F1330.000
G1 X311.303 Y275.902 Z4.095 F1330.000
G1 X312.528 Y275.902 Z4.095 F1330.000
G2 X314.649 Y275.023 Z4.095 I-0.000 J-3.000 F1330.000
G1 X314.649 Y275.023 Z0.093 F200.000
G2 X315.528 Y272.902 Z0.093 I-2.121 J-2.121 F1330.000
G1 X315.528 Y262.902 Z0.093 F1330.000
G2 X312.528 Y259.902 Z0.093 I-3.000 J-0.000 F1330.000
G1 X290.602 Y259.902 Z0.093 F1330.000
G3 X285.556 Y255.391 Z0.093 I-0.066 J-5.004 F1330.000
G3 X285.528 Y252.902 Z0.093 I44.364 J-1.737 F1330.000
G2 X282.528 Y249.902 Z0.093 I-3.000 J-0.000 F1330.000
G1 X264.084 Y249.902 Z0.093 F1330.000
G1 X258.001 Y249.902 Z6.078 F770.938
G1 X252.076 Y249.902 Z0.093 F761.422
G1 X250.000 Y249.902 Z0.093 F1330.000
G2 X249.700 Y249.917 Z0.093 I-0.000 J3.000 F1330.000
G0 X249.700 Y249.917 Z19.095
G0 X249.700 Y249.917 Z21.095
G0 X249.700 Y275.887 Z21.095
G0 X249.700 Y275.887 Z19.095
G1 X249.700 Y275.887 Z0.093 F200.000
G2 X250.000 Y275.902 Z0.093 I0.300 J-2.985 F1330.000
G1 X252.216 Y275.902 Z0.093 F1330.000
G1 X258.304 Y275.902 Z6.073 F771.483
G1 X264.224 Y275.902 Z0.093 F761.422
G1 X311.303 Y275.902 Z0.093 F1330.000
G1 X311.303 Y275.902 Z0.093 F1330.000
G1 X312.528 Y275.902 Z0.093 F1330.000
G2 X314.649 Y275.023 Z0.093 I-0.000 J-3.000 F1330.000
G1 X314.649 Y275.023 Z16.092 F200.000
G0 X314.649 Y275.023 Z19.095
G0 X314.649 Y275.023 Z21.095
(finish operation: DressupTag006)
(begin postamble)
M05
G17 G54 G90 G80 G40
M2
