(Exported by FreeCAD)
(Post Processor: mach3_mach4_post)
(Output Time:2026-05-11 15:44:48.477445)
(begin preamble)
G17 G54 G40 G49 G80 G90
G21
(begin operation: Fixture)
(machine: mach3_4, mm/min)
G54
(finish operation: Fixture)
(begin operation: TC: 6mm Endmill custom002)
(machine: mach3_4, mm/min)
(TC: 6mm Endmill custom002)
M5
M6 T2 
G43 H2
M3 S19000
(finish operation: TC: 6mm Endmill custom002)
(begin operation: DressupTag001)
(machine: mach3_4, mm/min)
G0 Z19.095
G0 X0.000 Y0.000 Z21.095
G0 X312.553 Y124.391 Z21.095
G0 X312.553 Y124.391 Z19.095
G1 X312.553 Y124.391 Z16.092 F200.000
G1 X312.553 Y124.391 Z10.095 F200.000
G1 X320.949 Y109.845 Z10.095 F1330.000
G2 X317.654 Y97.551 Z10.095 I-7.805 J-4.496 F1330.000
G1 X251.500 Y59.365 Z10.095 F1330.000
G1 X251.064 Y59.158 Z10.095 F1330.000
G2 X249.500 Y59.005 Z10.095 I-1.064 J2.805 F1330.000
G0 X249.500 Y59.005 Z19.095
G0 X249.500 Y59.005 Z21.095
G0 X249.500 Y99.778 Z21.095
G0 X249.500 Y99.778 Z19.095
G1 X249.500 Y99.778 Z10.095 F200.000
G1 X299.657 Y128.729 Z10.095 F1330.000
G2 X311.951 Y125.434 Z10.095 I4.497 J-7.805 F1330.000
G1 X312.553 Y124.391 Z10.095 F1330.000
G1 X312.553 Y124.391 Z4.095 F200.000
G1 X320.949 Y109.845 Z4.095 F1330.000
G2 X317.654 Y97.551 Z4.095 I-7.805 J-4.496 F1330.000
G1 X308.800 Y92.440 Z4.095 F1330.000
G1 X306.388 Y91.048 Z6.905 F761.743
G1 X306.332 Y91.016 Z6.854 F843.454
G1 X303.966 Y89.650 Z4.095 F761.458
G1 X265.796 Y67.617 Z4.095 F1330.000
G1 X263.337 Y66.198 Z6.865 F773.822
G1 X260.962 Y64.827 Z4.095 F761.429
G1 X251.500 Y59.365 Z4.095 F1330.000
G1 X251.064 Y59.158 Z4.095 F1330.000
G2 X249.500 Y59.005 Z4.095 I-1.064 J2.805 F1330.000
G0 X249.500 Y59.005 Z19.095
G0 X249.500 Y59.005 Z21.095
G0 X249.500 Y99.778 Z21.095
G0 X249.500 Y99.778 Z19.095
G1 X249.500 Y99.778 Z4.095 F200.000
G1 X261.355 Y106.621 Z4.095 F1330.000
G1 X263.775 Y108.018 Z6.908 F762.607
G1 X266.190 Y109.411 Z4.095 F761.706
G1 X299.657 Y128.729 Z4.095 F1330.000
G2 X311.951 Y125.434 Z4.095 I4.497 J-7.805 F1330.000
G1 X312.553 Y124.391 Z4.095 F1330.000
G1 X312.553 Y124.391 Z0.094 F200.000
G1 X320.949 Y109.845 Z0.094 F1330.000
G2 X317.654 Y97.551 Z0.094 I-7.805 J-4.496 F1330.000
G1 X312.230 Y94.420 Z0.094 F1330.000
G1 X306.388 Y91.048 Z6.905 F761.554
G1 X306.303 Y90.999 Z6.821 F814.276
G1 X300.535 Y87.670 Z0.094 F761.431
G1 X269.226 Y69.597 Z0.094 F1330.000
G1 X263.464 Y66.271 Z6.814 F761.423
G1 X263.379 Y66.222 Z6.911 F768.863
G1 X263.222 Y66.132 Z6.731 F767.114
G1 X257.531 Y62.847 Z0.094 F761.422
G1 X251.500 Y59.365 Z0.094 F1330.000
G1 X251.064 Y59.158 Z0.094 F1330.000
G2 X249.500 Y59.005 Z0.094 I-1.064 J2.805 F1330.000
G0 X249.500 Y59.005 Z19.095
G0 X249.500 Y59.005 Z21.095
G0 X249.500 Y99.778 Z21.095
G0 X249.500 Y99.778 Z19.095
G1 X249.500 Y99.778 Z0.094 F200.000
G1 X257.925 Y104.641 Z0.094 F1330.000
G1 X263.775 Y108.018 Z6.908 F761.911
G1 X269.620 Y111.391 Z0.094 F761.539
G1 X299.657 Y128.729 Z0.094 F1330.000
G2 X311.951 Y125.434 Z0.094 I4.497 J-7.805 F1330.000
G1 X312.553 Y124.391 Z0.094 F1330.000
G1 X312.553 Y124.391 Z16.092 F200.000
G0 X312.553 Y124.391 Z19.095
G0 X312.553 Y124.391 Z21.095
(finish operation: DressupTag001)
(begin postamble)
M05
G17 G54 G90 G80 G40
M2
