(Exported by FreeCAD)
(Post Processor: mach3_mach4_post)
(Output Time:2026-05-11 15:44:48.477445)
(begin preamble)
G17 G54 G40 G49 G80 G90
G21
(begin operation: Fixture)
(machine: mach3_4, mm/min)
G54
(finish operation: Fixture)
(begin operation: TC: 6mm Endmill custom002)
(machine: mach3_4, mm/min)
(TC: 6mm Endmill custom002)
M5
M6 T2 
G43 H2
M3 S19000
(finish operation: TC: 6mm Endmill custom002)
(begin operation: DressupTag)
(machine: mach3_4, mm/min)
G0 Z19.095
G0 X0.000 Y0.000 Z21.095
G0 X307.590 Y78.103 Z21.095
G0 X307.590 Y78.103 Z19.095
G1 X307.590 Y78.103 Z16.092 F200.000
G1 X307.590 Y78.103 Z10.095 F200.000
G1 X315.986 Y63.560 Z10.095 F1330.000
G2 X312.835 Y51.353 Z10.095 I-7.799 J-4.496 F1330.000
G1 X312.830 Y51.361 Z10.095 F1330.000
G1 X312.692 Y51.265 Z10.095 F1330.000
G1 X251.500 Y15.936 Z10.095 F1330.000
G1 X251.066 Y15.730 Z10.095 F1330.000
G0 X251.066 Y15.730 Z19.095
G0 X251.066 Y15.730 Z21.095
G0 X249.000 Y56.062 Z21.095
G0 X249.000 Y56.062 Z19.095
G1 X249.000 Y56.062 Z10.095 F200.000
G1 X294.692 Y82.442 Z10.095 F1330.000
G2 X306.986 Y79.148 Z10.095 I4.497 J-7.805 F1330.000
G1 X307.590 Y78.103 Z10.095 F1330.000
G1 X307.590 Y78.103 Z4.095 F200.000
G1 X315.986 Y63.560 Z4.095 F1330.000
G2 X312.835 Y51.353 Z4.095 I-7.799 J-4.496 F1330.000
G1 X312.830 Y51.361 Z4.095 F1330.000
G1 X312.692 Y51.265 Z4.095 F1330.000
G1 X284.873 Y35.204 Z4.095 F1330.000
G1 X282.701 Y33.950 Z6.628 F761.446
G1 X282.687 Y33.942 Z6.614 F799.833
G1 X280.527 Y32.695 Z4.095 F761.422
G1 X251.500 Y15.936 Z4.095 F1330.000
G1 X251.066 Y15.730 Z4.095 F1330.000
G0 X251.066 Y15.730 Z19.095
G0 X251.066 Y15.730 Z21.095
G0 X249.000 Y56.062 Z21.095
G0 X249.000 Y56.062 Z19.095
G1 X249.000 Y56.062 Z4.095 F200.000
G1 X260.988 Y62.983 Z4.095 F1330.000
G1 X263.131 Y64.220 Z6.593 F761.433
G1 X263.163 Y64.239 Z6.625 F823.742
G1 X265.334 Y65.492 Z4.095 F761.561
G1 X294.692 Y82.442 Z4.095 F1330.000
G2 X306.986 Y79.148 Z4.095 I4.497 J-7.805 F1330.000
G1 X307.590 Y78.103 Z4.095 F1330.000
G1 X307.590 Y78.103 Z0.094 F200.000
G1 X315.986 Y63.560 Z0.094 F1330.000
G2 X312.835 Y51.353 Z0.094 I-7.799 J-4.496 F1330.000
G1 X312.830 Y51.361 Z0.094 F1330.000
G1 X312.692 Y51.265 Z0.094 F1330.000
G1 X288.303 Y37.184 Z0.094 F1330.000
G1 X282.701 Y33.950 Z6.628 F761.431
G1 X277.097 Y30.715 Z0.094 F761.509
G1 X251.500 Y15.936 Z0.094 F1330.000
G1 X251.066 Y15.730 Z0.094 F1330.000
G0 X251.066 Y15.730 Z19.095
G0 X251.066 Y15.730 Z21.095
G0 X249.000 Y56.062 Z21.095
G0 X249.000 Y56.062 Z19.095
G1 X249.000 Y56.062 Z0.094 F200.000
G1 X257.558 Y61.003 Z0.094 F1330.000
G1 X263.163 Y64.239 Z6.625 F761.759
G1 X268.764 Y67.473 Z0.094 F761.475
G1 X294.692 Y82.442 Z0.094 F1330.000
G2 X306.986 Y79.148 Z0.094 I4.497 J-7.805 F1330.000
G1 X307.590 Y78.103 Z0.094 F1330.000
G1 X307.590 Y78.103 Z16.092 F200.000
G0 X307.590 Y78.103 Z19.095
G0 X307.590 Y78.103 Z21.095
(finish operation: DressupTag)
(begin postamble)
M05
G17 G54 G90 G80 G40
M2
