(Exported by FreeCAD)
(Post Processor: mach3_mach4_post)
(Output Time:2026-05-22 09:59:16.583886)
(begin preamble)
G17 G54 G40 G49 G80 G90
G21
(begin operation: Fixture)
(machine: mach3_4, mm/min)
G54
(finish operation: Fixture)
(begin operation: TC: 6mm Endmill custom)
(machine: mach3_4, mm/min)
(TC: 6mm Endmill custom)
M5
M6 T3 
G43 H3
M3 S19000
(finish operation: TC: 6mm Endmill custom)
(begin operation: DressupTag009)
(machine: mach3_4, mm/min)
G0 Z20.093
G0 X-276.780 Y552.121 Z20.093
G0 X-276.780 Y552.121 Z18.093
G1 X-276.780 Y552.121 Z11.100 F200.000
G2 X-275.902 Y550.000 Z11.100 I-2.121 J-2.121 F1330.000
G1 X-275.902 Y2.742 Z11.100 F1330.000
G2 X-278.902 Y-0.258 Z11.100 I-3.000 J0.000 F1330.000
G1 X-288.902 Y-0.258 Z11.100 F1330.000
G2 X-291.902 Y2.743 Z11.100 I0.000 J3.000 F1330.000
G3 X-291.902 Y24.669 Z11.100 I-2437291.039 J7.073 F1330.000
G3 X-296.412 Y29.715 Z11.100 I-5.004 J0.066 F1330.000
G3 X-298.902 Y29.742 Z11.100 I-1.527 J-25.329 F1330.000
G2 X-301.902 Y32.742 Z11.100 I0.000 J3.000 F1330.000
G1 X-301.902 Y550.000 Z11.100 F1330.000
G2 X-298.902 Y553.000 Z11.100 I3.000 J0.000 F1330.000
G1 X-278.902 Y553.000 Z11.100 F1330.000
G2 X-276.780 Y552.121 Z11.100 I0.000 J-3.000 F1330.000
G1 X-276.780 Y552.121 Z7.100 F200.000
G2 X-275.902 Y550.000 Z7.100 I-2.121 J-2.121 F1330.000
G1 X-275.902 Y189.824 Z7.100 F1330.000
G1 X-275.902 Y189.325 Z7.599 F765.004
G1 X-275.902 Y188.975 Z7.599 F1330.000
G1 X-275.902 Y188.476 Z7.100 F765.004
G1 X-275.902 Y2.742 Z7.100 F1330.000
G2 X-278.902 Y-0.258 Z7.100 I-3.000 J0.000 F1330.000
G1 X-288.902 Y-0.258 Z7.100 F1330.000
G2 X-291.902 Y2.743 Z7.100 I0.000 J3.000 F1330.000
G3 X-291.902 Y24.669 Z7.100 I-2437291.039 J7.073 F1330.000
G3 X-296.412 Y29.715 Z7.100 I-5.004 J0.066 F1330.000
G3 X-298.902 Y29.742 Z7.100 I-1.527 J-25.329 F1330.000
G2 X-301.902 Y32.742 Z7.100 I0.000 J3.000 F1330.000
G1 X-301.902 Y550.000 Z7.100 F1330.000
G2 X-298.902 Y553.000 Z7.100 I3.000 J0.000 F1330.000
G1 X-278.902 Y553.000 Z7.100 F1330.000
G2 X-276.780 Y552.121 Z7.100 I0.000 J-3.000 F1330.000
G1 X-276.780 Y552.121 Z3.100 F200.000
G2 X-275.902 Y550.000 Z3.100 I-2.121 J-2.121 F1330.000
G1 X-275.902 Y193.824 Z3.100 F1330.000
G1 X-275.902 Y189.325 Z7.599 F765.001
G1 X-275.902 Y188.975 Z7.599 F1330.000
G1 X-275.902 Y184.476 Z3.100 F765.001
G1 X-275.902 Y2.742 Z3.100 F1330.000
G2 X-278.902 Y-0.258 Z3.100 I-3.000 J0.000 F1330.000
G1 X-288.902 Y-0.258 Z3.100 F1330.000
G2 X-291.902 Y2.743 Z3.100 I0.000 J3.000 F1330.000
G3 X-291.902 Y24.669 Z3.100 I-2437291.039 J7.073 F1330.000
G3 X-296.412 Y29.715 Z3.100 I-5.004 J0.066 F1330.000
G3 X-298.902 Y29.742 Z3.100 I-1.527 J-25.329 F1330.000
G2 X-301.902 Y32.742 Z3.100 I0.000 J3.000 F1330.000
G1 X-301.902 Y550.000 Z3.100 F1330.000
G2 X-298.902 Y553.000 Z3.100 I3.000 J0.000 F1330.000
G1 X-278.902 Y553.000 Z3.100 F1330.000
G2 X-276.780 Y552.121 Z3.100 I0.000 J-3.000 F1330.000
G1 X-276.780 Y552.121 Z0.099 F200.000
G2 X-275.902 Y550.000 Z0.099 I-2.121 J-2.121 F1330.000
G1 X-275.902 Y196.825 Z0.099 F1330.000
G1 X-275.902 Y189.325 Z7.599 F765.000
G1 X-275.902 Y188.975 Z7.599 F1330.000
G1 X-275.902 Y181.475 Z0.099 F765.000
G1 X-275.902 Y2.742 Z0.099 F1330.000
G2 X-278.902 Y-0.258 Z0.099 I-3.000 J0.000 F1330.000
G1 X-288.902 Y-0.258 Z0.099 F1330.000
G2 X-291.902 Y2.743 Z0.099 I0.000 J3.000 F1330.000
G3 X-291.902 Y24.669 Z0.099 I-2437291.039 J7.073 F1330.000
G3 X-296.412 Y29.715 Z0.099 I-5.004 J0.066 F1330.000
G3 X-298.902 Y29.742 Z0.099 I-1.527 J-25.329 F1330.000
G2 X-301.902 Y32.742 Z0.099 I0.000 J3.000 F1330.000
G1 X-301.902 Y550.000 Z0.099 F1330.000
G2 X-298.902 Y553.000 Z0.099 I3.000 J0.000 F1330.000
G1 X-278.902 Y553.000 Z0.099 F1330.000
G2 X-276.780 Y552.121 Z0.099 I0.000 J-3.000 F1330.000
G0 X-276.780 Y552.121 Z20.093
(finish operation: DressupTag009)
(begin postamble)
M05
G17 G54 G90 G80 G40
M2
