(Exported by FreeCAD)
(Post Processor: mach3_mach4_post)
(Output Time:2026-05-22 09:59:16.583886)
(begin preamble)
G17 G54 G40 G49 G80 G90
G21
(begin operation: Fixture)
(machine: mach3_4, mm/min)
G54
(finish operation: Fixture)
(begin operation: TC: 6mm Endmill custom)
(machine: mach3_4, mm/min)
(TC: 6mm Endmill custom)
M5
M6 T3 
G43 H3
M3 S19000
(finish operation: TC: 6mm Endmill custom)
(begin operation: DressupPathBoundary013)
(machine: mach3_4, mm/min)
(Profile018)
(Compensated Tool Path. Diameter: 6.0)
G0 Z18.093
G0 Z20.093
G0 X1.653 Y383.697
G0 Z18.093
G1 Z16.100 F200.000
G1 X1.653 Y228.192 Z14.221 F1321.309
G2 X-7.347 Y219.192 Z14.050 I-9.007 J0.007 F1330.000
G1 X-25.347 Y219.192 Z13.833 F1330.000
G2 X-34.347 Y228.192 Z13.662 I0.008 J9.008 F1330.000
G1 X-34.347 Y511.388 Z10.241 F1330.000
G1 X-55.773 Y548.500 Z9.723 F1330.000
G1 X-55.974 Y548.921 Z9.717 F1321.300
G1 X-56.108 Y549.368 Z9.712 F1321.300
G1 X-56.170 Y549.831 Z9.706 F1321.300
G1 X-56.172 Y550.147 Z9.702 F1321.305
G0 Z18.093
G0 Z20.093
G0 X-15.155 Y550.147
G0 Z18.093
G1 Z9.172 F200.000
G1 X-12.188 Y545.009 Z9.100 F1321.309
G1 X1.251 Y521.731 Z8.883 F1330.000
G2 X1.653 Y520.231 Z8.871 I-2.598 J-1.500 F1330.000
G1 X1.653 Y228.192 Z6.517 F1330.000
G2 X-7.347 Y219.192 Z6.403 I-9.007 J0.007 F1330.000
G1 X-25.347 Y219.192 Z6.258 F1330.000
G2 X-34.347 Y228.192 Z6.144 I0.008 J9.008 F1330.000
G1 X-34.347 Y511.388 Z3.861 F1330.000
G1 X-55.773 Y548.500 Z3.516 F1330.000
G1 X-55.974 Y548.921 Z3.512 F1324.196
G1 X-56.108 Y549.368 Z3.508 F1324.196
G1 X-56.170 Y549.831 Z3.504 F1324.196
G1 X-56.172 Y550.147 Z3.502 F1324.199
G0 Z18.093
G0 Z20.093
G0 X-15.155 Y550.147
G0 Z18.093
G1 Z3.148 F200.000
G1 X-12.188 Y545.009 Z3.100 F1324.202
G1 X1.251 Y521.731 Z2.992 F1330.000
G2 X1.653 Y520.231 Z2.985 I-2.598 J-1.500 F1330.000
G1 X1.653 Y228.192 Z1.807 F1330.000
G2 X-7.347 Y219.192 Z1.750 I-9.007 J0.007 F1330.000
G1 X-25.347 Y219.192 Z1.678 F1330.000
G2 X-34.347 Y228.192 Z1.621 I0.008 J9.008 F1330.000
G1 X-34.347 Y511.388 Z0.479 F1330.000
G1 X-55.773 Y548.500 Z0.306 F1330.000
G1 X-55.974 Y548.921 Z0.304 F1327.096
G1 X-56.108 Y549.368 Z0.302 F1327.096
G1 X-56.170 Y549.831 Z0.300 F1327.096
G1 X-56.172 Y550.147 Z0.299 F1327.097
G0 Z18.093
G0 Z20.093
G0 X-15.155 Y550.147
G0 Z18.093
G1 Z0.122 F200.000
G1 X-12.188 Y545.009 Z0.098 F1327.099
G1 X1.251 Y521.731 Z0.098 F1330.000
G2 X1.653 Y520.231 Z0.098 I-2.598 J-1.500 F1330.000
G1 X1.653 Y228.192 Z0.098 F1330.000
G2 X-7.347 Y219.192 Z0.098 I-9.007 J0.007 F1330.000
G1 X-25.347 Y219.192 Z0.098 F1330.000
G2 X-34.347 Y228.192 Z0.098 I0.008 J9.008 F1330.000
G1 X-34.347 Y511.388 Z0.098 F1330.000
G1 X-55.773 Y548.500 Z0.098 F1330.000
G2 X-56.172 Y550.147 Z0.098 I2.598 J1.500 F1330.000
G0 Z18.093
G0 Z20.093
G0 X-15.155 Y550.147
G0 Z18.093
G1 Z0.098 F200.000
G1 X-12.188 Y545.009 Z0.098 F1330.000
G1 X-12.188 Y545.009 Z16.100 F200.000
G0 Z18.093
G0 Z20.093
(finish operation: DressupPathBoundary013)
(begin postamble)
M05
G17 G54 G90 G80 G40
M2
