(Exported by FreeCAD)
(Post Processor: mach3_mach4_post)
(Output Time:2026-05-22 09:59:16.583886)
(begin preamble)
G17 G54 G40 G49 G80 G90
G21
(begin operation: Fixture)
(machine: mach3_4, mm/min)
G54
(finish operation: Fixture)
(begin operation: TC: 6mm Endmill custom)
(machine: mach3_4, mm/min)
(TC: 6mm Endmill custom)
M5
M6 T3 
G43 H3
M3 S19000
(finish operation: TC: 6mm Endmill custom)
(begin operation: RampEntryDressup003)
(machine: mach3_4, mm/min)
G0 Z20.093
G0 X-0.632 Y43.124 Z20.093
G0 X-0.632 Y43.124 Z18.093
G2 X0.247 Y41.003 Z18.027 I-2.121 J-2.121 F1330.000
G2 X0.247 Y26.098 Z17.607 I-171372.514 J-7.770 F1330.000
G1 X0.247 Y3.003 Z16.957 F1330.000
G2 X-2.753 Y0.003 Z16.824 I-3.000 J-0.000 F1330.000
G1 X-17.753 Y0.003 Z16.402 F1330.000
G2 X-20.753 Y3.003 Z16.269 I0.000 J3.000 F1330.000
G3 X-20.753 Y16.003 Z15.903 I-349817.112 J6.497 F1330.000
G1 X-20.753 Y16.003 Z15.903 F1330.000
G1 X-20.753 Y16.905 Z15.878 F1330.000
G3 X-21.852 Y18.003 Z15.828 I-1.023 J0.076 F1330.000
G1 X-79.655 Y18.003 Z14.201 F1330.000
G3 X-80.753 Y16.905 Z14.151 I-0.076 J-1.022 F1330.000
G1 X-80.753 Y3.003 Z13.760 F1330.000
G2 X-83.753 Y0.003 Z13.627 I-3.000 J0.000 F1330.000
G1 X-98.753 Y0.003 Z13.205 F1330.000
G2 X-101.753 Y3.003 Z13.072 I0.000 J3.000 F1330.000
G3 X-101.753 Y25.632 Z12.435 I-1171651.055 J9.932 F1330.000
G1 X-101.753 Y25.632 Z12.435 F1330.000
G1 X-101.753 Y27.193 Z12.391 F1330.000
G1 X-101.753 Y27.193 Z12.391 F1330.000
G1 X-101.753 Y41.003 Z12.002 F1330.000
G2 X-98.753 Y44.003 Z11.869 I3.000 J0.000 F1330.000
G1 X-2.753 Y44.003 Z9.166 F1330.000
G2 X-0.632 Y43.124 Z9.100 I0.000 J-3.000 F1330.000
G1 X-0.632 Y43.124 Z3.100 F200.000
G2 X0.247 Y41.003 Z3.100 I-2.121 J-2.121 F1330.000
G2 X0.247 Y26.098 Z3.100 I-171372.514 J-7.770 F1330.000
G1 X0.247 Y3.003 Z3.100 F1330.000
G2 X-2.753 Y0.003 Z3.100 I-3.000 J-0.000 F1330.000
G1 X-17.753 Y0.003 Z3.100 F1330.000
G2 X-20.753 Y3.003 Z3.100 I0.000 J3.000 F1330.000
G3 X-20.753 Y16.003 Z3.100 I-349817.112 J6.497 F1330.000
G1 X-20.753 Y16.003 Z3.100 F1330.000
G1 X-20.753 Y16.905 Z3.100 F1330.000
G3 X-21.852 Y18.003 Z3.100 I-1.023 J0.076 F1330.000
G1 X-79.655 Y18.003 Z3.100 F1330.000
G3 X-80.753 Y16.905 Z3.100 I-0.076 J-1.022 F1330.000
G1 X-80.753 Y3.003 Z3.100 F1330.000
G2 X-83.753 Y0.003 Z3.100 I-3.000 J0.000 F1330.000
G1 X-98.753 Y0.003 Z3.100 F1330.000
G2 X-101.753 Y3.003 Z3.100 I0.000 J3.000 F1330.000
G3 X-101.753 Y25.632 Z3.100 I-1171651.055 J9.932 F1330.000
G1 X-101.753 Y25.632 Z3.100 F1330.000
G1 X-101.753 Y27.193 Z3.100 F1330.000
G1 X-101.753 Y27.193 Z3.100 F1330.000
G1 X-101.753 Y41.003 Z3.100 F1330.000
G2 X-98.753 Y44.003 Z3.100 I3.000 J0.000 F1330.000
G1 X-56.475 Y44.003 Z3.100 F1330.000
G1 X-51.975 Y44.003 Z7.600 F1330.000
G1 X-51.525 Y44.003 Z7.600 F1330.000
G1 X-47.025 Y44.003 Z3.100 F1330.000
G1 X-2.753 Y44.003 Z3.100 F1330.000
G2 X-0.632 Y43.124 Z3.100 I0.000 J-3.000 F1330.000
G1 X-0.632 Y43.124 Z0.100 F200.000
G2 X0.247 Y41.003 Z0.100 I-2.121 J-2.121 F1330.000
G2 X0.247 Y26.098 Z0.100 I-171372.514 J-7.770 F1330.000
G1 X0.247 Y3.003 Z0.100 F1330.000
G2 X-2.753 Y0.003 Z0.100 I-3.000 J-0.000 F1330.000
G1 X-17.753 Y0.003 Z0.100 F1330.000
G2 X-20.753 Y3.003 Z0.100 I0.000 J3.000 F1330.000
G3 X-20.753 Y16.003 Z0.100 I-349817.112 J6.497 F1330.000
G1 X-20.753 Y16.003 Z0.100 F1330.000
G1 X-20.753 Y16.905 Z0.100 F1330.000
G3 X-21.852 Y18.003 Z0.100 I-1.023 J0.076 F1330.000
G1 X-79.655 Y18.003 Z0.100 F1330.000
G3 X-80.753 Y16.905 Z0.100 I-0.076 J-1.022 F1330.000
G1 X-80.753 Y3.003 Z0.100 F1330.000
G2 X-83.753 Y0.003 Z0.100 I-3.000 J0.000 F1330.000
G1 X-98.753 Y0.003 Z0.100 F1330.000
G2 X-101.753 Y3.003 Z0.100 I0.000 J3.000 F1330.000
G3 X-101.753 Y25.632 Z0.100 I-1171651.055 J9.932 F1330.000
G1 X-101.753 Y25.632 Z0.100 F1330.000
G1 X-101.753 Y27.193 Z0.100 F1330.000
G1 X-101.753 Y27.193 Z0.100 F1330.000
G1 X-101.753 Y41.003 Z0.100 F1330.000
G2 X-98.753 Y44.003 Z0.100 I3.000 J0.000 F1330.000
G1 X-59.475 Y44.003 Z0.100 F1330.000
G1 X-51.975 Y44.003 Z7.600 F1330.000
G1 X-51.525 Y44.003 Z7.600 F1330.000
G1 X-44.025 Y44.003 Z0.100 F1330.000
G1 X-2.753 Y44.003 Z0.100 F1330.000
G2 X-0.632 Y43.124 Z0.100 I0.000 J-3.000 F1330.000
G0 X-0.632 Y43.124 Z20.093
(finish operation: RampEntryDressup003)
(begin postamble)
M05
G17 G54 G90 G80 G40
M2
