(Exported by FreeCAD)
(Post Processor: mach3_mach4_post)
(Output Time:2026-05-22 09:59:16.583886)
(begin preamble)
G17 G54 G40 G49 G80 G90
G21
(begin operation: Fixture)
(machine: mach3_4, mm/min)
G54
(finish operation: Fixture)
(begin operation: TC: 6mm Endmill custom)
(machine: mach3_4, mm/min)
(TC: 6mm Endmill custom)
M5
M6 T3 
G43 H3
M3 S19000
(finish operation: TC: 6mm Endmill custom)
(begin operation: RampEntryDressup004)
(machine: mach3_4, mm/min)
G0 Z20.093
G0 X-0.165 Y87.124 Z20.093
G0 X-0.165 Y87.124 Z18.093
G2 X0.714 Y85.003 Z18.027 I-2.121 J-2.121 F1330.000
G1 X0.714 Y47.003 Z16.957 F1330.000
G2 X-2.286 Y44.003 Z16.824 I-3.000 J-0.000 F1330.000
G1 X-98.286 Y44.003 Z14.121 F1330.000
G2 X-101.286 Y47.003 Z13.988 I0.000 J3.000 F1330.000
G1 X-101.286 Y85.003 Z12.919 F1330.000
G2 X-98.286 Y88.003 Z12.786 I3.000 J0.000 F1330.000
G3 X-83.287 Y88.003 Z12.363 I8.441 J384478.244 F1330.000
G2 X-80.286 Y85.003 Z12.231 I0.000 J-3.000 F1330.000
G2 X-80.286 Y72.003 Z11.865 I-404994.986 J-7.594 F1330.000
G1 X-80.286 Y72.003 Z11.865 F1330.000
G1 X-80.286 Y71.101 Z11.839 F1330.000
G3 X-79.416 Y70.018 Z11.796 I1.011 J-0.079 F1330.000
G3 X-21.385 Y70.003 Z10.162 I36.306 J28320.668 F1330.000
G3 X-20.301 Y70.873 Z10.119 I0.079 J1.011 F1330.000
G3 X-20.286 Y85.003 Z9.721 I-1713.706 J8.876 F1330.000
G2 X-17.286 Y88.003 Z9.589 I3.000 J0.000 F1330.000
G1 X-2.286 Y88.003 Z9.166 F1330.000
G2 X-0.165 Y87.124 Z9.100 I-0.000 J-3.000 F1330.000
G1 X-0.165 Y87.124 Z3.100 F200.000
G2 X0.714 Y85.003 Z3.100 I-2.121 J-2.121 F1330.000
G1 X0.714 Y47.003 Z3.100 F1330.000
G2 X-2.286 Y44.003 Z3.100 I-3.000 J-0.000 F1330.000
G1 X-47.076 Y44.003 Z3.100 F1330.000
G1 X-51.575 Y44.003 Z7.599 F1330.000
G1 X-52.025 Y44.003 Z7.599 F1330.000
G1 X-56.524 Y44.003 Z3.100 F1330.000
G1 X-98.286 Y44.003 Z3.100 F1330.000
G2 X-101.286 Y47.003 Z3.100 I0.000 J3.000 F1330.000
G1 X-101.286 Y85.003 Z3.100 F1330.000
G2 X-98.286 Y88.003 Z3.100 I3.000 J0.000 F1330.000
G3 X-83.287 Y88.003 Z3.100 I8.441 J384478.244 F1330.000
G2 X-80.286 Y85.003 Z3.100 I0.000 J-3.000 F1330.000
G2 X-80.286 Y72.003 Z3.100 I-404994.986 J-7.594 F1330.000
G1 X-80.286 Y72.003 Z3.100 F1330.000
G1 X-80.286 Y71.101 Z3.100 F1330.000
G3 X-79.416 Y70.018 Z3.100 I1.011 J-0.079 F1330.000
G3 X-21.385 Y70.003 Z3.100 I36.306 J28320.668 F1330.000
G3 X-20.301 Y70.873 Z3.100 I0.079 J1.011 F1330.000
G3 X-20.286 Y85.003 Z3.100 I-1713.706 J8.876 F1330.000
G2 X-17.286 Y88.003 Z3.100 I3.000 J0.000 F1330.000
G1 X-2.286 Y88.003 Z3.100 F1330.000
G2 X-0.165 Y87.124 Z3.100 I-0.000 J-3.000 F1330.000
G1 X-0.165 Y87.124 Z0.099 F200.000
G2 X0.714 Y85.003 Z0.099 I-2.121 J-2.121 F1330.000
G1 X0.714 Y47.003 Z0.099 F1330.000
G2 X-2.286 Y44.003 Z0.099 I-3.000 J-0.000 F1330.000
G1 X-44.075 Y44.003 Z0.099 F1330.000
G1 X-51.575 Y44.003 Z7.599 F1330.000
G1 X-52.025 Y44.003 Z7.599 F1330.000
G1 X-59.525 Y44.003 Z0.099 F1330.000
G1 X-98.286 Y44.003 Z0.099 F1330.000
G2 X-101.286 Y47.003 Z0.099 I0.000 J3.000 F1330.000
G1 X-101.286 Y85.003 Z0.099 F1330.000
G2 X-98.286 Y88.003 Z0.099 I3.000 J0.000 F1330.000
G3 X-83.287 Y88.003 Z0.099 I8.441 J384478.244 F1330.000
G2 X-80.286 Y85.003 Z0.099 I0.000 J-3.000 F1330.000
G2 X-80.286 Y72.003 Z0.099 I-404994.986 J-7.594 F1330.000
G1 X-80.286 Y72.003 Z0.099 F1330.000
G1 X-80.286 Y71.101 Z0.099 F1330.000
G3 X-79.416 Y70.018 Z0.099 I1.011 J-0.079 F1330.000
G3 X-21.385 Y70.003 Z0.099 I36.306 J28320.668 F1330.000
G3 X-20.301 Y70.873 Z0.099 I0.079 J1.011 F1330.000
G3 X-20.286 Y85.003 Z0.099 I-1713.706 J8.876 F1330.000
G2 X-17.286 Y88.003 Z0.099 I3.000 J0.000 F1330.000
G1 X-2.286 Y88.003 Z0.099 F1330.000
G2 X-0.165 Y87.124 Z0.099 I-0.000 J-3.000 F1330.000
G0 X-0.165 Y87.124 Z20.093
(finish operation: RampEntryDressup004)
(begin postamble)
M05
G17 G54 G90 G80 G40
M2
