(Exported by FreeCAD)
(Post Processor: mach3_mach4_post)
(Output Time:2026-05-22 09:59:16.583886)
(begin preamble)
G17 G54 G40 G49 G80 G90
G21
(begin operation: Fixture)
(machine: mach3_4, mm/min)
G54
(finish operation: Fixture)
(begin operation: TC: 6mm Endmill custom)
(machine: mach3_4, mm/min)
(TC: 6mm Endmill custom)
M5
M6 T3 
G43 H3
M3 S19000
(finish operation: TC: 6mm Endmill custom)
(begin operation: DressupPathBoundary014)
(machine: mach3_4, mm/min)
(Profile019)
(Compensated Tool Path. Diameter: 6.0)
G0 Z18.093
G0 Z20.093
G0 X-44.655 Y386.899
G0 Z18.093
G1 Z16.100 F200.000
G1 X-44.670 Y233.149 Z14.213 F1321.173
G1 X-44.674 Y232.981 Z14.211 F1330.000
G2 X-44.677 Y232.980 Z14.211 I-0.001 J-0.000 F1330.000
G1 X-44.677 Y232.979 Z14.211 F1330.000
G2 X-44.765 Y231.882 Z14.198 I-7.582 J0.058 F1330.000
G1 X-44.778 Y231.884 Z14.198 F1330.000
G2 X-53.670 Y224.150 Z14.040 I-8.884 J1.234 F1330.000
G1 X-71.670 Y224.151 Z13.819 F1330.000
G2 X-80.670 Y233.152 Z13.645 I0.009 J9.008 F1330.000
G1 X-80.642 Y516.349 Z10.171 F1330.000
G1 X-99.201 Y548.500 Z9.715 F1330.000
G1 X-99.402 Y548.921 Z9.709 F1321.164
G1 X-99.535 Y549.368 Z9.704 F1321.164
G1 X-99.598 Y549.831 Z9.698 F1321.164
G1 X-99.599 Y550.147 Z9.694 F1321.169
G0 Z18.093
G0 Z20.093
G0 X-58.584 Y550.147
G0 Z18.093
G1 Z9.155 F200.000
G1 X-56.335 Y546.250 Z9.100 F1321.173
G1 X-45.043 Y526.687 Z8.915 F1330.000
G2 X-44.641 Y525.187 Z8.902 I-2.598 J-1.500 F1330.000
G1 X-44.670 Y233.149 Z6.511 F1330.000
G1 X-44.674 Y232.981 Z6.510 F1330.000
G2 X-44.677 Y232.980 Z6.510 I-0.001 J-0.000 F1330.000
G1 X-44.677 Y232.979 Z6.510 F1330.000
G2 X-44.765 Y231.882 Z6.501 I-7.582 J0.058 F1330.000
G1 X-44.778 Y231.884 Z6.501 F1330.000
G2 X-53.670 Y224.150 Z6.396 I-8.884 J1.234 F1330.000
G1 X-71.670 Y224.151 Z6.248 F1330.000
G2 X-80.670 Y233.152 Z6.133 I0.009 J9.008 F1330.000
G1 X-80.642 Y516.349 Z3.814 F1330.000
G1 X-99.201 Y548.500 Z3.510 F1330.000
G1 X-99.402 Y548.921 Z3.506 F1324.105
G1 X-99.535 Y549.368 Z3.503 F1324.105
G1 X-99.598 Y549.831 Z3.499 F1324.105
G1 X-99.599 Y550.147 Z3.496 F1324.108
G0 Z18.093
G0 Z20.093
G0 X-58.584 Y550.147
G0 Z18.093
G1 Z3.137 F200.000
G1 X-56.335 Y546.250 Z3.100 F1324.111
G1 X-45.043 Y526.687 Z3.007 F1330.000
G2 X-44.641 Y525.187 Z3.001 I-2.598 J-1.500 F1330.000
G1 X-44.670 Y233.149 Z1.805 F1330.000
G1 X-44.674 Y232.981 Z1.804 F1330.000
G2 X-44.677 Y232.980 Z1.804 I-0.001 J-0.000 F1330.000
G1 X-44.677 Y232.979 Z1.804 F1330.000
G2 X-44.765 Y231.882 Z1.799 I-7.582 J0.058 F1330.000
G1 X-44.778 Y231.884 Z1.799 F1330.000
G2 X-53.670 Y224.150 Z1.747 I-8.884 J1.234 F1330.000
G1 X-71.670 Y224.151 Z1.673 F1330.000
G2 X-80.670 Y233.152 Z1.615 I0.009 J9.008 F1330.000
G1 X-80.642 Y516.349 Z0.455 F1330.000
G1 X-99.201 Y548.500 Z0.303 F1330.000
G1 X-99.402 Y548.921 Z0.301 F1327.050
G1 X-99.535 Y549.368 Z0.299 F1327.050
G1 X-99.598 Y549.831 Z0.297 F1327.050
G1 X-99.599 Y550.147 Z0.296 F1327.052
G0 Z18.093
G0 Z20.093
G0 X-58.584 Y550.147
G0 Z18.093
G1 Z0.116 F200.000
G1 X-56.335 Y546.250 Z0.098 F1327.053
G1 X-45.043 Y526.687 Z0.098 F1330.000
G2 X-44.641 Y525.187 Z0.098 I-2.598 J-1.500 F1330.000
G1 X-44.670 Y233.149 Z0.098 F1330.000
G1 X-44.674 Y232.981 Z0.098 F1330.000
G2 X-44.677 Y232.980 Z0.098 I-0.001 J-0.000 F1330.000
G1 X-44.677 Y232.979 Z0.098 F1330.000
G2 X-44.765 Y231.882 Z0.098 I-7.582 J0.058 F1330.000
G1 X-44.778 Y231.884 Z0.098 F1330.000
G2 X-53.670 Y224.150 Z0.098 I-8.884 J1.234 F1330.000
G1 X-71.670 Y224.151 Z0.098 F1330.000
G2 X-80.670 Y233.152 Z0.098 I0.009 J9.008 F1330.000
G1 X-80.642 Y516.349 Z0.098 F1330.000
G1 X-99.201 Y548.500 Z0.098 F1330.000
G2 X-99.599 Y550.147 Z0.098 I2.598 J1.500 F1330.000
G0 Z18.093
G0 Z20.093
G0 X-58.584 Y550.147
G0 Z18.093
G1 Z0.098 F200.000
G1 X-56.335 Y546.250 Z0.098 F1330.000
G1 X-56.335 Y546.250 Z16.100 F200.000
G0 Z18.093
G0 Z20.093
(finish operation: DressupPathBoundary014)
(begin postamble)
M05
G17 G54 G90 G80 G40
M2
