(Exported by FreeCAD)
(Post Processor: mach3_mach4_post)
(Output Time:2026-05-22 09:59:16.583886)
(begin preamble)
G17 G54 G40 G49 G80 G90
G21
(begin operation: Fixture)
(machine: mach3_4, mm/min)
G54
(finish operation: Fixture)
(begin operation: TC: 6mm Endmill custom)
(machine: mach3_4, mm/min)
(TC: 6mm Endmill custom)
M5
M6 T3 
G43 H3
M3 S19000
(finish operation: TC: 6mm Endmill custom)
(begin operation: DressupTag007)
(machine: mach3_4, mm/min)
G0 Z20.093
G0 X-276.780 Y552.121 Z20.093
G0 X-276.780 Y552.121 Z18.093
G1 X-276.780 Y552.121 Z11.100 F200.000
G2 X-275.902 Y550.000 Z11.100 I-2.121 J-2.121 F1330.000
G1 X-275.902 Y2.742 Z11.100 F1330.000
G2 X-278.902 Y-0.258 Z11.100 I-3.000 J0.000 F1330.000
G1 X-288.902 Y-0.258 Z11.100 F1330.000
G2 X-291.902 Y2.743 Z11.100 I0.000 J3.000 F1330.000
G3 X-291.902 Y24.669 Z11.100 I-2437291.039 J7.073 F1330.000
G3 X-296.412 Y29.715 Z11.100 I-5.004 J0.066 F1330.000
G3 X-298.902 Y29.742 Z11.100 I-1.527 J-25.329 F1330.000
G2 X-301.902 Y32.742 Z11.100 I0.000 J3.000 F1330.000
G1 X-301.902 Y550.000 Z11.100 F1330.000
G2 X-298.902 Y553.000 Z11.100 I3.000 J0.000 F1330.000
G1 X-278.902 Y553.000 Z11.100 F1330.000
G2 X-276.780 Y552.121 Z11.100 I0.000 J-3.000 F1330.000
G1 X-276.780 Y552.121 Z7.100 F200.000
G2 X-275.902 Y550.000 Z7.100 I-2.121 J-2.121 F1330.000
G1 X-275.902 Y436.474 Z7.100 F1330.000
G1 X-275.902 Y435.976 Z7.599 F765.000
G1 X-275.902 Y390.396 Z7.599 F1330.000
G1 X-275.902 Y389.897 Z7.100 F765.000
G1 X-275.902 Y162.846 Z7.100 F1330.000
G1 X-275.902 Y162.347 Z7.599 F765.000
G1 X-275.902 Y116.767 Z7.599 F1330.000
G1 X-275.902 Y116.268 Z7.100 F765.000
G1 X-275.902 Y2.742 Z7.100 F1330.000
G2 X-278.902 Y-0.258 Z7.100 I-3.000 J0.000 F1330.000
G1 X-288.902 Y-0.258 Z7.100 F1330.000
G2 X-291.902 Y2.743 Z7.100 I0.000 J3.000 F1330.000
G3 X-291.902 Y24.669 Z7.100 I-2437291.039 J7.073 F1330.000
G3 X-296.412 Y29.715 Z7.100 I-5.004 J0.066 F1330.000
G3 X-298.902 Y29.742 Z7.100 I-1.527 J-25.329 F1330.000
G2 X-301.902 Y32.742 Z7.100 I0.000 J3.000 F1330.000
G1 X-301.902 Y550.000 Z7.100 F1330.000
G2 X-298.902 Y553.000 Z7.100 I3.000 J0.000 F1330.000
G1 X-278.902 Y553.000 Z7.100 F1330.000
G2 X-276.780 Y552.121 Z7.100 I0.000 J-3.000 F1330.000
G1 X-276.780 Y552.121 Z3.100 F200.000
G2 X-275.902 Y550.000 Z3.100 I-2.121 J-2.121 F1330.000
G1 X-275.902 Y440.474 Z3.100 F1330.000
G1 X-275.902 Y435.976 Z7.599 F765.000
G1 X-275.902 Y390.396 Z7.599 F1330.000
G1 X-275.902 Y385.897 Z3.100 F765.000
G1 X-275.902 Y166.846 Z3.100 F1330.000
G1 X-275.902 Y162.347 Z7.599 F765.000
G1 X-275.902 Y116.767 Z7.599 F1330.000
G1 X-275.902 Y112.268 Z3.100 F765.000
G1 X-275.902 Y2.742 Z3.100 F1330.000
G2 X-278.902 Y-0.258 Z3.100 I-3.000 J0.000 F1330.000
G1 X-288.902 Y-0.258 Z3.100 F1330.000
G2 X-291.902 Y2.743 Z3.100 I0.000 J3.000 F1330.000
G3 X-291.902 Y24.669 Z3.100 I-2437291.039 J7.073 F1330.000
G3 X-296.412 Y29.715 Z3.100 I-5.004 J0.066 F1330.000
G3 X-298.902 Y29.742 Z3.100 I-1.527 J-25.329 F1330.000
G2 X-301.902 Y32.742 Z3.100 I0.000 J3.000 F1330.000
G1 X-301.902 Y404.899 Z3.100 F1330.000
G1 X-301.902 Y405.398 Z3.247 F1123.422
G1 X-301.902 Y405.894 Z3.386 F1134.605
G1 X-301.902 Y407.347 Z3.741 F1157.340
G1 X-301.902 Y408.769 Z4.016 F1192.551
G1 X-301.902 Y410.167 Z4.214 F1228.880
G1 X-301.902 Y411.551 Z4.337 F1266.071
G1 X-301.902 Y412.927 Z4.387 F1303.841
G1 X-301.902 Y414.304 Z4.365 F1318.119
G1 X-301.902 Y415.689 Z4.268 F1280.126
G1 X-301.902 Y417.090 Z4.097 F1242.496
G1 X-301.902 Y418.515 Z3.848 F1205.535
G1 X-301.902 Y419.973 Z3.517 F1169.527
G1 X-301.902 Y421.472 Z3.100 F1134.724
G1 X-301.902 Y550.000 Z3.100 F1330.000
G2 X-298.902 Y553.000 Z3.100 I3.000 J0.000 F1330.000
G1 X-278.902 Y553.000 Z3.100 F1330.000
G2 X-276.780 Y552.121 Z3.100 I0.000 J-3.000 F1330.000
G1 X-276.780 Y552.121 Z0.099 F200.000
G2 X-275.902 Y550.000 Z0.099 I-2.121 J-2.121 F1330.000
G1 X-275.902 Y443.476 Z0.099 F1330.000
G1 X-275.902 Y435.976 Z7.599 F765.000
G1 X-275.902 Y390.396 Z7.599 F1330.000
G1 X-275.902 Y382.896 Z0.099 F765.000
G1 X-275.902 Y169.847 Z0.099 F1330.000
G1 X-275.902 Y162.347 Z7.599 F765.000
G1 X-275.902 Y116.767 Z7.599 F1330.000
G1 X-275.902 Y109.267 Z0.099 F765.000
G1 X-275.902 Y2.742 Z0.099 F1330.000
G2 X-278.902 Y-0.258 Z0.099 I-3.000 J0.000 F1330.000
G1 X-288.902 Y-0.258 Z0.099 F1330.000
G2 X-291.902 Y2.743 Z0.099 I0.000 J3.000 F1330.000
G3 X-291.902 Y24.669 Z0.099 I-2437291.039 J7.073 F1330.000
G3 X-296.412 Y29.715 Z0.099 I-5.004 J0.066 F1330.000
G3 X-298.902 Y29.742 Z0.099 I-1.527 J-25.329 F1330.000
G2 X-301.902 Y32.742 Z0.099 I0.000 J3.000 F1330.000
G1 X-301.902 Y397.646 Z0.099 F1330.000
G1 X-301.902 Y400.166 Z1.311 F1007.443
G1 X-301.902 Y401.813 Z2.010 F1041.182
G1 X-301.902 Y403.393 Z2.606 F1070.735
G1 X-301.902 Y404.918 Z3.106 F1102.014
G1 X-301.902 Y406.396 Z3.517 F1134.907
G1 X-301.902 Y407.837 Z3.844 F1169.261
G1 X-301.902 Y409.250 Z4.092 F1204.881
G1 X-301.902 Y410.642 Z4.264 F1241.536
G1 X-301.902 Y412.022 Z4.363 F1278.959
G1 X-301.902 Y413.398 Z4.388 F1316.856
G1 X-301.902 Y414.777 Z4.340 F1305.084
G1 X-301.902 Y416.166 Z4.218 F1267.179
G1 X-301.902 Y417.575 Z4.021 F1229.745
G1 X-301.902 Y419.010 Z3.744 F1193.080
G1 X-301.902 Y420.481 Z3.384 F1157.458
G1 X-301.902 Y421.997 Z2.936 F1123.119
G1 X-301.902 Y423.568 Z2.392 F1090.265
G1 X-301.902 Y425.205 Z1.745 F1059.057
G1 X-301.902 Y426.920 Z0.984 F1029.613
G1 X-301.902 Y428.725 Z0.099 F1002.013
G1 X-301.902 Y550.000 Z0.099 F1330.000
G2 X-298.902 Y553.000 Z0.099 I3.000 J0.000 F1330.000
G1 X-278.902 Y553.000 Z0.099 F1330.000
G2 X-276.780 Y552.121 Z0.099 I0.000 J-3.000 F1330.000
G0 X-276.780 Y552.121 Z20.093
(finish operation: DressupTag007)
(begin postamble)
M05
G17 G54 G90 G80 G40
M2
