(Exported by FreeCAD)
(Post Processor: mach3_mach4_post)
(Output Time:2026-05-22 09:59:16.583886)
(begin preamble)
G17 G54 G40 G49 G80 G90
G21
(begin operation: Fixture)
(machine: mach3_4, mm/min)
G54
(finish operation: Fixture)
(begin operation: TC: 6mm Endmill custom)
(machine: mach3_4, mm/min)
(TC: 6mm Endmill custom)
M5
M6 T3 
G43 H3
M3 S19000
(finish operation: TC: 6mm Endmill custom)
(begin operation: RampEntryDressup009)
(machine: mach3_4, mm/min)
G0 Z20.093
G0 X-81.381 Y500.490 Z20.093
G0 X-81.381 Y500.490 Z18.093
G2 X-80.501 Y498.367 Z17.943 I-2.120 J-2.123 F1330.000
G1 X-80.503 Y478.367 Z16.674 F1330.000
G2 X-83.503 Y475.367 Z16.375 I-3.000 J0.000 F1330.000
G1 X-124.903 Y475.371 Z13.746 F1330.000
G2 X-127.903 Y478.371 Z13.447 I0.000 J3.000 F1330.000
G3 X-127.901 Y498.371 Z12.177 I-1160161.242 J118.127 F1330.000
G2 X-124.901 Y501.371 Z11.878 I3.000 J-0.000 F1330.000
G1 X-83.501 Y501.367 Z9.249 F1330.000
G2 X-81.381 Y500.490 Z9.100 I-0.000 J-3.000 F1330.000
G1 X-81.381 Y500.490 Z3.100 F200.000
G2 X-80.501 Y498.367 Z3.100 I-2.120 J-2.123 F1330.000
G1 X-80.503 Y478.367 Z3.100 F1330.000
G2 X-83.503 Y475.367 Z3.100 I-3.000 J0.000 F1330.000
G1 X-99.736 Y475.369 Z3.100 F1330.000
G1 X-101.749 Y475.369 Z5.133 F1330.000
G1 X-101.780 Y475.369 Z5.163 F1330.000
G1 X-103.824 Y475.369 Z3.100 F1330.000
G1 X-124.903 Y475.371 Z3.100 F1330.000
G2 X-127.903 Y478.371 Z3.100 I0.000 J3.000 F1330.000
G3 X-127.901 Y498.371 Z3.100 I-1160161.242 J118.127 F1330.000
G2 X-124.901 Y501.371 Z3.100 I3.000 J-0.000 F1330.000
G1 X-106.934 Y501.369 Z3.100 F1330.000
G1 X-104.921 Y501.369 Z5.132 F1330.000
G1 X-104.890 Y501.369 Z5.163 F1330.000
G1 X-102.846 Y501.369 Z3.100 F1330.000
G1 X-83.501 Y501.367 Z3.100 F1330.000
G2 X-81.381 Y500.490 Z3.100 I-0.000 J-3.000 F1330.000
G1 X-81.381 Y500.490 Z0.095 F200.000
G2 X-80.501 Y498.367 Z0.095 I-2.120 J-2.123 F1330.000
G1 X-80.503 Y478.367 Z0.095 F1330.000
G2 X-83.503 Y475.367 Z0.095 I-3.000 J0.000 F1330.000
G1 X-96.761 Y475.368 Z0.095 F1330.000
G1 X-101.780 Y475.369 Z5.163 F1330.000
G1 X-106.799 Y475.369 Z0.095 F1330.000
G1 X-124.903 Y475.371 Z0.095 F1330.000
G2 X-127.903 Y478.371 Z0.095 I0.000 J3.000 F1330.000
G3 X-127.901 Y498.371 Z0.095 I-1160161.242 J118.127 F1330.000
G2 X-124.901 Y501.371 Z0.095 I3.000 J-0.000 F1330.000
G1 X-109.909 Y501.370 Z0.095 F1330.000
G1 X-104.890 Y501.369 Z5.163 F1330.000
G1 X-99.871 Y501.369 Z0.095 F1330.000
G1 X-83.501 Y501.367 Z0.095 F1330.000
G2 X-81.381 Y500.490 Z0.095 I-0.000 J-3.000 F1330.000
G0 X-81.381 Y500.490 Z20.093
(finish operation: RampEntryDressup009)
(begin postamble)
M05
G17 G54 G90 G80 G40
M2
