(Exported by FreeCAD)
(Post Processor: mach3_mach4_post)
(Output Time:2026-05-22 09:59:16.583886)
(begin preamble)
G17 G54 G40 G49 G80 G90
G21
(begin operation: Fixture)
(machine: mach3_4, mm/min)
G54
(finish operation: Fixture)
(begin operation: TC: 6mm Endmill custom)
(machine: mach3_4, mm/min)
(TC: 6mm Endmill custom)
M5
M6 T3 
G43 H3
M3 S19000
(finish operation: TC: 6mm Endmill custom)
(begin operation: Array)
(machine: mach3_4, mm/min)
(Profile001)
(Compensated Tool Path. Diameter: 6.0)
G0 Z18.093
G0 Z20.093
G0 X-249.902 Y224.593
G0 Z18.093
G1 Z16.100 F200.000
G1 X-249.902 Y2.742 Z14.751 F1325.625
G1 X-249.938 Y2.277 Z14.748 F1325.621
G1 X-250.046 Y1.823 Z14.745 F1325.621
G1 X-250.223 Y1.392 Z14.742 F1325.621
G1 X-250.465 Y0.992 Z14.739 F1325.621
G1 X-250.766 Y0.636 Z14.737 F1325.621
G1 X-250.925 Y0.485 Z14.735 F1325.624
G1 X-251.096 Y0.347 Z14.734 F1325.624
G0 Z18.093
G0 Z20.093
G0 X-264.707 Y0.347
G0 Z18.093
G1 Z14.649 F200.000
G1 X-265.057 Y0.656 Z14.647 F1325.621
G1 X-265.354 Y1.015 Z14.644 F1325.621
G1 X-265.593 Y1.416 Z14.641 F1325.621
G1 X-265.766 Y1.850 Z14.638 F1325.621
G1 X-265.869 Y2.305 Z14.635 F1325.621
G1 X-265.894 Y2.523 Z14.634 F1325.624
G1 X-265.902 Y2.743 Z14.633 F1325.624
G3 X-265.902 Y24.669 Z14.499 I-2467188.499 J7.092 F1330.000
G3 X-270.412 Y29.715 Z14.454 I-5.004 J0.066 F1330.000
G3 X-272.902 Y29.742 Z14.439 I-1.527 J-25.329 F1330.000
G2 X-275.902 Y32.742 Z14.410 I0.000 J3.000 F1330.000
G1 X-275.902 Y550.000 Z11.265 F1330.000
G1 X-275.898 Y550.147 Z11.264 F1325.625
G0 Z18.093
G0 Z20.093
G0 X-249.905 Y550.147
G0 Z18.093
G1 Z11.092 F200.000
G1 X-249.902 Y550.000 Z11.092 F1327.497
G1 X-249.902 Y2.742 Z9.188 F1330.000
G1 X-249.938 Y2.277 Z9.186 F1327.495
G1 X-250.046 Y1.823 Z9.185 F1327.495
G1 X-250.223 Y1.392 Z9.183 F1327.495
G1 X-250.465 Y0.992 Z9.182 F1327.495
G1 X-250.766 Y0.636 Z9.180 F1327.495
G1 X-250.925 Y0.485 Z9.179 F1327.497
G1 X-251.096 Y0.347 Z9.178 F1327.497
G0 Z18.093
G0 Z20.093
G0 X-264.707 Y0.347
G0 Z18.093
G1 Z9.130 F200.000
G1 X-265.057 Y0.656 Z9.129 F1327.495
G1 X-265.354 Y1.015 Z9.127 F1327.495
G1 X-265.593 Y1.416 Z9.125 F1327.495
G1 X-265.766 Y1.850 Z9.124 F1327.495
G1 X-265.869 Y2.305 Z9.122 F1327.495
G1 X-265.894 Y2.523 Z9.121 F1327.497
G1 X-265.902 Y2.743 Z9.121 F1327.497
G3 X-265.902 Y24.669 Z9.044 I-2467188.499 J7.092 F1330.000
G3 X-270.412 Y29.715 Z9.018 I-5.004 J0.066 F1330.000
G3 X-272.902 Y29.742 Z9.010 I-1.527 J-25.329 F1330.000
G2 X-275.902 Y32.742 Z8.993 I0.000 J3.000 F1330.000
G1 X-275.902 Y550.000 Z7.194 F1330.000
G1 X-275.898 Y550.147 Z7.194 F1327.497
G0 Z18.093
G0 Z20.093
G0 X-249.905 Y550.147
G0 Z18.093
G1 Z7.092 F200.000
G1 X-249.902 Y550.000 Z7.092 F1327.497
G1 X-249.902 Y2.742 Z5.188 F1330.000
G1 X-249.938 Y2.277 Z5.186 F1327.495
G1 X-250.046 Y1.823 Z5.185 F1327.495
G1 X-250.223 Y1.392 Z5.183 F1327.495
G1 X-250.465 Y0.992 Z5.182 F1327.495
G1 X-250.766 Y0.636 Z5.180 F1327.495
G1 X-250.925 Y0.485 Z5.179 F1327.497
G1 X-251.096 Y0.347 Z5.178 F1327.497
G0 Z18.093
G0 Z20.093
G0 X-264.707 Y0.347
G0 Z18.093
G1 Z5.130 F200.000
G1 X-265.057 Y0.656 Z5.129 F1327.495
G1 X-265.354 Y1.015 Z5.127 F1327.495
G1 X-265.593 Y1.416 Z5.125 F1327.495
G1 X-265.766 Y1.850 Z5.124 F1327.495
G1 X-265.869 Y2.305 Z5.122 F1327.495
G1 X-265.894 Y2.523 Z5.121 F1327.497
G1 X-265.902 Y2.743 Z5.121 F1327.497
G3 X-265.902 Y24.669 Z5.044 I-2467188.499 J7.092 F1330.000
G3 X-270.412 Y29.715 Z5.018 I-5.004 J0.066 F1330.000
G3 X-272.902 Y29.742 Z5.010 I-1.527 J-25.329 F1330.000
G2 X-275.902 Y32.742 Z4.993 I0.000 J3.000 F1330.000
G1 X-275.902 Y550.000 Z3.194 F1330.000
G1 X-275.898 Y550.147 Z3.194 F1327.497
G0 Z18.093
G0 Z20.093
G0 X-249.905 Y550.147
G0 Z18.093
G1 Z3.094 F200.000
G1 X-249.902 Y550.000 Z3.094 F1328.122
G1 X-249.902 Y2.742 Z1.665 F1330.000
G1 X-249.938 Y2.277 Z1.664 F1328.121
G1 X-250.046 Y1.823 Z1.663 F1328.121
G1 X-250.223 Y1.392 Z1.662 F1328.121
G1 X-250.465 Y0.992 Z1.661 F1328.121
G1 X-250.766 Y0.636 Z1.659 F1328.121
G1 X-250.925 Y0.485 Z1.659 F1328.122
G1 X-251.096 Y0.347 Z1.658 F1328.122
G0 Z18.093
G0 Z20.093
G0 X-264.707 Y0.347
G0 Z18.093
G1 Z1.622 F200.000
G1 X-265.057 Y0.656 Z1.621 F1328.121
G1 X-265.354 Y1.015 Z1.620 F1328.121
G1 X-265.593 Y1.416 Z1.618 F1328.121
G1 X-265.766 Y1.850 Z1.617 F1328.121
G1 X-265.869 Y2.305 Z1.616 F1328.121
G1 X-265.894 Y2.523 Z1.615 F1328.122
G1 X-265.902 Y2.743 Z1.615 F1328.122
G3 X-265.902 Y24.669 Z1.558 I-2467188.499 J7.092 F1330.000
G3 X-270.412 Y29.715 Z1.538 I-5.004 J0.066 F1330.000
G3 X-272.902 Y29.742 Z1.532 I-1.527 J-25.329 F1330.000
G2 X-275.902 Y32.742 Z1.519 I0.000 J3.000 F1330.000
G1 X-275.902 Y550.000 Z0.169 F1330.000
G1 X-275.898 Y550.147 Z0.169 F1328.122
G0 Z18.093
G0 Z20.093
G0 X-249.905 Y550.147
G0 Z18.093
G1 Z0.099 F200.000
G2 X-249.902 Y550.000 Z0.099 I-2.996 J-0.147 F1330.000
G1 X-249.902 Y2.742 Z0.099 F1330.000
G2 X-251.096 Y0.347 Z0.099 I-3.000 J0.000 F1330.000
G0 Z18.093
G0 Z20.093
G0 X-264.707 Y0.347
G0 Z18.093
G1 Z0.099 F200.000
G2 X-265.902 Y2.743 Z0.099 I1.806 J2.396 F1330.000
G3 X-265.902 Y24.669 Z0.099 I-2467188.499 J7.092 F1330.000
G3 X-270.412 Y29.715 Z0.099 I-5.004 J0.066 F1330.000
G3 X-272.902 Y29.742 Z0.099 I-1.527 J-25.329 F1330.000
G2 X-275.902 Y32.742 Z0.099 I0.000 J3.000 F1330.000
G1 X-275.902 Y550.000 Z0.099 F1330.000
G2 X-275.898 Y550.147 Z0.099 I3.000 J0.000 F1330.000
G0 Z18.093
G0 Z20.093
(Profile001)
(Compensated Tool Path. Diameter: 6.0)
G0 Z18.093
G0 Z20.093
G0 X-223.902 Y224.593
G0 Z18.093
G1 Z16.100 F200.000
G1 X-223.902 Y2.742 Z14.751 F1325.625
G1 X-223.938 Y2.277 Z14.748 F1325.621
G1 X-224.046 Y1.823 Z14.745 F1325.621
G1 X-224.223 Y1.392 Z14.742 F1325.621
G1 X-224.465 Y0.992 Z14.739 F1325.621
G1 X-224.766 Y0.636 Z14.737 F1325.621
G1 X-224.925 Y0.485 Z14.735 F1325.624
G1 X-225.096 Y0.347 Z14.734 F1325.624
G0 Z18.093
G0 Z20.093
G0 X-238.707 Y0.347
G0 Z18.093
G1 Z14.649 F200.000
G1 X-239.057 Y0.656 Z14.647 F1325.621
G1 X-239.354 Y1.015 Z14.644 F1325.621
G1 X-239.593 Y1.416 Z14.641 F1325.621
G1 X-239.766 Y1.850 Z14.638 F1325.621
G1 X-239.869 Y2.305 Z14.635 F1325.621
G1 X-239.894 Y2.523 Z14.634 F1325.624
G1 X-239.902 Y2.743 Z14.633 F1325.624
G3 X-239.902 Y24.669 Z14.499 I-2467188.499 J7.092 F1330.000
G3 X-244.412 Y29.715 Z14.454 I-5.004 J0.066 F1330.000
G3 X-246.902 Y29.742 Z14.439 I-1.527 J-25.329 F1330.000
G2 X-249.902 Y32.742 Z14.410 I0.000 J3.000 F1330.000
G1 X-249.902 Y550.000 Z11.265 F1330.000
G1 X-249.898 Y550.147 Z11.264 F1325.625
G0 Z18.093
G0 Z20.093
G0 X-223.905 Y550.147
G0 Z18.093
G1 Z11.092 F200.000
G1 X-223.902 Y550.000 Z11.092 F1327.497
G1 X-223.902 Y2.742 Z9.188 F1330.000
G1 X-223.938 Y2.277 Z9.186 F1327.495
G1 X-224.046 Y1.823 Z9.185 F1327.495
G1 X-224.223 Y1.392 Z9.183 F1327.495
G1 X-224.465 Y0.992 Z9.182 F1327.495
G1 X-224.766 Y0.636 Z9.180 F1327.495
G1 X-224.925 Y0.485 Z9.179 F1327.497
G1 X-225.096 Y0.347 Z9.178 F1327.497
G0 Z18.093
G0 Z20.093
G0 X-238.707 Y0.347
G0 Z18.093
G1 Z9.130 F200.000
G1 X-239.057 Y0.656 Z9.129 F1327.495
G1 X-239.354 Y1.015 Z9.127 F1327.495
G1 X-239.593 Y1.416 Z9.125 F1327.495
G1 X-239.766 Y1.850 Z9.124 F1327.495
G1 X-239.869 Y2.305 Z9.122 F1327.495
G1 X-239.894 Y2.523 Z9.121 F1327.497
G1 X-239.902 Y2.743 Z9.121 F1327.497
G3 X-239.902 Y24.669 Z9.044 I-2467188.499 J7.092 F1330.000
G3 X-244.412 Y29.715 Z9.018 I-5.004 J0.066 F1330.000
G3 X-246.902 Y29.742 Z9.010 I-1.527 J-25.329 F1330.000
G2 X-249.902 Y32.742 Z8.993 I0.000 J3.000 F1330.000
G1 X-249.902 Y550.000 Z7.194 F1330.000
G1 X-249.898 Y550.147 Z7.194 F1327.497
G0 Z18.093
G0 Z20.093
G0 X-223.905 Y550.147
G0 Z18.093
G1 Z7.092 F200.000
G1 X-223.902 Y550.000 Z7.092 F1327.497
G1 X-223.902 Y2.742 Z5.188 F1330.000
G1 X-223.938 Y2.277 Z5.186 F1327.495
G1 X-224.046 Y1.823 Z5.185 F1327.495
G1 X-224.223 Y1.392 Z5.183 F1327.495
G1 X-224.465 Y0.992 Z5.182 F1327.495
G1 X-224.766 Y0.636 Z5.180 F1327.495
G1 X-224.925 Y0.485 Z5.179 F1327.497
G1 X-225.096 Y0.347 Z5.178 F1327.497
G0 Z18.093
G0 Z20.093
G0 X-238.707 Y0.347
G0 Z18.093
G1 Z5.130 F200.000
G1 X-239.057 Y0.656 Z5.129 F1327.495
G1 X-239.354 Y1.015 Z5.127 F1327.495
G1 X-239.593 Y1.416 Z5.125 F1327.495
G1 X-239.766 Y1.850 Z5.124 F1327.495
G1 X-239.869 Y2.305 Z5.122 F1327.495
G1 X-239.894 Y2.523 Z5.121 F1327.497
G1 X-239.902 Y2.743 Z5.121 F1327.497
G3 X-239.902 Y24.669 Z5.044 I-2467188.499 J7.092 F1330.000
G3 X-244.412 Y29.715 Z5.018 I-5.004 J0.066 F1330.000
G3 X-246.902 Y29.742 Z5.010 I-1.527 J-25.329 F1330.000
G2 X-249.902 Y32.742 Z4.993 I0.000 J3.000 F1330.000
G1 X-249.902 Y550.000 Z3.194 F1330.000
G1 X-249.898 Y550.147 Z3.194 F1327.497
G0 Z18.093
G0 Z20.093
G0 X-223.905 Y550.147
G0 Z18.093
G1 Z3.094 F200.000
G1 X-223.902 Y550.000 Z3.094 F1328.122
G1 X-223.902 Y2.742 Z1.665 F1330.000
G1 X-223.938 Y2.277 Z1.664 F1328.121
G1 X-224.046 Y1.823 Z1.663 F1328.121
G1 X-224.223 Y1.392 Z1.662 F1328.121
G1 X-224.465 Y0.992 Z1.661 F1328.121
G1 X-224.766 Y0.636 Z1.659 F1328.121
G1 X-224.925 Y0.485 Z1.659 F1328.122
G1 X-225.096 Y0.347 Z1.658 F1328.122
G0 Z18.093
G0 Z20.093
G0 X-238.707 Y0.347
G0 Z18.093
G1 Z1.622 F200.000
G1 X-239.057 Y0.656 Z1.621 F1328.121
G1 X-239.354 Y1.015 Z1.620 F1328.121
G1 X-239.593 Y1.416 Z1.618 F1328.121
G1 X-239.766 Y1.850 Z1.617 F1328.121
G1 X-239.869 Y2.305 Z1.616 F1328.121
G1 X-239.894 Y2.523 Z1.615 F1328.122
G1 X-239.902 Y2.743 Z1.615 F1328.122
G3 X-239.902 Y24.669 Z1.558 I-2467188.499 J7.092 F1330.000
G3 X-244.412 Y29.715 Z1.538 I-5.004 J0.066 F1330.000
G3 X-246.902 Y29.742 Z1.532 I-1.527 J-25.329 F1330.000
G2 X-249.902 Y32.742 Z1.519 I0.000 J3.000 F1330.000
G1 X-249.902 Y550.000 Z0.169 F1330.000
G1 X-249.898 Y550.147 Z0.169 F1328.122
G0 Z18.093
G0 Z20.093
G0 X-223.905 Y550.147
G0 Z18.093
G1 Z0.099 F200.000
G2 X-223.902 Y550.000 Z0.099 I-2.996 J-0.147 F1330.000
G1 X-223.902 Y2.742 Z0.099 F1330.000
G2 X-225.096 Y0.347 Z0.099 I-3.000 J0.000 F1330.000
G0 Z18.093
G0 Z20.093
G0 X-238.707 Y0.347
G0 Z18.093
G1 Z0.099 F200.000
G2 X-239.902 Y2.743 Z0.099 I1.806 J2.396 F1330.000
G3 X-239.902 Y24.669 Z0.099 I-2467188.499 J7.092 F1330.000
G3 X-244.412 Y29.715 Z0.099 I-5.004 J0.066 F1330.000
G3 X-246.902 Y29.742 Z0.099 I-1.527 J-25.329 F1330.000
G2 X-249.902 Y32.742 Z0.099 I0.000 J3.000 F1330.000
G1 X-249.902 Y550.000 Z0.099 F1330.000
G2 X-249.898 Y550.147 Z0.099 I3.000 J0.000 F1330.000
G0 Z18.093
G0 Z20.093
(Profile001)
(Compensated Tool Path. Diameter: 6.0)
G0 Z18.093
G0 Z20.093
G0 X-197.902 Y224.593
G0 Z18.093
G1 Z16.100 F200.000
G1 X-197.902 Y2.742 Z14.751 F1325.625
G1 X-197.938 Y2.277 Z14.748 F1325.621
G1 X-198.046 Y1.823 Z14.745 F1325.621
G1 X-198.223 Y1.392 Z14.742 F1325.621
G1 X-198.465 Y0.992 Z14.739 F1325.621
G1 X-198.766 Y0.636 Z14.737 F1325.621
G1 X-198.925 Y0.485 Z14.735 F1325.624
G1 X-199.096 Y0.347 Z14.734 F1325.624
G0 Z18.093
G0 Z20.093
G0 X-212.707 Y0.347
G0 Z18.093
G1 Z14.649 F200.000
G1 X-213.057 Y0.656 Z14.647 F1325.621
G1 X-213.354 Y1.015 Z14.644 F1325.621
G1 X-213.593 Y1.416 Z14.641 F1325.621
G1 X-213.766 Y1.850 Z14.638 F1325.621
G1 X-213.869 Y2.305 Z14.635 F1325.621
G1 X-213.894 Y2.523 Z14.634 F1325.624
G1 X-213.902 Y2.743 Z14.633 F1325.624
G3 X-213.902 Y24.669 Z14.499 I-2467188.499 J7.092 F1330.000
G3 X-218.412 Y29.715 Z14.454 I-5.004 J0.066 F1330.000
G3 X-220.902 Y29.742 Z14.439 I-1.527 J-25.329 F1330.000
G2 X-223.902 Y32.742 Z14.410 I0.000 J3.000 F1330.000
G1 X-223.902 Y550.000 Z11.265 F1330.000
G1 X-223.898 Y550.147 Z11.264 F1325.625
G0 Z18.093
G0 Z20.093
G0 X-197.905 Y550.147
G0 Z18.093
G1 Z11.092 F200.000
G1 X-197.902 Y550.000 Z11.092 F1327.497
G1 X-197.902 Y2.742 Z9.188 F1330.000
G1 X-197.938 Y2.277 Z9.186 F1327.495
G1 X-198.046 Y1.823 Z9.185 F1327.495
G1 X-198.223 Y1.392 Z9.183 F1327.495
G1 X-198.465 Y0.992 Z9.182 F1327.495
G1 X-198.766 Y0.636 Z9.180 F1327.495
G1 X-198.925 Y0.485 Z9.179 F1327.497
G1 X-199.096 Y0.347 Z9.178 F1327.497
G0 Z18.093
G0 Z20.093
G0 X-212.707 Y0.347
G0 Z18.093
G1 Z9.130 F200.000
G1 X-213.057 Y0.656 Z9.129 F1327.495
G1 X-213.354 Y1.015 Z9.127 F1327.495
G1 X-213.593 Y1.416 Z9.125 F1327.495
G1 X-213.766 Y1.850 Z9.124 F1327.495
G1 X-213.869 Y2.305 Z9.122 F1327.495
G1 X-213.894 Y2.523 Z9.121 F1327.497
G1 X-213.902 Y2.743 Z9.121 F1327.497
G3 X-213.902 Y24.669 Z9.044 I-2467188.499 J7.092 F1330.000
G3 X-218.412 Y29.715 Z9.018 I-5.004 J0.066 F1330.000
G3 X-220.902 Y29.742 Z9.010 I-1.527 J-25.329 F1330.000
G2 X-223.902 Y32.742 Z8.993 I0.000 J3.000 F1330.000
G1 X-223.902 Y550.000 Z7.194 F1330.000
G1 X-223.898 Y550.147 Z7.194 F1327.497
G0 Z18.093
G0 Z20.093
G0 X-197.905 Y550.147
G0 Z18.093
G1 Z7.092 F200.000
G1 X-197.902 Y550.000 Z7.092 F1327.497
G1 X-197.902 Y2.742 Z5.188 F1330.000
G1 X-197.938 Y2.277 Z5.186 F1327.495
G1 X-198.046 Y1.823 Z5.185 F1327.495
G1 X-198.223 Y1.392 Z5.183 F1327.495
G1 X-198.465 Y0.992 Z5.182 F1327.495
G1 X-198.766 Y0.636 Z5.180 F1327.495
G1 X-198.925 Y0.485 Z5.179 F1327.497
G1 X-199.096 Y0.347 Z5.178 F1327.497
G0 Z18.093
G0 Z20.093
G0 X-212.707 Y0.347
G0 Z18.093
G1 Z5.130 F200.000
G1 X-213.057 Y0.656 Z5.129 F1327.495
G1 X-213.354 Y1.015 Z5.127 F1327.495
G1 X-213.593 Y1.416 Z5.125 F1327.495
G1 X-213.766 Y1.850 Z5.124 F1327.495
G1 X-213.869 Y2.305 Z5.122 F1327.495
G1 X-213.894 Y2.523 Z5.121 F1327.497
G1 X-213.902 Y2.743 Z5.121 F1327.497
G3 X-213.902 Y24.669 Z5.044 I-2467188.499 J7.092 F1330.000
G3 X-218.412 Y29.715 Z5.018 I-5.004 J0.066 F1330.000
G3 X-220.902 Y29.742 Z5.010 I-1.527 J-25.329 F1330.000
G2 X-223.902 Y32.742 Z4.993 I0.000 J3.000 F1330.000
G1 X-223.902 Y550.000 Z3.194 F1330.000
G1 X-223.898 Y550.147 Z3.194 F1327.497
G0 Z18.093
G0 Z20.093
G0 X-197.905 Y550.147
G0 Z18.093
G1 Z3.094 F200.000
G1 X-197.902 Y550.000 Z3.094 F1328.122
G1 X-197.902 Y2.742 Z1.665 F1330.000
G1 X-197.938 Y2.277 Z1.664 F1328.121
G1 X-198.046 Y1.823 Z1.663 F1328.121
G1 X-198.223 Y1.392 Z1.662 F1328.121
G1 X-198.465 Y0.992 Z1.661 F1328.121
G1 X-198.766 Y0.636 Z1.659 F1328.121
G1 X-198.925 Y0.485 Z1.659 F1328.122
G1 X-199.096 Y0.347 Z1.658 F1328.122
G0 Z18.093
G0 Z20.093
G0 X-212.707 Y0.347
G0 Z18.093
G1 Z1.622 F200.000
G1 X-213.057 Y0.656 Z1.621 F1328.121
G1 X-213.354 Y1.015 Z1.620 F1328.121
G1 X-213.593 Y1.416 Z1.618 F1328.121
G1 X-213.766 Y1.850 Z1.617 F1328.121
G1 X-213.869 Y2.305 Z1.616 F1328.121
G1 X-213.894 Y2.523 Z1.615 F1328.122
G1 X-213.902 Y2.743 Z1.615 F1328.122
G3 X-213.902 Y24.669 Z1.558 I-2467188.499 J7.092 F1330.000
G3 X-218.412 Y29.715 Z1.538 I-5.004 J0.066 F1330.000
G3 X-220.902 Y29.742 Z1.532 I-1.527 J-25.329 F1330.000
G2 X-223.902 Y32.742 Z1.519 I0.000 J3.000 F1330.000
G1 X-223.902 Y550.000 Z0.169 F1330.000
G1 X-223.898 Y550.147 Z0.169 F1328.122
G0 Z18.093
G0 Z20.093
G0 X-197.905 Y550.147
G0 Z18.093
G1 Z0.099 F200.000
G2 X-197.902 Y550.000 Z0.099 I-2.996 J-0.147 F1330.000
G1 X-197.902 Y2.742 Z0.099 F1330.000
G2 X-199.096 Y0.347 Z0.099 I-3.000 J0.000 F1330.000
G0 Z18.093
G0 Z20.093
G0 X-212.707 Y0.347
G0 Z18.093
G1 Z0.099 F200.000
G2 X-213.902 Y2.743 Z0.099 I1.806 J2.396 F1330.000
G3 X-213.902 Y24.669 Z0.099 I-2467188.499 J7.092 F1330.000
G3 X-218.412 Y29.715 Z0.099 I-5.004 J0.066 F1330.000
G3 X-220.902 Y29.742 Z0.099 I-1.527 J-25.329 F1330.000
G2 X-223.902 Y32.742 Z0.099 I0.000 J3.000 F1330.000
G1 X-223.902 Y550.000 Z0.099 F1330.000
G2 X-223.898 Y550.147 Z0.099 I3.000 J0.000 F1330.000
G0 Z18.093
G0 Z20.093
(Profile001)
(Compensated Tool Path. Diameter: 6.0)
G0 Z18.093
G0 Z20.093
G0 X-171.902 Y224.593
G0 Z18.093
G1 Z16.100 F200.000
G1 X-171.902 Y2.742 Z14.751 F1325.625
G1 X-171.938 Y2.277 Z14.748 F1325.621
G1 X-172.046 Y1.823 Z14.745 F1325.621
G1 X-172.223 Y1.392 Z14.742 F1325.621
G1 X-172.465 Y0.992 Z14.739 F1325.621
G1 X-172.766 Y0.636 Z14.737 F1325.621
G1 X-172.925 Y0.485 Z14.735 F1325.624
G1 X-173.096 Y0.347 Z14.734 F1325.624
G0 Z18.093
G0 Z20.093
G0 X-186.707 Y0.347
G0 Z18.093
G1 Z14.649 F200.000
G1 X-187.057 Y0.656 Z14.647 F1325.621
G1 X-187.354 Y1.015 Z14.644 F1325.621
G1 X-187.593 Y1.416 Z14.641 F1325.621
G1 X-187.766 Y1.850 Z14.638 F1325.621
G1 X-187.869 Y2.305 Z14.635 F1325.621
G1 X-187.894 Y2.523 Z14.634 F1325.624
G1 X-187.902 Y2.743 Z14.633 F1325.624
G3 X-187.902 Y24.669 Z14.499 I-2467188.499 J7.092 F1330.000
G3 X-192.412 Y29.715 Z14.454 I-5.004 J0.066 F1330.000
G3 X-194.902 Y29.742 Z14.439 I-1.527 J-25.329 F1330.000
G2 X-197.902 Y32.742 Z14.410 I0.000 J3.000 F1330.000
G1 X-197.902 Y550.000 Z11.265 F1330.000
G1 X-197.898 Y550.147 Z11.264 F1325.625
G0 Z18.093
G0 Z20.093
G0 X-171.905 Y550.147
G0 Z18.093
G1 Z11.092 F200.000
G1 X-171.902 Y550.000 Z11.092 F1327.497
G1 X-171.902 Y2.742 Z9.188 F1330.000
G1 X-171.938 Y2.277 Z9.186 F1327.495
G1 X-172.046 Y1.823 Z9.185 F1327.495
G1 X-172.223 Y1.392 Z9.183 F1327.495
G1 X-172.465 Y0.992 Z9.182 F1327.495
G1 X-172.766 Y0.636 Z9.180 F1327.495
G1 X-172.925 Y0.485 Z9.179 F1327.497
G1 X-173.096 Y0.347 Z9.178 F1327.497
G0 Z18.093
G0 Z20.093
G0 X-186.707 Y0.347
G0 Z18.093
G1 Z9.130 F200.000
G1 X-187.057 Y0.656 Z9.129 F1327.495
G1 X-187.354 Y1.015 Z9.127 F1327.495
G1 X-187.593 Y1.416 Z9.125 F1327.495
G1 X-187.766 Y1.850 Z9.124 F1327.495
G1 X-187.869 Y2.305 Z9.122 F1327.495
G1 X-187.894 Y2.523 Z9.121 F1327.497
G1 X-187.902 Y2.743 Z9.121 F1327.497
G3 X-187.902 Y24.669 Z9.044 I-2467188.499 J7.092 F1330.000
G3 X-192.412 Y29.715 Z9.018 I-5.004 J0.066 F1330.000
G3 X-194.902 Y29.742 Z9.010 I-1.527 J-25.329 F1330.000
G2 X-197.902 Y32.742 Z8.993 I0.000 J3.000 F1330.000
G1 X-197.902 Y550.000 Z7.194 F1330.000
G1 X-197.898 Y550.147 Z7.194 F1327.497
G0 Z18.093
G0 Z20.093
G0 X-171.905 Y550.147
G0 Z18.093
G1 Z7.092 F200.000
G1 X-171.902 Y550.000 Z7.092 F1327.497
G1 X-171.902 Y2.742 Z5.188 F1330.000
G1 X-171.938 Y2.277 Z5.186 F1327.495
G1 X-172.046 Y1.823 Z5.185 F1327.495
G1 X-172.223 Y1.392 Z5.183 F1327.495
G1 X-172.465 Y0.992 Z5.182 F1327.495
G1 X-172.766 Y0.636 Z5.180 F1327.495
G1 X-172.925 Y0.485 Z5.179 F1327.497
G1 X-173.096 Y0.347 Z5.178 F1327.497
G0 Z18.093
G0 Z20.093
G0 X-186.707 Y0.347
G0 Z18.093
G1 Z5.130 F200.000
G1 X-187.057 Y0.656 Z5.129 F1327.495
G1 X-187.354 Y1.015 Z5.127 F1327.495
G1 X-187.593 Y1.416 Z5.125 F1327.495
G1 X-187.766 Y1.850 Z5.124 F1327.495
G1 X-187.869 Y2.305 Z5.122 F1327.495
G1 X-187.894 Y2.523 Z5.121 F1327.497
G1 X-187.902 Y2.743 Z5.121 F1327.497
G3 X-187.902 Y24.669 Z5.044 I-2467188.499 J7.092 F1330.000
G3 X-192.412 Y29.715 Z5.018 I-5.004 J0.066 F1330.000
G3 X-194.902 Y29.742 Z5.010 I-1.527 J-25.329 F1330.000
G2 X-197.902 Y32.742 Z4.993 I0.000 J3.000 F1330.000
G1 X-197.902 Y550.000 Z3.194 F1330.000
G1 X-197.898 Y550.147 Z3.194 F1327.497
G0 Z18.093
G0 Z20.093
G0 X-171.905 Y550.147
G0 Z18.093
G1 Z3.094 F200.000
G1 X-171.902 Y550.000 Z3.094 F1328.122
G1 X-171.902 Y2.742 Z1.665 F1330.000
G1 X-171.938 Y2.277 Z1.664 F1328.121
G1 X-172.046 Y1.823 Z1.663 F1328.121
G1 X-172.223 Y1.392 Z1.662 F1328.121
G1 X-172.465 Y0.992 Z1.661 F1328.121
G1 X-172.766 Y0.636 Z1.659 F1328.121
G1 X-172.925 Y0.485 Z1.659 F1328.122
G1 X-173.096 Y0.347 Z1.658 F1328.122
G0 Z18.093
G0 Z20.093
G0 X-186.707 Y0.347
G0 Z18.093
G1 Z1.622 F200.000
G1 X-187.057 Y0.656 Z1.621 F1328.121
G1 X-187.354 Y1.015 Z1.620 F1328.121
G1 X-187.593 Y1.416 Z1.618 F1328.121
G1 X-187.766 Y1.850 Z1.617 F1328.121
G1 X-187.869 Y2.305 Z1.616 F1328.121
G1 X-187.894 Y2.523 Z1.615 F1328.122
G1 X-187.902 Y2.743 Z1.615 F1328.122
G3 X-187.902 Y24.669 Z1.558 I-2467188.499 J7.092 F1330.000
G3 X-192.412 Y29.715 Z1.538 I-5.004 J0.066 F1330.000
G3 X-194.902 Y29.742 Z1.532 I-1.527 J-25.329 F1330.000
G2 X-197.902 Y32.742 Z1.519 I0.000 J3.000 F1330.000
G1 X-197.902 Y550.000 Z0.169 F1330.000
G1 X-197.898 Y550.147 Z0.169 F1328.122
G0 Z18.093
G0 Z20.093
G0 X-171.905 Y550.147
G0 Z18.093
G1 Z0.099 F200.000
G2 X-171.902 Y550.000 Z0.099 I-2.996 J-0.147 F1330.000
G1 X-171.902 Y2.742 Z0.099 F1330.000
G2 X-173.096 Y0.347 Z0.099 I-3.000 J0.000 F1330.000
G0 Z18.093
G0 Z20.093
G0 X-186.707 Y0.347
G0 Z18.093
G1 Z0.099 F200.000
G2 X-187.902 Y2.743 Z0.099 I1.806 J2.396 F1330.000
G3 X-187.902 Y24.669 Z0.099 I-2467188.499 J7.092 F1330.000
G3 X-192.412 Y29.715 Z0.099 I-5.004 J0.066 F1330.000
G3 X-194.902 Y29.742 Z0.099 I-1.527 J-25.329 F1330.000
G2 X-197.902 Y32.742 Z0.099 I0.000 J3.000 F1330.000
G1 X-197.902 Y550.000 Z0.099 F1330.000
G2 X-197.898 Y550.147 Z0.099 I3.000 J0.000 F1330.000
G0 Z18.093
G0 Z20.093
(Profile001)
(Compensated Tool Path. Diameter: 6.0)
G0 Z18.093
G0 Z20.093
G0 X-145.902 Y224.593
G0 Z18.093
G1 Z16.100 F200.000
G1 X-145.902 Y2.742 Z14.751 F1325.625
G1 X-145.938 Y2.277 Z14.748 F1325.621
G1 X-146.046 Y1.823 Z14.745 F1325.621
G1 X-146.223 Y1.392 Z14.742 F1325.621
G1 X-146.465 Y0.992 Z14.739 F1325.621
G1 X-146.766 Y0.636 Z14.737 F1325.621
G1 X-146.925 Y0.485 Z14.735 F1325.624
G1 X-147.096 Y0.347 Z14.734 F1325.624
G0 Z18.093
G0 Z20.093
G0 X-160.707 Y0.347
G0 Z18.093
G1 Z14.649 F200.000
G1 X-161.057 Y0.656 Z14.647 F1325.621
G1 X-161.354 Y1.015 Z14.644 F1325.621
G1 X-161.593 Y1.416 Z14.641 F1325.621
G1 X-161.766 Y1.850 Z14.638 F1325.621
G1 X-161.869 Y2.305 Z14.635 F1325.621
G1 X-161.894 Y2.523 Z14.634 F1325.624
G1 X-161.902 Y2.743 Z14.633 F1325.624
G3 X-161.902 Y24.669 Z14.499 I-2467188.499 J7.092 F1330.000
G3 X-166.412 Y29.715 Z14.454 I-5.004 J0.066 F1330.000
G3 X-168.902 Y29.742 Z14.439 I-1.527 J-25.329 F1330.000
G2 X-171.902 Y32.742 Z14.410 I0.000 J3.000 F1330.000
G1 X-171.902 Y550.000 Z11.265 F1330.000
G1 X-171.898 Y550.147 Z11.264 F1325.625
G0 Z18.093
G0 Z20.093
G0 X-145.905 Y550.147
G0 Z18.093
G1 Z11.092 F200.000
G1 X-145.902 Y550.000 Z11.092 F1327.497
G1 X-145.902 Y2.742 Z9.188 F1330.000
G1 X-145.938 Y2.277 Z9.186 F1327.495
G1 X-146.046 Y1.823 Z9.185 F1327.495
G1 X-146.223 Y1.392 Z9.183 F1327.495
G1 X-146.465 Y0.992 Z9.182 F1327.495
G1 X-146.766 Y0.636 Z9.180 F1327.495
G1 X-146.925 Y0.485 Z9.179 F1327.497
G1 X-147.096 Y0.347 Z9.178 F1327.497
G0 Z18.093
G0 Z20.093
G0 X-160.707 Y0.347
G0 Z18.093
G1 Z9.130 F200.000
G1 X-161.057 Y0.656 Z9.129 F1327.495
G1 X-161.354 Y1.015 Z9.127 F1327.495
G1 X-161.593 Y1.416 Z9.125 F1327.495
G1 X-161.766 Y1.850 Z9.124 F1327.495
G1 X-161.869 Y2.305 Z9.122 F1327.495
G1 X-161.894 Y2.523 Z9.121 F1327.497
G1 X-161.902 Y2.743 Z9.121 F1327.497
G3 X-161.902 Y24.669 Z9.044 I-2467188.499 J7.092 F1330.000
G3 X-166.412 Y29.715 Z9.018 I-5.004 J0.066 F1330.000
G3 X-168.902 Y29.742 Z9.010 I-1.527 J-25.329 F1330.000
G2 X-171.902 Y32.742 Z8.993 I0.000 J3.000 F1330.000
G1 X-171.902 Y550.000 Z7.194 F1330.000
G1 X-171.898 Y550.147 Z7.194 F1327.497
G0 Z18.093
G0 Z20.093
G0 X-145.905 Y550.147
G0 Z18.093
G1 Z7.092 F200.000
G1 X-145.902 Y550.000 Z7.092 F1327.497
G1 X-145.902 Y2.742 Z5.188 F1330.000
G1 X-145.938 Y2.277 Z5.186 F1327.495
G1 X-146.046 Y1.823 Z5.185 F1327.495
G1 X-146.223 Y1.392 Z5.183 F1327.495
G1 X-146.465 Y0.992 Z5.182 F1327.495
G1 X-146.766 Y0.636 Z5.180 F1327.495
G1 X-146.925 Y0.485 Z5.179 F1327.497
G1 X-147.096 Y0.347 Z5.178 F1327.497
G0 Z18.093
G0 Z20.093
G0 X-160.707 Y0.347
G0 Z18.093
G1 Z5.130 F200.000
G1 X-161.057 Y0.656 Z5.129 F1327.495
G1 X-161.354 Y1.015 Z5.127 F1327.495
G1 X-161.593 Y1.416 Z5.125 F1327.495
G1 X-161.766 Y1.850 Z5.124 F1327.495
G1 X-161.869 Y2.305 Z5.122 F1327.495
G1 X-161.894 Y2.523 Z5.121 F1327.497
G1 X-161.902 Y2.743 Z5.121 F1327.497
G3 X-161.902 Y24.669 Z5.044 I-2467188.499 J7.092 F1330.000
G3 X-166.412 Y29.715 Z5.018 I-5.004 J0.066 F1330.000
G3 X-168.902 Y29.742 Z5.010 I-1.527 J-25.329 F1330.000
G2 X-171.902 Y32.742 Z4.993 I0.000 J3.000 F1330.000
G1 X-171.902 Y550.000 Z3.194 F1330.000
G1 X-171.898 Y550.147 Z3.194 F1327.497
G0 Z18.093
G0 Z20.093
G0 X-145.905 Y550.147
G0 Z18.093
G1 Z3.094 F200.000
G1 X-145.902 Y550.000 Z3.094 F1328.122
G1 X-145.902 Y2.742 Z1.665 F1330.000
G1 X-145.938 Y2.277 Z1.664 F1328.121
G1 X-146.046 Y1.823 Z1.663 F1328.121
G1 X-146.223 Y1.392 Z1.662 F1328.121
G1 X-146.465 Y0.992 Z1.661 F1328.121
G1 X-146.766 Y0.636 Z1.659 F1328.121
G1 X-146.925 Y0.485 Z1.659 F1328.122
G1 X-147.096 Y0.347 Z1.658 F1328.122
G0 Z18.093
G0 Z20.093
G0 X-160.707 Y0.347
G0 Z18.093
G1 Z1.622 F200.000
G1 X-161.057 Y0.656 Z1.621 F1328.121
G1 X-161.354 Y1.015 Z1.620 F1328.121
G1 X-161.593 Y1.416 Z1.618 F1328.121
G1 X-161.766 Y1.850 Z1.617 F1328.121
G1 X-161.869 Y2.305 Z1.616 F1328.121
G1 X-161.894 Y2.523 Z1.615 F1328.122
G1 X-161.902 Y2.743 Z1.615 F1328.122
G3 X-161.902 Y24.669 Z1.558 I-2467188.499 J7.092 F1330.000
G3 X-166.412 Y29.715 Z1.538 I-5.004 J0.066 F1330.000
G3 X-168.902 Y29.742 Z1.532 I-1.527 J-25.329 F1330.000
G2 X-171.902 Y32.742 Z1.519 I0.000 J3.000 F1330.000
G1 X-171.902 Y550.000 Z0.169 F1330.000
G1 X-171.898 Y550.147 Z0.169 F1328.122
G0 Z18.093
G0 Z20.093
G0 X-145.905 Y550.147
G0 Z18.093
G1 Z0.099 F200.000
G2 X-145.902 Y550.000 Z0.099 I-2.996 J-0.147 F1330.000
G1 X-145.902 Y2.742 Z0.099 F1330.000
G2 X-147.096 Y0.347 Z0.099 I-3.000 J0.000 F1330.000
G0 Z18.093
G0 Z20.093
G0 X-160.707 Y0.347
G0 Z18.093
G1 Z0.099 F200.000
G2 X-161.902 Y2.743 Z0.099 I1.806 J2.396 F1330.000
G3 X-161.902 Y24.669 Z0.099 I-2467188.499 J7.092 F1330.000
G3 X-166.412 Y29.715 Z0.099 I-5.004 J0.066 F1330.000
G3 X-168.902 Y29.742 Z0.099 I-1.527 J-25.329 F1330.000
G2 X-171.902 Y32.742 Z0.099 I0.000 J3.000 F1330.000
G1 X-171.902 Y550.000 Z0.099 F1330.000
G2 X-171.898 Y550.147 Z0.099 I3.000 J0.000 F1330.000
G0 Z18.093
G0 Z20.093
(finish operation: Array)
(begin postamble)
M05
G17 G54 G90 G80 G40
M2
