(Exported by FreeCAD)
(Post Processor: mach3_mach4_post)
(Output Time:2026-05-22 09:59:16.583886)
(begin preamble)
G17 G54 G40 G49 G80 G90
G21
(begin operation: Fixture)
(machine: mach3_4, mm/min)
G54
(finish operation: Fixture)
(begin operation: TC: 6mm Endmill custom)
(machine: mach3_4, mm/min)
(TC: 6mm Endmill custom)
M5
M6 T3 
G43 H3
M3 S19000
(finish operation: TC: 6mm Endmill custom)
(begin operation: RampEntryDressup008)
(machine: mach3_4, mm/min)
G0 Z20.093
G0 X-81.389 Y424.490 Z20.093
G0 X-81.389 Y424.490 Z18.093
G2 X-80.509 Y422.367 Z17.943 I-2.120 J-2.123 F1330.000
G1 X-80.510 Y402.367 Z16.674 F1330.000
G2 X-83.511 Y399.367 Z16.374 I-3.000 J0.000 F1330.000
G1 X-124.911 Y399.371 Z13.746 F1330.000
G2 X-127.910 Y402.371 Z13.447 I0.000 J3.000 F1330.000
G3 X-127.909 Y422.371 Z12.177 I-707235.251 J75.914 F1330.000
G2 X-124.908 Y425.371 Z11.878 I3.000 J-0.000 F1330.000
G3 X-83.508 Y425.367 Z9.249 I369.617 J3606783.064 F1330.000
G2 X-81.389 Y424.490 Z9.100 I-0.000 J-3.000 F1330.000
G1 X-81.389 Y424.490 Z3.100 F200.000
G2 X-80.509 Y422.367 Z3.100 I-2.120 J-2.123 F1330.000
G1 X-80.510 Y402.367 Z3.100 F1330.000
G2 X-83.511 Y399.367 Z3.100 I-3.000 J0.000 F1330.000
G1 X-99.265 Y399.369 Z3.100 F1330.000
G1 X-104.211 Y399.369 Z8.095 F1330.000
G1 X-109.156 Y399.369 Z3.100 F1330.000
G1 X-124.911 Y399.371 Z3.100 F1330.000
G2 X-127.910 Y402.371 Z3.100 I0.000 J3.000 F1330.000
G3 X-127.909 Y422.371 Z3.100 I-707235.251 J75.914 F1330.000
G2 X-124.908 Y425.371 Z3.100 I3.000 J-0.000 F1330.000
G3 X-83.508 Y425.367 Z3.100 I328.218 J3606791.370 F1330.000
G2 X-81.389 Y424.490 Z3.100 I-0.000 J-3.000 F1330.000
G1 X-81.389 Y424.490 Z0.095 F200.000
G2 X-80.509 Y422.367 Z0.095 I-2.120 J-2.123 F1330.000
G1 X-80.510 Y402.367 Z0.095 F1330.000
G2 X-83.511 Y399.367 Z0.095 I-3.000 J0.000 F1330.000
G1 X-96.291 Y399.368 Z0.095 F1330.000
G1 X-104.211 Y399.369 Z8.095 F1330.000
G1 X-112.131 Y399.370 Z0.095 F1330.000
G1 X-124.911 Y399.371 Z0.095 F1330.000
G2 X-127.910 Y402.371 Z0.095 I0.000 J3.000 F1330.000
G3 X-127.909 Y422.371 Z0.095 I-707235.251 J75.914 F1330.000
G2 X-124.908 Y425.371 Z0.095 I3.000 J-0.000 F1330.000
G3 X-83.508 Y425.367 Z0.095 I328.218 J3606791.370 F1330.000
G2 X-81.389 Y424.490 Z0.095 I-0.000 J-3.000 F1330.000
G0 X-81.389 Y424.490 Z20.093
(finish operation: RampEntryDressup008)
(begin postamble)
M05
G17 G54 G90 G80 G40
M2
