(Exported by FreeCAD)
(Post Processor: mach3_mach4_post)
(Output Time:2026-05-22 09:59:16.583886)
(begin preamble)
G17 G54 G40 G49 G80 G90
G21
(begin operation: Fixture)
(machine: mach3_4, mm/min)
G54
(finish operation: Fixture)
(begin operation: TC: 6mm Endmill custom)
(machine: mach3_4, mm/min)
(TC: 6mm Endmill custom)
M5
M6 T3 
G43 H3
M3 S19000
(finish operation: TC: 6mm Endmill custom)
(begin operation: RampEntryDressup005)
(machine: mach3_4, mm/min)
G0 Z20.093
G0 X-15.543 Y203.542 Z20.093
G0 X-15.543 Y203.542 Z18.093
G2 X-33.466 Y151.265 Z14.479 I-17.284 J-23.285 F1330.000
G2 X-35.052 Y151.343 Z14.401 I0.639 J28.992 F1330.000
G2 X-31.231 Y209.212 Z9.935 I2.225 J28.914 F1330.000
G2 X-15.543 Y203.542 Z9.100 I-1.596 J-28.955 F1330.000
G0 X-15.543 Y203.542 Z20.093
G0 X-61.982 Y198.430 Z20.093
G0 X-61.982 Y198.430 Z18.093
G2 X-91.446 Y166.265 Z15.656 I-28.825 J-3.173 F1330.000
G2 X-93.031 Y166.343 Z15.578 I0.639 J28.992 F1330.000
G2 X-89.210 Y224.212 Z11.112 I2.225 J28.914 F1330.000
G2 X-61.982 Y198.430 Z9.100 I-1.596 J-28.955 F1330.000
G0 X-61.982 Y198.430 Z20.093
G0 X-76.508 Y162.855 Z20.093
G0 X-76.508 Y162.855 Z18.093
G2 X-88.109 Y107.016 Z14.120 I-10.962 J-26.847 F1330.000
G2 X-89.694 Y107.094 Z14.042 I0.639 J28.992 F1330.000
G2 X-85.873 Y164.963 Z9.576 I2.225 J28.914 F1330.000
G2 X-76.508 Y162.855 Z9.100 I-1.596 J-28.955 F1330.000
G0 X-76.508 Y162.855 Z20.093
G0 X-50.451 Y138.740 Z20.093
G0 X-50.451 Y138.740 Z18.093
G2 X-27.571 Y147.998 Z16.835 I21.283 J-19.697 F1330.000
G2 X-29.807 Y90.051 Z12.385 I-1.596 J-28.955 F1330.000
G2 X-31.392 Y90.130 Z12.307 I0.639 J28.992 F1330.000
G2 X-50.451 Y138.740 Z9.100 I2.225 J28.914 F1330.000
G1 X-50.451 Y138.740 Z3.100 F200.000
G2 X-35.068 Y147.436 Z3.100 I21.283 J-19.697 F1330.000
G1 X-34.377 Y147.571 Z3.538 F1330.000
G1 X-33.567 Y147.707 Z3.919 F1330.000
G1 X-33.047 Y147.782 Z4.069 F1330.000
G1 X-32.513 Y147.849 Z4.135 F1330.000
G1 X-32.048 Y147.899 Z4.116 F1330.000
G1 X-31.374 Y147.958 Z3.966 F1330.000
G1 X-30.858 Y147.993 Z3.762 F1330.000
G1 X-30.558 Y148.009 Z3.614 F1330.000
G1 X-30.121 Y148.027 Z3.364 F1330.000
G1 X-29.713 Y148.037 Z3.100 F1330.000
G2 X-27.571 Y147.998 Z3.100 I0.546 J-28.994 F1330.000
G2 X-29.807 Y90.051 Z3.100 I-1.596 J-28.955 F1330.000
G2 X-31.392 Y90.130 Z3.100 I0.639 J28.992 F1330.000
G2 X-58.159 Y119.716 Z3.100 I2.225 J28.914 F1330.000
G1 X-58.089 Y121.165 Z4.562 F1330.000
G1 X-58.049 Y121.657 Z5.060 F1330.000
G1 X-57.909 Y122.900 Z6.322 F1330.000
G1 X-57.819 Y123.518 Z6.953 F1330.000
G1 X-57.716 Y124.136 Z7.584 F1330.000
G1 X-57.551 Y125.075 Z6.638 F1330.000
G1 X-57.617 Y124.697 Z7.052 F1330.000
G1 X-57.697 Y124.240 Z7.543 F1330.000
G1 X-57.604 Y124.730 Z7.048 F1330.000
G1 X-57.283 Y126.147 Z5.582 F1330.000
G1 X-57.157 Y126.627 Z5.080 F1330.000
G1 X-56.884 Y127.571 Z4.090 F1330.000
G1 X-56.580 Y128.505 Z3.100 F1330.000
G2 X-50.451 Y138.740 Z3.100 I27.412 J-9.462 F1330.000
G0 X-50.451 Y138.740 Z20.093
G0 X-58.549 Y138.142 Z20.093
G0 X-58.549 Y138.142 Z18.093
G1 X-58.549 Y138.142 Z3.100 F200.000
G2 X-59.525 Y128.258 Z3.100 I-28.920 J-2.135 F1330.000
G1 X-59.747 Y127.498 Z3.676 F1330.000
G1 X-59.847 Y127.180 Z3.888 F1330.000
G1 X-60.036 Y126.610 Z4.211 F1330.000
G1 X-60.240 Y126.034 Z4.440 F1330.000
G1 X-60.408 Y125.587 Z4.536 F1330.000
G1 X-60.549 Y125.226 Z4.553 F1330.000
G1 X-60.718 Y124.815 Z4.505 F1330.000
G1 X-60.883 Y124.428 Z4.397 F1330.000
G1 X-61.071 Y124.006 Z4.214 F1330.000
G1 X-61.352 Y123.405 Z3.853 F1330.000
G1 X-61.627 Y122.851 Z3.438 F1330.000
G1 X-61.834 Y122.451 Z3.100 F1330.000
G2 X-88.109 Y107.016 Z3.100 I-25.635 J13.556 F1330.000
G2 X-89.694 Y107.094 Z3.100 I0.639 J28.992 F1330.000
G2 X-85.873 Y164.963 Z3.100 I2.225 J28.914 F1330.000
G2 X-58.549 Y138.142 Z3.100 I-1.596 J-28.955 F1330.000
G0 X-58.549 Y138.142 Z20.093
G0 X-47.942 Y155.509 Z20.093
G0 X-47.942 Y155.509 Z18.093
G1 X-47.942 Y155.509 Z3.100 F200.000
G2 X-31.231 Y209.212 Z3.100 I15.115 J24.748 F1330.000
G2 X-28.324 Y151.610 Z3.100 I-1.596 J-28.955 F1330.000
G1 X-29.762 Y151.420 Z4.561 F1330.000
G1 X-30.117 Y151.385 Z4.921 F1330.000
G1 X-31.043 Y151.313 Z5.857 F1330.000
G1 X-31.970 Y151.271 Z6.794 F1330.000
G1 X-32.361 Y151.262 Z7.188 F1330.000
G1 X-32.777 Y151.258 Z7.586 F1330.000
G1 X-32.797 Y151.258 Z7.589 F1330.000
G1 X-32.808 Y151.258 Z7.589 F1330.000
G1 X-33.123 Y151.259 Z7.284 F1330.000
G1 X-33.466 Y151.265 Z6.939 F1330.000
G1 X-35.052 Y151.343 Z5.337 F1330.000
G1 X-36.497 Y151.491 Z3.873 F1330.000
G1 X-37.257 Y151.598 Z3.100 F1330.000
G2 X-47.942 Y155.509 Z3.100 I4.430 J28.659 F1330.000
G0 X-47.942 Y155.509 Z20.093
G0 X-69.543 Y175.539 Z20.093
G0 X-69.543 Y175.539 Z18.093
G1 X-69.543 Y175.539 Z3.100 F200.000
G2 X-91.446 Y166.265 Z3.100 I-21.264 J19.718 F1330.000
G2 X-93.031 Y166.343 Z3.100 I0.639 J28.992 F1330.000
G2 X-104.620 Y169.759 Z3.100 I2.225 J28.914 F1330.000
G1 X-105.878 Y170.482 Z4.560 F1330.000
G1 X-106.531 Y170.891 Z5.336 F1330.000
G1 X-107.452 Y171.511 Z6.455 F1330.000
G1 X-107.938 Y171.859 Z7.056 F1330.000
G1 X-108.322 Y172.145 Z7.516 F1330.000
G1 X-108.379 Y172.188 Z7.548 F1330.000
G1 X-108.408 Y172.210 Z7.546 F1330.000
G1 X-108.773 Y172.494 Z7.120 F1330.000
G1 X-109.546 Y173.126 Z6.116 F1330.000
G1 X-110.664 Y174.123 Z4.608 F1330.000
G1 X-111.729 Y175.176 Z3.100 F1330.000
G2 X-89.210 Y224.212 Z3.100 I20.922 J20.080 F1330.000
G2 X-69.543 Y175.539 Z3.100 I-1.596 J-28.955 F1330.000
G1 X-69.543 Y175.539 Z0.098 F200.000
G2 X-91.446 Y166.265 Z0.098 I-21.264 J19.718 F1330.000
G2 X-93.031 Y166.343 Z0.098 I0.639 J28.992 F1330.000
G2 X-101.920 Y168.472 Z0.098 I2.225 J28.914 F1330.000
G1 X-103.244 Y169.060 Z1.550 F1330.000
G1 X-104.817 Y169.866 Z3.326 F1330.000
G1 X-106.069 Y170.599 Z4.786 F1330.000
G1 X-106.606 Y170.939 Z5.427 F1330.000
G1 X-107.470 Y171.524 Z6.478 F1330.000
G1 X-107.895 Y171.827 Z7.002 F1330.000
G1 X-108.313 Y172.138 Z7.505 F1330.000
G1 X-108.379 Y172.188 Z7.548 F1330.000
G1 X-108.424 Y172.223 Z7.532 F1330.000
G1 X-108.557 Y172.325 Z7.390 F1330.000
G1 X-109.075 Y172.735 Z6.733 F1330.000
G1 X-109.163 Y172.807 Z6.619 F1330.000
G1 X-109.736 Y173.288 Z5.865 F1330.000
G1 X-110.664 Y174.123 Z4.608 F1330.000
G1 X-111.554 Y174.996 Z3.352 F1330.000
G1 X-112.543 Y176.061 Z1.892 F1330.000
G1 X-113.686 Y177.439 Z0.098 F1330.000
G2 X-89.210 Y224.212 Z0.098 I22.879 J17.818 F1330.000
G2 X-69.543 Y175.539 Z0.098 I-1.596 J-28.955 F1330.000
G0 X-69.543 Y175.539 Z20.093
G0 X-61.590 Y176.561 Z20.093
G0 X-61.590 Y176.561 Z18.093
G1 X-61.590 Y176.561 Z0.098 F200.000
G2 X-31.231 Y209.212 Z0.098 I28.763 J3.696 F1330.000
G2 X-25.399 Y152.225 Z0.098 I-1.596 J-28.955 F1330.000
G1 X-26.809 Y151.889 Z1.551 F1330.000
G1 X-28.235 Y151.624 Z3.009 F1330.000
G1 X-29.300 Y151.473 Z4.093 F1330.000
G1 X-29.352 Y151.467 Z4.146 F1330.000
G1 X-30.655 Y151.339 Z5.466 F1330.000
G1 X-31.309 Y151.298 Z6.126 F1330.000
G1 X-31.963 Y151.271 Z6.786 F1330.000
G1 X-32.366 Y151.262 Z7.192 F1330.000
G1 X-32.517 Y151.260 Z7.344 F1330.000
G1 X-32.797 Y151.258 Z7.589 F1330.000
G1 X-32.808 Y151.258 Z7.589 F1330.000
G1 X-33.123 Y151.259 Z7.284 F1330.000
G1 X-33.466 Y151.265 Z6.939 F1330.000
G1 X-35.052 Y151.343 Z5.337 F1330.000
G1 X-36.497 Y151.491 Z3.873 F1330.000
G1 X-38.047 Y151.732 Z2.294 F1330.000
G1 X-39.469 Y152.029 Z0.835 F1330.000
G1 X-40.183 Y152.206 Z0.098 F1330.000
G2 X-61.590 Y176.561 Z0.098 I7.356 J28.051 F1330.000
G0 X-61.590 Y176.561 Z20.093
G0 X-71.869 Y160.453 Z20.093
G0 X-71.869 Y160.453 Z18.093
G1 X-71.869 Y160.453 Z0.098 F200.000
G2 X-58.817 Y131.535 Z0.098 I-15.600 J-24.445 F1330.000
G1 X-59.071 Y130.139 Z1.436 F1330.000
G1 X-59.392 Y128.757 Z2.684 F1330.000
G1 X-59.629 Y127.894 Z3.387 F1330.000
G1 X-59.780 Y127.392 Z3.749 F1330.000
G1 X-59.979 Y126.777 Z4.125 F1330.000
G1 X-60.059 Y126.541 Z4.244 F1330.000
G1 X-60.236 Y126.044 Z4.437 F1330.000
G1 X-60.365 Y125.698 Z4.519 F1330.000
G1 X-60.535 Y125.262 Z4.554 F1330.000
G1 X-60.725 Y124.796 Z4.502 F1330.000
G1 X-60.897 Y124.396 Z4.385 F1330.000
G1 X-61.147 Y123.840 Z4.125 F1330.000
G1 X-61.378 Y123.353 Z3.817 F1330.000
G1 X-61.671 Y122.765 Z3.368 F1330.000
G1 X-62.027 Y122.093 Z2.774 F1330.000
G1 X-62.576 Y121.133 Z1.820 F1330.000
G1 X-63.188 Y120.153 Z0.753 F1330.000
G1 X-63.570 Y119.583 Z0.098 F1330.000
G2 X-88.109 Y107.016 Z0.098 I-23.899 J16.425 F1330.000
G2 X-89.694 Y107.094 Z0.098 I0.639 J28.992 F1330.000
G2 X-85.873 Y164.963 Z0.098 I2.225 J28.914 F1330.000
G2 X-71.869 Y160.453 Z0.098 I-1.596 J-28.955 F1330.000
G0 X-71.869 Y160.453 Z20.093
G0 X-49.985 Y139.231 Z20.093
G0 X-49.985 Y139.231 Z18.093
G1 X-49.985 Y139.231 Z0.098 F200.000
G2 X-38.496 Y146.501 Z0.098 I20.818 J-20.188 F1330.000
G1 X-37.242 Y146.896 Z1.304 F1330.000
G1 X-35.976 Y147.232 Z2.411 F1330.000
G1 X-35.134 Y147.422 Z3.054 F1330.000
G1 X-34.736 Y147.503 Z3.321 F1330.000
G1 X-34.093 Y147.621 Z3.690 F1330.000
G1 X-33.567 Y147.707 Z3.919 F1330.000
G1 X-33.047 Y147.782 Z4.069 F1330.000
G1 X-32.427 Y147.858 Z4.137 F1330.000
G1 X-31.966 Y147.907 Z4.105 F1330.000
G1 X-31.283 Y147.965 Z3.935 F1330.000
G1 X-30.758 Y147.999 Z3.715 F1330.000
G1 X-30.381 Y148.017 Z3.517 F1330.000
G1 X-29.774 Y148.036 Z3.141 F1330.000
G1 X-28.985 Y148.042 Z2.569 F1330.000
G1 X-28.123 Y148.023 Z1.868 F1330.000
G1 X-27.571 Y147.998 Z1.390 F1330.000
G1 X-26.163 Y147.886 Z0.098 F1330.000
G2 X-29.807 Y90.051 Z0.098 I-3.004 J-28.843 F1330.000
G2 X-31.392 Y90.130 Z0.098 I0.639 J28.992 F1330.000
G2 X-58.074 Y116.730 Z0.098 I2.225 J28.914 F1330.000
G1 X-58.154 Y118.177 Z1.552 F1330.000
G1 X-58.166 Y119.140 Z2.520 F1330.000
G1 X-58.125 Y120.590 Z3.980 F1330.000
G1 X-58.052 Y121.620 Z5.022 F1330.000
G1 X-57.910 Y122.889 Z6.311 F1330.000
G1 X-57.819 Y123.521 Z6.955 F1330.000
G1 X-57.716 Y124.136 Z7.584 F1330.000
G1 X-57.551 Y125.075 Z6.638 F1330.000
G1 X-57.617 Y124.697 Z7.052 F1330.000
G1 X-57.697 Y124.240 Z7.543 F1330.000
G1 X-57.604 Y124.730 Z7.048 F1330.000
G1 X-57.283 Y126.147 Z5.582 F1330.000
G1 X-57.157 Y126.627 Z5.080 F1330.000
G1 X-56.742 Y128.020 Z3.616 F1330.000
G1 X-56.258 Y129.389 Z2.153 F1330.000
G1 X-55.876 Y130.339 Z1.125 F1330.000
G1 X-55.461 Y131.275 Z0.098 F1330.000
G2 X-49.985 Y139.231 Z0.098 I26.293 J-12.232 F1330.000
G0 X-49.985 Y139.231 Z20.093
(finish operation: RampEntryDressup005)
(begin postamble)
M05
G17 G54 G90 G80 G40
M2
