(Exported by FreeCAD)
(Post Processor: mach3_mach4_post)
(Output Time:2026-05-22 09:59:16.583886)
(begin preamble)
G17 G54 G40 G49 G80 G90
G21
(begin operation: Fixture)
(machine: mach3_4, mm/min)
G54
(finish operation: Fixture)
(begin operation: TC: 6mm Endmill custom)
(machine: mach3_4, mm/min)
(TC: 6mm Endmill custom)
M5
M6 T3 
G43 H3
M3 S19000
(finish operation: TC: 6mm Endmill custom)
(begin operation: DressupPathBoundary012)
(machine: mach3_4, mm/min)
(Profile021)
(Compensated Tool Path. Diameter: 6.0)
G0 Z18.093
G0 Z20.093
G0 X-123.524 Y225.641
G0 Z18.093
G1 Z16.100 F200.000
G1 X-119.903 Y4.760 Z14.746 F1325.590
G2 X-122.878 Y1.711 Z14.717 I-3.000 J-0.049 F1330.000
G1 X-142.877 Y1.547 Z14.594 F1330.000
G2 X-145.902 Y4.547 Z14.565 I-0.025 J3.000 F1330.000
G1 X-145.902 Y550.000 Z11.221 F1330.000
G1 X-145.898 Y550.147 Z11.220 F1325.589
G0 Z18.093
G0 Z20.093
G0 X-128.846 Y550.147
G0 Z18.093
G1 Z11.098 F200.000
G1 X-128.842 Y550.049 Z11.098 F1327.477
G1 X-119.903 Y4.760 Z9.185 F1330.000
G2 X-122.878 Y1.711 Z9.169 I-3.000 J-0.049 F1330.000
G1 X-142.877 Y1.547 Z9.098 F1330.000
G2 X-145.902 Y4.547 Z9.082 I-0.025 J3.000 F1330.000
G1 X-145.902 Y550.000 Z7.169 F1330.000
G1 X-145.898 Y550.147 Z7.169 F1327.477
G0 Z18.093
G0 Z20.093
G0 X-128.846 Y550.147
G0 Z18.093
G1 Z7.098 F200.000
G1 X-128.842 Y550.049 Z7.098 F1327.477
G1 X-119.903 Y4.760 Z5.185 F1330.000
G2 X-122.878 Y1.711 Z5.169 I-3.000 J-0.049 F1330.000
G1 X-142.877 Y1.547 Z5.098 F1330.000
G2 X-145.902 Y4.547 Z5.082 I-0.025 J3.000 F1330.000
G1 X-145.902 Y550.000 Z3.169 F1330.000
G1 X-145.898 Y550.147 Z3.169 F1327.477
G0 Z18.093
G0 Z20.093
G0 X-128.846 Y550.147
G0 Z18.093
G1 Z3.098 F200.000
G1 X-128.842 Y550.049 Z3.098 F1328.108
G1 X-119.903 Y4.760 Z1.664 F1330.000
G2 X-122.878 Y1.711 Z1.651 I-3.000 J-0.049 F1330.000
G1 X-142.877 Y1.547 Z1.599 F1330.000
G2 X-145.902 Y4.547 Z1.586 I-0.025 J3.000 F1330.000
G1 X-145.902 Y550.000 Z0.151 F1330.000
G1 X-145.898 Y550.147 Z0.151 F1328.108
G0 Z18.093
G0 Z20.093
G0 X-128.846 Y550.147
G0 Z18.093
G1 Z0.099 F200.000
G2 X-128.842 Y550.049 Z0.099 I-2.996 J-0.147 F1330.000
G1 X-119.903 Y4.760 Z0.099 F1330.000
G2 X-122.878 Y1.711 Z0.099 I-3.000 J-0.049 F1330.000
G1 X-142.877 Y1.547 Z0.099 F1330.000
G2 X-145.902 Y4.547 Z0.099 I-0.025 J3.000 F1330.000
G1 X-145.902 Y550.000 Z0.099 F1330.000
G2 X-145.898 Y550.147 Z0.099 I3.000 J0.000 F1330.000
G0 Z18.093
G0 Z20.093
(finish operation: DressupPathBoundary012)
(begin postamble)
M05
G17 G54 G90 G80 G40
M2
