(Exported by FreeCAD)
(Post Processor: mach3_mach4_post)
(Output Time:2026-05-22 09:59:16.583886)
(begin preamble)
G17 G54 G40 G49 G80 G90
G21
(begin operation: Fixture)
(machine: mach3_4, mm/min)
G54
(finish operation: Fixture)
(begin operation: TC: 6mm Endmill custom)
(machine: mach3_4, mm/min)
(TC: 6mm Endmill custom)
M5
M6 T3 
G43 H3
M3 S19000
(finish operation: TC: 6mm Endmill custom)
(begin operation: DressupTag011)
(machine: mach3_4, mm/min)
(Profile001)
(Compensated Tool Path. Diameter: 6.0)
G0 Z20.093
G0 X-276.780 Y552.121
G0 Z18.093
G2 X-275.902 Y550.000 Z18.079 I-2.121 J-2.121 F1330.000
G1 X-275.902 Y2.742 Z14.751 F1330.000
G2 X-278.902 Y-0.258 Z14.722 I-3.000 J0.000 F1330.000
G1 X-288.902 Y-0.258 Z14.661 F1330.000
G2 X-291.902 Y2.743 Z14.633 I0.000 J3.000 F1330.000
G3 X-291.902 Y24.669 Z14.499 I-2467188.499 J7.092 F1330.000
G3 X-296.412 Y29.715 Z14.454 I-5.004 J0.066 F1330.000
G3 X-298.902 Y29.742 Z14.439 I-1.527 J-25.329 F1330.000
G2 X-301.902 Y32.742 Z14.410 I0.000 J3.000 F1330.000
G1 X-301.902 Y550.000 Z11.265 F1330.000
G2 X-298.902 Y553.000 Z11.236 I3.000 J0.000 F1330.000
G1 X-278.902 Y553.000 Z11.114 F1330.000
G2 X-276.780 Y552.121 Z11.100 I0.000 J-3.000 F1330.000
G2 X-275.902 Y550.000 Z11.092 I-2.121 J-2.121 F1330.000
G1 X-275.902 Y2.742 Z9.188 F1330.000
G2 X-278.902 Y-0.258 Z9.172 I-3.000 J0.000 F1330.000
G1 X-288.902 Y-0.258 Z9.137 F1330.000
G2 X-291.902 Y2.743 Z9.121 I0.000 J3.000 F1330.000
G3 X-291.902 Y24.669 Z9.044 I-2467188.499 J7.092 F1330.000
G3 X-296.412 Y29.715 Z9.018 I-5.004 J0.066 F1330.000
G3 X-298.902 Y29.742 Z9.010 I-1.527 J-25.329 F1330.000
G2 X-301.902 Y32.742 Z8.993 I0.000 J3.000 F1330.000
G1 X-301.902 Y550.000 Z7.194 F1330.000
G2 X-298.902 Y553.000 Z7.178 I3.000 J0.000 F1330.000
G1 X-278.902 Y553.000 Z7.108 F1330.000
G2 X-276.780 Y552.121 Z7.100 I0.000 J-3.000 F1330.000
G2 X-275.902 Y550.000 Z7.092 I-2.121 J-2.121 F1330.000
G1 X-275.902 Y2.742 Z5.188 F1330.000
G2 X-278.902 Y-0.258 Z5.172 I-3.000 J0.000 F1330.000
G1 X-288.902 Y-0.258 Z5.137 F1330.000
G2 X-291.902 Y2.743 Z5.121 I0.000 J3.000 F1330.000
G3 X-291.902 Y24.669 Z5.044 I-2467188.499 J7.092 F1330.000
G3 X-296.412 Y29.715 Z5.018 I-5.004 J0.066 F1330.000
G3 X-298.902 Y29.742 Z5.010 I-1.527 J-25.329 F1330.000
G2 X-301.902 Y32.742 Z4.993 I0.000 J3.000 F1330.000
G1 X-301.902 Y550.000 Z3.194 F1330.000
G2 X-298.902 Y553.000 Z3.178 I3.000 J0.000 F1330.000
G1 X-278.902 Y553.000 Z3.108 F1330.000
G2 X-276.780 Y552.121 Z3.100 I0.000 J-3.000 F1330.000
G2 X-275.902 Y550.000 Z3.094 I-2.121 J-2.121 F1330.000
G1 X-275.902 Y2.742 Z1.665 F1330.000
G2 X-278.902 Y-0.258 Z1.653 I-3.000 J0.000 F1330.000
G1 X-288.902 Y-0.258 Z1.627 F1330.000
G2 X-291.902 Y2.743 Z1.615 I0.000 J3.000 F1330.000
G3 X-291.902 Y24.669 Z1.558 I-2467188.499 J7.092 F1330.000
G3 X-296.412 Y29.715 Z1.538 I-5.004 J0.066 F1330.000
G3 X-298.902 Y29.742 Z1.532 I-1.527 J-25.329 F1330.000
G2 X-301.902 Y32.742 Z1.519 I0.000 J3.000 F1330.000
G1 X-301.902 Y550.000 Z0.169 F1330.000
G2 X-298.902 Y553.000 Z0.157 I3.000 J0.000 F1330.000
G1 X-278.902 Y553.000 Z0.105 F1330.000
G2 X-276.780 Y552.121 Z0.099 I0.000 J-3.000 F1330.000
G2 X-275.902 Y550.000 Z0.099 I-2.121 J-2.121 F1330.000
G1 X-275.902 Y2.742 Z0.099 F1330.000
G2 X-278.902 Y-0.258 Z0.099 I-3.000 J0.000 F1330.000
G1 X-288.902 Y-0.258 Z0.099 F1330.000
G2 X-291.902 Y2.743 Z0.099 I0.000 J3.000 F1330.000
G3 X-291.902 Y24.669 Z0.099 I-2467188.499 J7.092 F1330.000
G3 X-296.412 Y29.715 Z0.099 I-5.004 J0.066 F1330.000
G3 X-298.902 Y29.742 Z0.099 I-1.527 J-25.329 F1330.000
G2 X-301.902 Y32.742 Z0.099 I0.000 J3.000 F1330.000
G1 X-301.902 Y550.000 Z0.099 F1330.000
G2 X-298.902 Y553.000 Z0.099 I3.000 J0.000 F1330.000
G1 X-278.902 Y553.000 Z0.099 F1330.000
G2 X-276.780 Y552.121 Z0.099 I0.000 J-3.000 F1330.000
G0 Z20.093
(finish operation: DressupTag011)
(begin postamble)
M05
G17 G54 G90 G80 G40
M2
