(Exported by FreeCAD)
(Post Processor: mach3_mach4_post)
(Output Time:2026-05-22 10:00:25.603310)
(begin preamble)
G17 G54 G40 G49 G80 G90
G21
(begin operation: Fixture)
(machine: mach3_4, mm/min)
G54
(finish operation: Fixture)
(begin operation: TC: 6mm Endmill custom002)
(machine: mach3_4, mm/min)
(TC: 6mm Endmill custom002)
M5
M6 T2 
G43 H2
M3 S19000
(finish operation: TC: 6mm Endmill custom002)
(begin operation: DressupTag013)
(machine: mach3_4, mm/min)
G0 Z19.095
G0 X0.000 Y0.000 Z21.095
G0 X-56.062 Y249.000 Z21.095
G0 X-56.062 Y249.000 Z19.095
G1 X-56.062 Y249.000 Z14.840 F200.000
G1 X-82.442 Y294.692 Z12.624 F1299.810
G1 X-82.814 Y295.410 Z12.590 F1299.800
G1 X-83.120 Y296.159 Z12.556 F1299.800
G1 X-83.358 Y296.932 Z12.522 F1299.800
G1 X-83.525 Y297.724 Z12.488 F1299.800
G1 X-83.621 Y298.527 Z12.454 F1299.800
G1 X-83.644 Y299.336 Z12.420 F1299.800
G1 X-83.595 Y300.143 Z12.386 F1299.800
G1 X-83.473 Y300.943 Z12.352 F1299.800
G1 X-83.280 Y301.728 Z12.318 F1299.800
G1 X-83.017 Y302.493 Z12.284 F1299.800
G1 X-82.686 Y303.232 Z12.250 F1299.800
G1 X-82.291 Y303.937 Z12.216 F1299.800
G1 X-81.834 Y304.605 Z12.182 F1299.800
G1 X-81.319 Y305.228 Z12.148 F1299.800
G1 X-80.750 Y305.803 Z12.114 F1299.800
G1 X-80.131 Y306.325 Z12.080 F1299.800
G1 X-79.147 Y306.984 Z12.031 F1299.788
G1 X-79.148 Y306.986 Z12.031 F1299.810
G1 X-63.560 Y315.986 Z11.275 F1299.810
G1 X-62.841 Y316.358 Z11.241 F1299.800
G1 X-62.092 Y316.665 Z11.207 F1299.800
G1 X-61.319 Y316.902 Z11.173 F1299.800
G1 X-60.527 Y317.070 Z11.139 F1299.800
G1 X-59.724 Y317.165 Z11.105 F1299.800
G1 X-58.915 Y317.188 Z11.071 F1299.800
G1 X-58.107 Y317.139 Z11.037 F1299.800
G1 X-57.307 Y317.017 Z11.003 F1299.800
G1 X-56.522 Y316.824 Z10.969 F1299.800
G1 X-55.756 Y316.561 Z10.935 F1299.800
G1 X-55.018 Y316.230 Z10.901 F1299.800
G1 X-54.312 Y315.835 Z10.867 F1299.800
G1 X-53.644 Y315.378 Z10.833 F1299.800
G1 X-53.021 Y314.863 Z10.799 F1299.800
G1 X-52.445 Y314.293 Z10.765 F1299.800
G1 X-51.924 Y313.675 Z10.731 F1299.800
G1 X-51.265 Y312.692 Z10.681 F1299.789
G1 X-44.280 Y300.593 Z10.095 F1299.810
G1 X-16.034 Y251.670 Z8.513 F1309.867
G0 X-16.034 Y251.670 Z19.095
G0 X-16.034 Y251.670 Z21.095
G0 X-56.062 Y249.000 Z21.095
G0 X-56.062 Y249.000 Z19.095
G1 X-56.062 Y249.000 Z7.258 F200.000
G1 X-82.442 Y294.692 Z5.781 F1309.867
G1 X-82.814 Y295.410 Z5.758 F1309.860
G1 X-83.120 Y296.159 Z5.736 F1309.860
G1 X-83.358 Y296.932 Z5.713 F1309.860
G1 X-83.525 Y297.724 Z5.690 F1309.860
G1 X-83.621 Y298.527 Z5.668 F1309.860
G1 X-83.644 Y299.336 Z5.645 F1309.860
G1 X-83.595 Y300.143 Z5.622 F1309.860
G1 X-83.473 Y300.943 Z5.600 F1309.860
G1 X-83.280 Y301.728 Z5.577 F1309.860
G1 X-83.017 Y302.493 Z5.554 F1309.860
G1 X-82.686 Y303.232 Z5.532 F1309.860
G1 X-82.291 Y303.937 Z5.509 F1309.860
G1 X-81.834 Y304.605 Z5.486 F1309.860
G1 X-81.319 Y305.228 Z5.464 F1309.860
G1 X-80.750 Y305.803 Z5.441 F1309.860
G1 X-80.131 Y306.325 Z5.418 F1309.860
G1 X-79.147 Y306.984 Z5.385 F1309.852
G1 X-79.148 Y306.986 Z5.385 F1309.867
G1 X-63.560 Y315.986 Z4.881 F1309.867
G1 X-62.841 Y316.358 Z4.859 F1309.860
G1 X-62.092 Y316.665 Z4.836 F1309.860
G1 X-61.319 Y316.902 Z4.813 F1309.860
G1 X-60.527 Y317.070 Z4.791 F1309.860
G1 X-59.724 Y317.165 Z4.768 F1309.860
G1 X-58.915 Y317.188 Z4.745 F1309.860
G1 X-58.107 Y317.139 Z4.723 F1309.860
G1 X-57.307 Y317.017 Z4.700 F1309.860
G1 X-56.522 Y316.824 Z4.677 F1309.860
G1 X-55.756 Y316.561 Z4.655 F1309.860
G1 X-55.018 Y316.230 Z4.632 F1309.860
G1 X-54.312 Y315.835 Z4.609 F1309.860
G1 X-53.644 Y315.378 Z4.587 F1309.860
G1 X-53.021 Y314.863 Z4.564 F1309.860
G1 X-52.445 Y314.293 Z4.541 F1309.860
G1 X-51.924 Y313.675 Z4.519 F1309.860
G1 X-51.265 Y312.692 Z4.486 F1309.852
G1 X-44.280 Y300.593 Z4.095 F1309.867
G1 X-16.034 Y251.670 Z3.040 F1316.575
G0 X-16.034 Y251.670 Z19.095
G0 X-16.034 Y251.670 Z21.095
G0 X-56.062 Y249.000 Z21.095
G0 X-56.062 Y249.000 Z19.095
G1 X-56.062 Y249.000 Z2.203 F200.000
G1 X-82.442 Y294.692 Z1.219 F1316.575
G1 X-82.814 Y295.410 Z1.204 F1316.571
G1 X-83.120 Y296.159 Z1.188 F1316.571
G1 X-83.358 Y296.932 Z1.173 F1316.571
G1 X-83.525 Y297.724 Z1.158 F1316.571
G1 X-83.621 Y298.527 Z1.143 F1316.571
G1 X-83.644 Y299.336 Z1.128 F1316.571
G1 X-83.595 Y300.143 Z1.113 F1316.571
G1 X-83.473 Y300.943 Z1.098 F1316.571
G1 X-83.280 Y301.728 Z1.083 F1316.571
G1 X-83.017 Y302.493 Z1.068 F1316.571
G1 X-82.686 Y303.232 Z1.053 F1316.571
G1 X-82.291 Y303.937 Z1.037 F1316.571
G1 X-81.834 Y304.605 Z1.022 F1316.571
G1 X-81.319 Y305.228 Z1.007 F1316.571
G1 X-80.750 Y305.803 Z0.992 F1316.571
G1 X-80.131 Y306.325 Z0.977 F1316.571
G1 X-79.147 Y306.984 Z0.955 F1316.566
G1 X-79.148 Y306.986 Z0.955 F1316.575
G1 X-63.560 Y315.986 Z0.619 F1316.575
G1 X-62.841 Y316.358 Z0.604 F1316.571
G1 X-62.092 Y316.665 Z0.589 F1316.571
G1 X-61.319 Y316.902 Z0.574 F1316.571
G1 X-60.527 Y317.070 Z0.558 F1316.571
G1 X-59.724 Y317.165 Z0.543 F1316.571
G1 X-58.915 Y317.188 Z0.528 F1316.571
G1 X-58.107 Y317.139 Z0.513 F1316.571
G1 X-57.307 Y317.017 Z0.498 F1316.571
G1 X-56.522 Y316.824 Z0.483 F1316.571
G1 X-55.756 Y316.561 Z0.468 F1316.571
G1 X-55.018 Y316.230 Z0.453 F1316.571
G1 X-54.312 Y315.835 Z0.438 F1316.571
G1 X-53.644 Y315.378 Z0.423 F1316.571
G1 X-53.021 Y314.863 Z0.407 F1316.571
G1 X-52.445 Y314.293 Z0.392 F1316.571
G1 X-51.924 Y313.675 Z0.377 F1316.571
G1 X-51.265 Y312.692 Z0.355 F1316.566
G1 X-44.280 Y300.593 Z0.094 F1316.575
G1 X-16.034 Y251.670 Z0.094 F1330.000
G0 X-16.034 Y251.670 Z19.095
G0 X-16.034 Y251.670 Z21.095
G0 X-56.062 Y249.000 Z21.095
G0 X-56.062 Y249.000 Z19.095
G1 X-56.062 Y249.000 Z0.094 F200.000
G1 X-82.442 Y294.692 Z0.094 F1330.000
G2 X-79.147 Y306.984 Z0.094 I7.800 J4.496 F1330.000
G1 X-79.148 Y306.986 Z0.094 F1330.000
G1 X-63.560 Y315.986 Z0.094 F1330.000
G2 X-51.265 Y312.692 Z0.094 I4.497 J-7.805 F1330.000
G1 X-44.280 Y300.593 Z0.094 F1330.000
G1 X-44.280 Y300.593 Z16.095 F200.000
G0 X-44.280 Y300.593 Z19.095
G0 X-44.280 Y300.593 Z21.095
(finish operation: DressupTag013)
(begin postamble)
M05
G17 G54 G90 G80 G40
M2
