(Exported by FreeCAD)
(Post Processor: mach3_mach4_post)
(Output Time:2026-05-22 10:00:25.603310)
(begin preamble)
G17 G54 G40 G49 G80 G90
G21
(begin operation: Fixture)
(machine: mach3_4, mm/min)
G54
(finish operation: Fixture)
(begin operation: TC: 6mm Endmill custom002)
(machine: mach3_4, mm/min)
(TC: 6mm Endmill custom002)
M5
M6 T2 
G43 H2
M3 S19000
(finish operation: TC: 6mm Endmill custom002)
(begin operation: Array)
(machine: mach3_4, mm/min)
G0 Z19.095
G0 X-26.000 Y0.000 Z21.095
G0 X-197.902 Y250.000 Z21.095
G0 X-197.902 Y250.000 Z19.095
G1 X-197.902 Y250.000 Z14.154 F200.000
G1 X-197.902 Y312.630 Z11.076 F1294.673
G1 X-197.902 Y312.630 Z11.076 F1294.673
G1 X-197.902 Y313.856 Z11.016 F1294.673
G1 X-197.865 Y314.321 Z10.993 F1294.637
G1 X-197.757 Y314.775 Z10.970 F1294.637
G1 X-197.580 Y315.207 Z10.947 F1294.638
G1 X-197.338 Y315.606 Z10.924 F1294.637
G1 X-197.037 Y315.962 Z10.901 F1294.637
G1 X-196.685 Y316.268 Z10.878 F1294.637
G1 X-196.289 Y316.515 Z10.855 F1294.637
G1 X-195.860 Y316.698 Z10.832 F1294.638
G1 X-195.408 Y316.813 Z10.809 F1294.637
G1 X-194.902 Y316.856 Z10.784 F1294.630
G1 X-184.902 Y316.856 Z10.293 F1294.673
G1 X-184.436 Y316.819 Z10.270 F1294.637
G1 X-183.982 Y316.711 Z10.247 F1294.637
G1 X-183.551 Y316.534 Z10.224 F1294.637
G1 X-183.152 Y316.292 Z10.201 F1294.637
G1 X-182.795 Y315.992 Z10.178 F1294.637
G1 X-182.489 Y315.639 Z10.155 F1294.637
G1 X-182.242 Y315.243 Z10.132 F1294.637
G1 X-182.059 Y314.814 Z10.109 F1294.637
G1 X-182.015 Y314.673 Z10.102 F1294.669
G1 X-181.978 Y314.530 Z10.095 F1294.669
G1 X-181.921 Y314.195 Z10.083 F1306.425
G1 X-181.902 Y313.856 Z10.072 F1306.425
G1 X-181.902 Y291.929 Z9.354 F1306.438
G1 X-181.873 Y291.327 Z9.334 F1306.424
G1 X-181.772 Y290.733 Z9.314 F1306.424
G1 X-181.601 Y290.154 Z9.295 F1306.424
G1 X-181.361 Y289.601 Z9.275 F1306.424
G1 X-181.057 Y289.081 Z9.255 F1306.424
G1 X-180.692 Y288.601 Z9.235 F1306.424
G1 X-180.272 Y288.168 Z9.215 F1306.424
G1 X-179.803 Y287.789 Z9.196 F1306.424
G1 X-179.292 Y287.469 Z9.176 F1306.424
G1 X-178.746 Y287.213 Z9.156 F1306.424
G1 X-178.174 Y287.024 Z9.136 F1306.424
G1 X-177.785 Y286.938 Z9.123 F1306.432
G1 X-177.391 Y286.883 Z9.110 F1306.432
G1 X-176.036 Y286.838 Z9.066 F1306.435
G1 X-174.902 Y286.856 Z9.029 F1306.436
G1 X-174.437 Y286.819 Z9.013 F1306.414
G1 X-173.983 Y286.712 Z8.998 F1306.414
G1 X-173.551 Y286.534 Z8.983 F1306.414
G1 X-173.152 Y286.293 Z8.967 F1306.414
G1 X-172.795 Y285.992 Z8.952 F1306.414
G1 X-172.489 Y285.639 Z8.937 F1306.414
G1 X-172.242 Y285.244 Z8.922 F1306.414
G1 X-172.059 Y284.814 Z8.906 F1306.414
G1 X-171.945 Y284.362 Z8.891 F1306.414
G1 X-171.902 Y283.856 Z8.874 F1306.410
G1 X-171.902 Y250.000 Z7.765 F1306.438
G0 X-171.902 Y250.000 Z19.095
G0 X-171.902 Y250.000 Z21.095
G0 X-197.902 Y250.000 Z21.095
G0 X-197.902 Y250.000 Z19.095
G1 X-197.902 Y250.000 Z6.801 F200.000
G1 X-197.902 Y312.630 Z4.749 F1306.438
G1 X-197.902 Y312.630 Z4.749 F1306.438
G1 X-197.902 Y313.856 Z4.709 F1306.438
G1 X-197.865 Y314.321 Z4.693 F1306.414
G1 X-197.757 Y314.775 Z4.678 F1306.414
G1 X-197.580 Y315.207 Z4.663 F1306.414
G1 X-197.338 Y315.606 Z4.647 F1306.414
G1 X-197.037 Y315.962 Z4.632 F1306.414
G1 X-196.685 Y316.268 Z4.617 F1306.414
G1 X-196.289 Y316.515 Z4.602 F1306.414
G1 X-195.860 Y316.698 Z4.586 F1306.414
G1 X-195.408 Y316.813 Z4.571 F1306.414
G1 X-194.902 Y316.856 Z4.554 F1306.410
G1 X-184.902 Y316.856 Z4.227 F1306.438
G1 X-184.436 Y316.819 Z4.211 F1306.414
G1 X-183.982 Y316.711 Z4.196 F1306.414
G1 X-183.551 Y316.534 Z4.181 F1306.414
G1 X-183.152 Y316.292 Z4.165 F1306.414
G1 X-182.795 Y315.992 Z4.150 F1306.414
G1 X-182.489 Y315.639 Z4.135 F1306.414
G1 X-182.242 Y315.243 Z4.120 F1306.414
G1 X-182.059 Y314.814 Z4.104 F1306.414
G1 X-182.015 Y314.673 Z4.099 F1306.435
G1 X-181.978 Y314.530 Z4.095 F1306.436
G1 X-181.921 Y314.195 Z4.087 F1314.278
G1 X-181.902 Y313.856 Z4.080 F1314.278
G1 X-181.902 Y291.929 Z3.601 F1314.286
G1 X-181.873 Y291.327 Z3.587 F1314.276
G1 X-181.772 Y290.733 Z3.574 F1314.277
G1 X-181.601 Y290.154 Z3.561 F1314.277
G1 X-181.361 Y289.601 Z3.548 F1314.277
G1 X-181.057 Y289.081 Z3.535 F1314.277
G1 X-180.692 Y288.601 Z3.522 F1314.276
G1 X-180.272 Y288.168 Z3.508 F1314.276
G1 X-179.803 Y287.789 Z3.495 F1314.277
G1 X-179.292 Y287.469 Z3.482 F1314.277
G1 X-178.746 Y287.213 Z3.469 F1314.277
G1 X-178.174 Y287.024 Z3.456 F1314.277
G1 X-177.785 Y286.938 Z3.447 F1314.282
G1 X-177.391 Y286.883 Z3.438 F1314.282
G1 X-176.036 Y286.838 Z3.409 F1314.284
G1 X-174.902 Y286.856 Z3.384 F1314.285
G1 X-174.437 Y286.819 Z3.374 F1314.270
G1 X-173.983 Y286.712 Z3.363 F1314.270
G1 X-173.551 Y286.534 Z3.353 F1314.270
G1 X-173.152 Y286.293 Z3.343 F1314.270
G1 X-172.795 Y285.992 Z3.333 F1314.270
G1 X-172.489 Y285.639 Z3.323 F1314.270
G1 X-172.242 Y285.244 Z3.312 F1314.270
G1 X-172.059 Y284.814 Z3.302 F1314.270
G1 X-171.945 Y284.362 Z3.292 F1314.270
G1 X-171.902 Y283.856 Z3.281 F1314.267
G1 X-171.902 Y250.000 Z2.541 F1314.286
G0 X-171.902 Y250.000 Z19.095
G0 X-171.902 Y250.000 Z21.095
G0 X-197.902 Y250.000 Z21.095
G0 X-197.902 Y250.000 Z19.095
G1 X-197.902 Y250.000 Z1.898 F200.000
G1 X-197.902 Y312.630 Z0.530 F1314.286
G1 X-197.902 Y312.630 Z0.530 F1314.286
G1 X-197.902 Y313.856 Z0.503 F1314.286
G1 X-197.865 Y314.321 Z0.493 F1314.270
G1 X-197.757 Y314.775 Z0.483 F1314.270
G1 X-197.580 Y315.207 Z0.473 F1314.270
G1 X-197.338 Y315.606 Z0.463 F1314.270
G1 X-197.037 Y315.962 Z0.452 F1314.270
G1 X-196.685 Y316.268 Z0.442 F1314.270
G1 X-196.289 Y316.515 Z0.432 F1314.270
G1 X-195.860 Y316.698 Z0.422 F1314.270
G1 X-195.408 Y316.813 Z0.412 F1314.270
G1 X-194.902 Y316.856 Z0.400 F1314.267
G1 X-184.902 Y316.856 Z0.182 F1314.286
G1 X-184.436 Y316.819 Z0.172 F1314.270
G1 X-183.982 Y316.711 Z0.162 F1314.270
G1 X-183.551 Y316.534 Z0.151 F1314.270
G1 X-183.152 Y316.292 Z0.141 F1314.270
G1 X-182.795 Y315.992 Z0.131 F1314.270
G1 X-182.489 Y315.639 Z0.121 F1314.270
G1 X-182.242 Y315.243 Z0.110 F1314.270
G1 X-182.059 Y314.814 Z0.100 F1314.270
G1 X-182.015 Y314.673 Z0.097 F1314.284
G1 X-181.978 Y314.530 Z0.094 F1314.285
G2 X-181.902 Y313.856 Z0.094 I-2.923 J-0.675 F1330.000
G1 X-181.902 Y291.929 Z0.094 F1330.000
G3 X-177.391 Y286.883 Z0.094 I5.004 J-0.066 F1330.000
G3 X-174.902 Y286.856 Z0.094 I1.524 J25.249 F1330.000
G2 X-171.902 Y283.856 Z0.094 I0.000 J-3.000 F1330.000
G1 X-171.902 Y250.000 Z0.094 F1330.000
G0 X-171.902 Y250.000 Z19.095
G0 X-171.902 Y250.000 Z21.095
G0 X-197.902 Y250.000 Z21.095
G0 X-197.902 Y250.000 Z19.095
G1 X-197.902 Y250.000 Z0.094 F200.000
G2 X-181.978 Y314.530 Z0.094 I0.000 J-3.000 F1330.000
G1 X-181.978 Y314.530 Z15.093 F200.000
G0 X-181.978 Y314.530 Z19.095
G0 X-181.978 Y314.530 Z21.095
G0 Z19.095
G0 X-52.000 Y0.000 Z21.095
G0 X-223.902 Y250.000 Z21.095
G0 X-223.902 Y250.000 Z19.095
G1 X-223.902 Y250.000 Z14.154 F200.000
G1 X-223.902 Y312.630 Z11.076 F1294.673
G1 X-223.902 Y312.630 Z11.076 F1294.673
G1 X-223.902 Y313.856 Z11.016 F1294.673
G1 X-223.865 Y314.321 Z10.993 F1294.637
G1 X-223.757 Y314.775 Z10.970 F1294.637
G1 X-223.580 Y315.207 Z10.947 F1294.638
G1 X-223.338 Y315.606 Z10.924 F1294.637
G1 X-223.037 Y315.962 Z10.901 F1294.637
G1 X-222.685 Y316.268 Z10.878 F1294.637
G1 X-222.289 Y316.515 Z10.855 F1294.637
G1 X-221.860 Y316.698 Z10.832 F1294.638
G1 X-221.408 Y316.813 Z10.809 F1294.637
G1 X-220.902 Y316.856 Z10.784 F1294.630
G1 X-210.902 Y316.856 Z10.293 F1294.673
G1 X-210.436 Y316.819 Z10.270 F1294.637
G1 X-209.982 Y316.711 Z10.247 F1294.637
G1 X-209.551 Y316.534 Z10.224 F1294.637
G1 X-209.152 Y316.292 Z10.201 F1294.637
G1 X-208.795 Y315.992 Z10.178 F1294.637
G1 X-208.489 Y315.639 Z10.155 F1294.637
G1 X-208.242 Y315.243 Z10.132 F1294.637
G1 X-208.059 Y314.814 Z10.109 F1294.637
G1 X-208.015 Y314.673 Z10.102 F1294.669
G1 X-207.978 Y314.530 Z10.095 F1294.669
G1 X-207.921 Y314.195 Z10.083 F1306.425
G1 X-207.902 Y313.856 Z10.072 F1306.425
G1 X-207.902 Y291.929 Z9.354 F1306.438
G1 X-207.873 Y291.327 Z9.334 F1306.424
G1 X-207.772 Y290.733 Z9.314 F1306.424
G1 X-207.601 Y290.154 Z9.295 F1306.424
G1 X-207.361 Y289.601 Z9.275 F1306.424
G1 X-207.057 Y289.081 Z9.255 F1306.424
G1 X-206.692 Y288.601 Z9.235 F1306.424
G1 X-206.272 Y288.168 Z9.215 F1306.424
G1 X-205.803 Y287.789 Z9.196 F1306.424
G1 X-205.292 Y287.469 Z9.176 F1306.424
G1 X-204.746 Y287.213 Z9.156 F1306.424
G1 X-204.174 Y287.024 Z9.136 F1306.424
G1 X-203.785 Y286.938 Z9.123 F1306.432
G1 X-203.391 Y286.883 Z9.110 F1306.432
G1 X-202.036 Y286.838 Z9.066 F1306.435
G1 X-200.902 Y286.856 Z9.029 F1306.436
G1 X-200.437 Y286.819 Z9.013 F1306.414
G1 X-199.983 Y286.712 Z8.998 F1306.414
G1 X-199.551 Y286.534 Z8.983 F1306.414
G1 X-199.152 Y286.293 Z8.967 F1306.414
G1 X-198.795 Y285.992 Z8.952 F1306.414
G1 X-198.489 Y285.639 Z8.937 F1306.414
G1 X-198.242 Y285.244 Z8.922 F1306.414
G1 X-198.059 Y284.814 Z8.906 F1306.414
G1 X-197.945 Y284.362 Z8.891 F1306.414
G1 X-197.902 Y283.856 Z8.874 F1306.410
G1 X-197.902 Y250.000 Z7.765 F1306.438
G0 X-197.902 Y250.000 Z19.095
G0 X-197.902 Y250.000 Z21.095
G0 X-223.902 Y250.000 Z21.095
G0 X-223.902 Y250.000 Z19.095
G1 X-223.902 Y250.000 Z6.801 F200.000
G1 X-223.902 Y312.630 Z4.749 F1306.438
G1 X-223.902 Y312.630 Z4.749 F1306.438
G1 X-223.902 Y313.856 Z4.709 F1306.438
G1 X-223.865 Y314.321 Z4.693 F1306.414
G1 X-223.757 Y314.775 Z4.678 F1306.414
G1 X-223.580 Y315.207 Z4.663 F1306.414
G1 X-223.338 Y315.606 Z4.647 F1306.414
G1 X-223.037 Y315.962 Z4.632 F1306.414
G1 X-222.685 Y316.268 Z4.617 F1306.414
G1 X-222.289 Y316.515 Z4.602 F1306.414
G1 X-221.860 Y316.698 Z4.586 F1306.414
G1 X-221.408 Y316.813 Z4.571 F1306.414
G1 X-220.902 Y316.856 Z4.554 F1306.410
G1 X-210.902 Y316.856 Z4.227 F1306.438
G1 X-210.436 Y316.819 Z4.211 F1306.414
G1 X-209.982 Y316.711 Z4.196 F1306.414
G1 X-209.551 Y316.534 Z4.181 F1306.414
G1 X-209.152 Y316.292 Z4.165 F1306.414
G1 X-208.795 Y315.992 Z4.150 F1306.414
G1 X-208.489 Y315.639 Z4.135 F1306.414
G1 X-208.242 Y315.243 Z4.120 F1306.414
G1 X-208.059 Y314.814 Z4.104 F1306.414
G1 X-208.015 Y314.673 Z4.099 F1306.435
G1 X-207.978 Y314.530 Z4.095 F1306.436
G1 X-207.921 Y314.195 Z4.087 F1314.278
G1 X-207.902 Y313.856 Z4.080 F1314.278
G1 X-207.902 Y291.929 Z3.601 F1314.286
G1 X-207.873 Y291.327 Z3.587 F1314.276
G1 X-207.772 Y290.733 Z3.574 F1314.277
G1 X-207.601 Y290.154 Z3.561 F1314.277
G1 X-207.361 Y289.601 Z3.548 F1314.277
G1 X-207.057 Y289.081 Z3.535 F1314.277
G1 X-206.692 Y288.601 Z3.522 F1314.276
G1 X-206.272 Y288.168 Z3.508 F1314.276
G1 X-205.803 Y287.789 Z3.495 F1314.277
G1 X-205.292 Y287.469 Z3.482 F1314.277
G1 X-204.746 Y287.213 Z3.469 F1314.277
G1 X-204.174 Y287.024 Z3.456 F1314.277
G1 X-203.785 Y286.938 Z3.447 F1314.282
G1 X-203.391 Y286.883 Z3.438 F1314.282
G1 X-202.036 Y286.838 Z3.409 F1314.284
G1 X-200.902 Y286.856 Z3.384 F1314.285
G1 X-200.437 Y286.819 Z3.374 F1314.270
G1 X-199.983 Y286.712 Z3.363 F1314.270
G1 X-199.551 Y286.534 Z3.353 F1314.270
G1 X-199.152 Y286.293 Z3.343 F1314.270
G1 X-198.795 Y285.992 Z3.333 F1314.270
G1 X-198.489 Y285.639 Z3.323 F1314.270
G1 X-198.242 Y285.244 Z3.312 F1314.270
G1 X-198.059 Y284.814 Z3.302 F1314.270
G1 X-197.945 Y284.362 Z3.292 F1314.270
G1 X-197.902 Y283.856 Z3.281 F1314.267
G1 X-197.902 Y250.000 Z2.541 F1314.286
G0 X-197.902 Y250.000 Z19.095
G0 X-197.902 Y250.000 Z21.095
G0 X-223.902 Y250.000 Z21.095
G0 X-223.902 Y250.000 Z19.095
G1 X-223.902 Y250.000 Z1.898 F200.000
G1 X-223.902 Y312.630 Z0.530 F1314.286
G1 X-223.902 Y312.630 Z0.530 F1314.286
G1 X-223.902 Y313.856 Z0.503 F1314.286
G1 X-223.865 Y314.321 Z0.493 F1314.270
G1 X-223.757 Y314.775 Z0.483 F1314.270
G1 X-223.580 Y315.207 Z0.473 F1314.270
G1 X-223.338 Y315.606 Z0.463 F1314.270
G1 X-223.037 Y315.962 Z0.452 F1314.270
G1 X-222.685 Y316.268 Z0.442 F1314.270
G1 X-222.289 Y316.515 Z0.432 F1314.270
G1 X-221.860 Y316.698 Z0.422 F1314.270
G1 X-221.408 Y316.813 Z0.412 F1314.270
G1 X-220.902 Y316.856 Z0.400 F1314.267
G1 X-210.902 Y316.856 Z0.182 F1314.286
G1 X-210.436 Y316.819 Z0.172 F1314.270
G1 X-209.982 Y316.711 Z0.162 F1314.270
G1 X-209.551 Y316.534 Z0.151 F1314.270
G1 X-209.152 Y316.292 Z0.141 F1314.270
G1 X-208.795 Y315.992 Z0.131 F1314.270
G1 X-208.489 Y315.639 Z0.121 F1314.270
G1 X-208.242 Y315.243 Z0.110 F1314.270
G1 X-208.059 Y314.814 Z0.100 F1314.270
G1 X-208.015 Y314.673 Z0.097 F1314.284
G1 X-207.978 Y314.530 Z0.094 F1314.285
G2 X-207.902 Y313.856 Z0.094 I-2.923 J-0.675 F1330.000
G1 X-207.902 Y291.929 Z0.094 F1330.000
G3 X-203.391 Y286.883 Z0.094 I5.004 J-0.066 F1330.000
G3 X-200.902 Y286.856 Z0.094 I1.524 J25.249 F1330.000
G2 X-197.902 Y283.856 Z0.094 I0.000 J-3.000 F1330.000
G1 X-197.902 Y250.000 Z0.094 F1330.000
G0 X-197.902 Y250.000 Z19.095
G0 X-197.902 Y250.000 Z21.095
G0 X-223.902 Y250.000 Z21.095
G0 X-223.902 Y250.000 Z19.095
G1 X-223.902 Y250.000 Z0.094 F200.000
G2 X-207.978 Y314.530 Z0.094 I0.000 J-3.000 F1330.000
G1 X-207.978 Y314.530 Z15.093 F200.000
G0 X-207.978 Y314.530 Z19.095
G0 X-207.978 Y314.530 Z21.095
G0 Z19.095
G0 X-78.000 Y0.000 Z21.095
G0 X-249.902 Y250.000 Z21.095
G0 X-249.902 Y250.000 Z19.095
G1 X-249.902 Y250.000 Z14.154 F200.000
G1 X-249.902 Y312.630 Z11.076 F1294.673
G1 X-249.902 Y312.630 Z11.076 F1294.673
G1 X-249.902 Y313.856 Z11.016 F1294.673
G1 X-249.865 Y314.321 Z10.993 F1294.637
G1 X-249.757 Y314.775 Z10.970 F1294.637
G1 X-249.580 Y315.207 Z10.947 F1294.638
G1 X-249.338 Y315.606 Z10.924 F1294.637
G1 X-249.037 Y315.962 Z10.901 F1294.637
G1 X-248.685 Y316.268 Z10.878 F1294.637
G1 X-248.289 Y316.515 Z10.855 F1294.637
G1 X-247.860 Y316.698 Z10.832 F1294.638
G1 X-247.408 Y316.813 Z10.809 F1294.637
G1 X-246.902 Y316.856 Z10.784 F1294.630
G1 X-236.902 Y316.856 Z10.293 F1294.673
G1 X-236.436 Y316.819 Z10.270 F1294.637
G1 X-235.982 Y316.711 Z10.247 F1294.637
G1 X-235.551 Y316.534 Z10.224 F1294.637
G1 X-235.152 Y316.292 Z10.201 F1294.637
G1 X-234.795 Y315.992 Z10.178 F1294.637
G1 X-234.489 Y315.639 Z10.155 F1294.637
G1 X-234.242 Y315.243 Z10.132 F1294.637
G1 X-234.059 Y314.814 Z10.109 F1294.637
G1 X-234.015 Y314.673 Z10.102 F1294.669
G1 X-233.978 Y314.530 Z10.095 F1294.669
G1 X-233.921 Y314.195 Z10.083 F1306.425
G1 X-233.902 Y313.856 Z10.072 F1306.425
G1 X-233.902 Y291.929 Z9.354 F1306.438
G1 X-233.873 Y291.327 Z9.334 F1306.424
G1 X-233.772 Y290.733 Z9.314 F1306.424
G1 X-233.601 Y290.154 Z9.295 F1306.424
G1 X-233.361 Y289.601 Z9.275 F1306.424
G1 X-233.057 Y289.081 Z9.255 F1306.424
G1 X-232.692 Y288.601 Z9.235 F1306.424
G1 X-232.272 Y288.168 Z9.215 F1306.424
G1 X-231.803 Y287.789 Z9.196 F1306.424
G1 X-231.292 Y287.469 Z9.176 F1306.424
G1 X-230.746 Y287.213 Z9.156 F1306.424
G1 X-230.174 Y287.024 Z9.136 F1306.424
G1 X-229.785 Y286.938 Z9.123 F1306.432
G1 X-229.391 Y286.883 Z9.110 F1306.432
G1 X-228.036 Y286.838 Z9.066 F1306.435
G1 X-226.902 Y286.856 Z9.029 F1306.436
G1 X-226.437 Y286.819 Z9.013 F1306.414
G1 X-225.983 Y286.712 Z8.998 F1306.414
G1 X-225.551 Y286.534 Z8.983 F1306.414
G1 X-225.152 Y286.293 Z8.967 F1306.414
G1 X-224.795 Y285.992 Z8.952 F1306.414
G1 X-224.489 Y285.639 Z8.937 F1306.414
G1 X-224.242 Y285.244 Z8.922 F1306.414
G1 X-224.059 Y284.814 Z8.906 F1306.414
G1 X-223.945 Y284.362 Z8.891 F1306.414
G1 X-223.902 Y283.856 Z8.874 F1306.410
G1 X-223.902 Y250.000 Z7.765 F1306.438
G0 X-223.902 Y250.000 Z19.095
G0 X-223.902 Y250.000 Z21.095
G0 X-249.902 Y250.000 Z21.095
G0 X-249.902 Y250.000 Z19.095
G1 X-249.902 Y250.000 Z6.801 F200.000
G1 X-249.902 Y312.630 Z4.749 F1306.438
G1 X-249.902 Y312.630 Z4.749 F1306.438
G1 X-249.902 Y313.856 Z4.709 F1306.438
G1 X-249.865 Y314.321 Z4.693 F1306.414
G1 X-249.757 Y314.775 Z4.678 F1306.414
G1 X-249.580 Y315.207 Z4.663 F1306.414
G1 X-249.338 Y315.606 Z4.647 F1306.414
G1 X-249.037 Y315.962 Z4.632 F1306.414
G1 X-248.685 Y316.268 Z4.617 F1306.414
G1 X-248.289 Y316.515 Z4.602 F1306.414
G1 X-247.860 Y316.698 Z4.586 F1306.414
G1 X-247.408 Y316.813 Z4.571 F1306.414
G1 X-246.902 Y316.856 Z4.554 F1306.410
G1 X-236.902 Y316.856 Z4.227 F1306.438
G1 X-236.436 Y316.819 Z4.211 F1306.414
G1 X-235.982 Y316.711 Z4.196 F1306.414
G1 X-235.551 Y316.534 Z4.181 F1306.414
G1 X-235.152 Y316.292 Z4.165 F1306.414
G1 X-234.795 Y315.992 Z4.150 F1306.414
G1 X-234.489 Y315.639 Z4.135 F1306.414
G1 X-234.242 Y315.243 Z4.120 F1306.414
G1 X-234.059 Y314.814 Z4.104 F1306.414
G1 X-234.015 Y314.673 Z4.099 F1306.435
G1 X-233.978 Y314.530 Z4.095 F1306.436
G1 X-233.921 Y314.195 Z4.087 F1314.278
G1 X-233.902 Y313.856 Z4.080 F1314.278
G1 X-233.902 Y291.929 Z3.601 F1314.286
G1 X-233.873 Y291.327 Z3.587 F1314.276
G1 X-233.772 Y290.733 Z3.574 F1314.277
G1 X-233.601 Y290.154 Z3.561 F1314.277
G1 X-233.361 Y289.601 Z3.548 F1314.277
G1 X-233.057 Y289.081 Z3.535 F1314.277
G1 X-232.692 Y288.601 Z3.522 F1314.276
G1 X-232.272 Y288.168 Z3.508 F1314.276
G1 X-231.803 Y287.789 Z3.495 F1314.277
G1 X-231.292 Y287.469 Z3.482 F1314.277
G1 X-230.746 Y287.213 Z3.469 F1314.277
G1 X-230.174 Y287.024 Z3.456 F1314.277
G1 X-229.785 Y286.938 Z3.447 F1314.282
G1 X-229.391 Y286.883 Z3.438 F1314.282
G1 X-228.036 Y286.838 Z3.409 F1314.284
G1 X-226.902 Y286.856 Z3.384 F1314.285
G1 X-226.437 Y286.819 Z3.374 F1314.270
G1 X-225.983 Y286.712 Z3.363 F1314.270
G1 X-225.551 Y286.534 Z3.353 F1314.270
G1 X-225.152 Y286.293 Z3.343 F1314.270
G1 X-224.795 Y285.992 Z3.333 F1314.270
G1 X-224.489 Y285.639 Z3.323 F1314.270
G1 X-224.242 Y285.244 Z3.312 F1314.270
G1 X-224.059 Y284.814 Z3.302 F1314.270
G1 X-223.945 Y284.362 Z3.292 F1314.270
G1 X-223.902 Y283.856 Z3.281 F1314.267
G1 X-223.902 Y250.000 Z2.541 F1314.286
G0 X-223.902 Y250.000 Z19.095
G0 X-223.902 Y250.000 Z21.095
G0 X-249.902 Y250.000 Z21.095
G0 X-249.902 Y250.000 Z19.095
G1 X-249.902 Y250.000 Z1.898 F200.000
G1 X-249.902 Y312.630 Z0.530 F1314.286
G1 X-249.902 Y312.630 Z0.530 F1314.286
G1 X-249.902 Y313.856 Z0.503 F1314.286
G1 X-249.865 Y314.321 Z0.493 F1314.270
G1 X-249.757 Y314.775 Z0.483 F1314.270
G1 X-249.580 Y315.207 Z0.473 F1314.270
G1 X-249.338 Y315.606 Z0.463 F1314.270
G1 X-249.037 Y315.962 Z0.452 F1314.270
G1 X-248.685 Y316.268 Z0.442 F1314.270
G1 X-248.289 Y316.515 Z0.432 F1314.270
G1 X-247.860 Y316.698 Z0.422 F1314.270
G1 X-247.408 Y316.813 Z0.412 F1314.270
G1 X-246.902 Y316.856 Z0.400 F1314.267
G1 X-236.902 Y316.856 Z0.182 F1314.286
G1 X-236.436 Y316.819 Z0.172 F1314.270
G1 X-235.982 Y316.711 Z0.162 F1314.270
G1 X-235.551 Y316.534 Z0.151 F1314.270
G1 X-235.152 Y316.292 Z0.141 F1314.270
G1 X-234.795 Y315.992 Z0.131 F1314.270
G1 X-234.489 Y315.639 Z0.121 F1314.270
G1 X-234.242 Y315.243 Z0.110 F1314.270
G1 X-234.059 Y314.814 Z0.100 F1314.270
G1 X-234.015 Y314.673 Z0.097 F1314.284
G1 X-233.978 Y314.530 Z0.094 F1314.285
G2 X-233.902 Y313.856 Z0.094 I-2.923 J-0.675 F1330.000
G1 X-233.902 Y291.929 Z0.094 F1330.000
G3 X-229.391 Y286.883 Z0.094 I5.004 J-0.066 F1330.000
G3 X-226.902 Y286.856 Z0.094 I1.524 J25.249 F1330.000
G2 X-223.902 Y283.856 Z0.094 I0.000 J-3.000 F1330.000
G1 X-223.902 Y250.000 Z0.094 F1330.000
G0 X-223.902 Y250.000 Z19.095
G0 X-223.902 Y250.000 Z21.095
G0 X-249.902 Y250.000 Z21.095
G0 X-249.902 Y250.000 Z19.095
G1 X-249.902 Y250.000 Z0.094 F200.000
G2 X-233.978 Y314.530 Z0.094 I0.000 J-3.000 F1330.000
G1 X-233.978 Y314.530 Z15.093 F200.000
G0 X-233.978 Y314.530 Z19.095
G0 X-233.978 Y314.530 Z21.095
G0 Z19.095
G0 X-104.000 Y0.000 Z21.095
G0 X-275.902 Y250.000 Z21.095
G0 X-275.902 Y250.000 Z19.095
G1 X-275.902 Y250.000 Z14.154 F200.000
G1 X-275.902 Y312.630 Z11.076 F1294.673
G1 X-275.902 Y312.630 Z11.076 F1294.673
G1 X-275.902 Y313.856 Z11.016 F1294.673
G1 X-275.865 Y314.321 Z10.993 F1294.637
G1 X-275.757 Y314.775 Z10.970 F1294.637
G1 X-275.580 Y315.207 Z10.947 F1294.638
G1 X-275.338 Y315.606 Z10.924 F1294.637
G1 X-275.037 Y315.962 Z10.901 F1294.637
G1 X-274.685 Y316.268 Z10.878 F1294.637
G1 X-274.289 Y316.515 Z10.855 F1294.637
G1 X-273.860 Y316.698 Z10.832 F1294.638
G1 X-273.408 Y316.813 Z10.809 F1294.637
G1 X-272.902 Y316.856 Z10.784 F1294.630
G1 X-262.902 Y316.856 Z10.293 F1294.673
G1 X-262.436 Y316.819 Z10.270 F1294.637
G1 X-261.982 Y316.711 Z10.247 F1294.637
G1 X-261.551 Y316.534 Z10.224 F1294.637
G1 X-261.152 Y316.292 Z10.201 F1294.637
G1 X-260.795 Y315.992 Z10.178 F1294.637
G1 X-260.489 Y315.639 Z10.155 F1294.637
G1 X-260.242 Y315.243 Z10.132 F1294.637
G1 X-260.059 Y314.814 Z10.109 F1294.637
G1 X-260.015 Y314.673 Z10.102 F1294.669
G1 X-259.978 Y314.530 Z10.095 F1294.669
G1 X-259.921 Y314.195 Z10.083 F1306.425
G1 X-259.902 Y313.856 Z10.072 F1306.425
G1 X-259.902 Y291.929 Z9.354 F1306.438
G1 X-259.873 Y291.327 Z9.334 F1306.424
G1 X-259.772 Y290.733 Z9.314 F1306.424
G1 X-259.601 Y290.154 Z9.295 F1306.424
G1 X-259.361 Y289.601 Z9.275 F1306.424
G1 X-259.057 Y289.081 Z9.255 F1306.424
G1 X-258.692 Y288.601 Z9.235 F1306.424
G1 X-258.272 Y288.168 Z9.215 F1306.424
G1 X-257.803 Y287.789 Z9.196 F1306.424
G1 X-257.292 Y287.469 Z9.176 F1306.424
G1 X-256.746 Y287.213 Z9.156 F1306.424
G1 X-256.174 Y287.024 Z9.136 F1306.424
G1 X-255.785 Y286.938 Z9.123 F1306.432
G1 X-255.391 Y286.883 Z9.110 F1306.432
G1 X-254.036 Y286.838 Z9.066 F1306.435
G1 X-252.902 Y286.856 Z9.029 F1306.436
G1 X-252.437 Y286.819 Z9.013 F1306.414
G1 X-251.983 Y286.712 Z8.998 F1306.414
G1 X-251.551 Y286.534 Z8.983 F1306.414
G1 X-251.152 Y286.293 Z8.967 F1306.414
G1 X-250.795 Y285.992 Z8.952 F1306.414
G1 X-250.489 Y285.639 Z8.937 F1306.414
G1 X-250.242 Y285.244 Z8.922 F1306.414
G1 X-250.059 Y284.814 Z8.906 F1306.414
G1 X-249.945 Y284.362 Z8.891 F1306.414
G1 X-249.902 Y283.856 Z8.874 F1306.410
G1 X-249.902 Y250.000 Z7.765 F1306.438
G0 X-249.902 Y250.000 Z19.095
G0 X-249.902 Y250.000 Z21.095
G0 X-275.902 Y250.000 Z21.095
G0 X-275.902 Y250.000 Z19.095
G1 X-275.902 Y250.000 Z6.801 F200.000
G1 X-275.902 Y312.630 Z4.749 F1306.438
G1 X-275.902 Y312.630 Z4.749 F1306.438
G1 X-275.902 Y313.856 Z4.709 F1306.438
G1 X-275.865 Y314.321 Z4.693 F1306.414
G1 X-275.757 Y314.775 Z4.678 F1306.414
G1 X-275.580 Y315.207 Z4.663 F1306.414
G1 X-275.338 Y315.606 Z4.647 F1306.414
G1 X-275.037 Y315.962 Z4.632 F1306.414
G1 X-274.685 Y316.268 Z4.617 F1306.414
G1 X-274.289 Y316.515 Z4.602 F1306.414
G1 X-273.860 Y316.698 Z4.586 F1306.414
G1 X-273.408 Y316.813 Z4.571 F1306.414
G1 X-272.902 Y316.856 Z4.554 F1306.410
G1 X-262.902 Y316.856 Z4.227 F1306.438
G1 X-262.436 Y316.819 Z4.211 F1306.414
G1 X-261.982 Y316.711 Z4.196 F1306.414
G1 X-261.551 Y316.534 Z4.181 F1306.414
G1 X-261.152 Y316.292 Z4.165 F1306.414
G1 X-260.795 Y315.992 Z4.150 F1306.414
G1 X-260.489 Y315.639 Z4.135 F1306.414
G1 X-260.242 Y315.243 Z4.120 F1306.414
G1 X-260.059 Y314.814 Z4.104 F1306.414
G1 X-260.015 Y314.673 Z4.099 F1306.435
G1 X-259.978 Y314.530 Z4.095 F1306.436
G1 X-259.921 Y314.195 Z4.087 F1314.278
G1 X-259.902 Y313.856 Z4.080 F1314.278
G1 X-259.902 Y291.929 Z3.601 F1314.286
G1 X-259.873 Y291.327 Z3.587 F1314.276
G1 X-259.772 Y290.733 Z3.574 F1314.277
G1 X-259.601 Y290.154 Z3.561 F1314.277
G1 X-259.361 Y289.601 Z3.548 F1314.277
G1 X-259.057 Y289.081 Z3.535 F1314.277
G1 X-258.692 Y288.601 Z3.522 F1314.276
G1 X-258.272 Y288.168 Z3.508 F1314.276
G1 X-257.803 Y287.789 Z3.495 F1314.277
G1 X-257.292 Y287.469 Z3.482 F1314.277
G1 X-256.746 Y287.213 Z3.469 F1314.277
G1 X-256.174 Y287.024 Z3.456 F1314.277
G1 X-255.785 Y286.938 Z3.447 F1314.282
G1 X-255.391 Y286.883 Z3.438 F1314.282
G1 X-254.036 Y286.838 Z3.409 F1314.284
G1 X-252.902 Y286.856 Z3.384 F1314.285
G1 X-252.437 Y286.819 Z3.374 F1314.270
G1 X-251.983 Y286.712 Z3.363 F1314.270
G1 X-251.551 Y286.534 Z3.353 F1314.270
G1 X-251.152 Y286.293 Z3.343 F1314.270
G1 X-250.795 Y285.992 Z3.333 F1314.270
G1 X-250.489 Y285.639 Z3.323 F1314.270
G1 X-250.242 Y285.244 Z3.312 F1314.270
G1 X-250.059 Y284.814 Z3.302 F1314.270
G1 X-249.945 Y284.362 Z3.292 F1314.270
G1 X-249.902 Y283.856 Z3.281 F1314.267
G1 X-249.902 Y250.000 Z2.541 F1314.286
G0 X-249.902 Y250.000 Z19.095
G0 X-249.902 Y250.000 Z21.095
G0 X-275.902 Y250.000 Z21.095
G0 X-275.902 Y250.000 Z19.095
G1 X-275.902 Y250.000 Z1.898 F200.000
G1 X-275.902 Y312.630 Z0.530 F1314.286
G1 X-275.902 Y312.630 Z0.530 F1314.286
G1 X-275.902 Y313.856 Z0.503 F1314.286
G1 X-275.865 Y314.321 Z0.493 F1314.270
G1 X-275.757 Y314.775 Z0.483 F1314.270
G1 X-275.580 Y315.207 Z0.473 F1314.270
G1 X-275.338 Y315.606 Z0.463 F1314.270
G1 X-275.037 Y315.962 Z0.452 F1314.270
G1 X-274.685 Y316.268 Z0.442 F1314.270
G1 X-274.289 Y316.515 Z0.432 F1314.270
G1 X-273.860 Y316.698 Z0.422 F1314.270
G1 X-273.408 Y316.813 Z0.412 F1314.270
G1 X-272.902 Y316.856 Z0.400 F1314.267
G1 X-262.902 Y316.856 Z0.182 F1314.286
G1 X-262.436 Y316.819 Z0.172 F1314.270
G1 X-261.982 Y316.711 Z0.162 F1314.270
G1 X-261.551 Y316.534 Z0.151 F1314.270
G1 X-261.152 Y316.292 Z0.141 F1314.270
G1 X-260.795 Y315.992 Z0.131 F1314.270
G1 X-260.489 Y315.639 Z0.121 F1314.270
G1 X-260.242 Y315.243 Z0.110 F1314.270
G1 X-260.059 Y314.814 Z0.100 F1314.270
G1 X-260.015 Y314.673 Z0.097 F1314.284
G1 X-259.978 Y314.530 Z0.094 F1314.285
G2 X-259.902 Y313.856 Z0.094 I-2.923 J-0.675 F1330.000
G1 X-259.902 Y291.929 Z0.094 F1330.000
G3 X-255.391 Y286.883 Z0.094 I5.004 J-0.066 F1330.000
G3 X-252.902 Y286.856 Z0.094 I1.524 J25.249 F1330.000
G2 X-249.902 Y283.856 Z0.094 I0.000 J-3.000 F1330.000
G1 X-249.902 Y250.000 Z0.094 F1330.000
G0 X-249.902 Y250.000 Z19.095
G0 X-249.902 Y250.000 Z21.095
G0 X-275.902 Y250.000 Z21.095
G0 X-275.902 Y250.000 Z19.095
G1 X-275.902 Y250.000 Z0.094 F200.000
G2 X-259.978 Y314.530 Z0.094 I0.000 J-3.000 F1330.000
G1 X-259.978 Y314.530 Z15.093 F200.000
G0 X-259.978 Y314.530 Z19.095
G0 X-259.978 Y314.530 Z21.095
G0 Z19.095
G0 X-130.000 Y0.000 Z21.095
G0 X-301.902 Y250.000 Z21.095
G0 X-301.902 Y250.000 Z19.095
G1 X-301.902 Y250.000 Z14.154 F200.000
G1 X-301.902 Y312.630 Z11.076 F1294.673
G1 X-301.902 Y312.630 Z11.076 F1294.673
G1 X-301.902 Y313.856 Z11.016 F1294.673
G1 X-301.865 Y314.321 Z10.993 F1294.637
G1 X-301.757 Y314.775 Z10.970 F1294.637
G1 X-301.580 Y315.207 Z10.947 F1294.638
G1 X-301.338 Y315.606 Z10.924 F1294.637
G1 X-301.037 Y315.962 Z10.901 F1294.637
G1 X-300.685 Y316.268 Z10.878 F1294.637
G1 X-300.289 Y316.515 Z10.855 F1294.637
G1 X-299.860 Y316.698 Z10.832 F1294.638
G1 X-299.408 Y316.813 Z10.809 F1294.637
G1 X-298.902 Y316.856 Z10.784 F1294.630
G1 X-288.902 Y316.856 Z10.293 F1294.673
G1 X-288.436 Y316.819 Z10.270 F1294.637
G1 X-287.982 Y316.711 Z10.247 F1294.637
G1 X-287.551 Y316.534 Z10.224 F1294.637
G1 X-287.152 Y316.292 Z10.201 F1294.637
G1 X-286.795 Y315.992 Z10.178 F1294.637
G1 X-286.489 Y315.639 Z10.155 F1294.637
G1 X-286.242 Y315.243 Z10.132 F1294.637
G1 X-286.059 Y314.814 Z10.109 F1294.637
G1 X-286.015 Y314.673 Z10.102 F1294.669
G1 X-285.978 Y314.530 Z10.095 F1294.669
G1 X-285.921 Y314.195 Z10.083 F1306.425
G1 X-285.902 Y313.856 Z10.072 F1306.425
G1 X-285.902 Y291.929 Z9.354 F1306.438
G1 X-285.873 Y291.327 Z9.334 F1306.424
G1 X-285.772 Y290.733 Z9.314 F1306.424
G1 X-285.601 Y290.154 Z9.295 F1306.424
G1 X-285.361 Y289.601 Z9.275 F1306.424
G1 X-285.057 Y289.081 Z9.255 F1306.424
G1 X-284.692 Y288.601 Z9.235 F1306.424
G1 X-284.272 Y288.168 Z9.215 F1306.424
G1 X-283.803 Y287.789 Z9.196 F1306.424
G1 X-283.292 Y287.469 Z9.176 F1306.424
G1 X-282.746 Y287.213 Z9.156 F1306.424
G1 X-282.174 Y287.024 Z9.136 F1306.424
G1 X-281.785 Y286.938 Z9.123 F1306.432
G1 X-281.391 Y286.883 Z9.110 F1306.432
G1 X-280.036 Y286.838 Z9.066 F1306.435
G1 X-278.902 Y286.856 Z9.029 F1306.436
G1 X-278.437 Y286.819 Z9.013 F1306.414
G1 X-277.983 Y286.712 Z8.998 F1306.414
G1 X-277.551 Y286.534 Z8.983 F1306.414
G1 X-277.152 Y286.293 Z8.967 F1306.414
G1 X-276.795 Y285.992 Z8.952 F1306.414
G1 X-276.489 Y285.639 Z8.937 F1306.414
G1 X-276.242 Y285.244 Z8.922 F1306.414
G1 X-276.059 Y284.814 Z8.906 F1306.414
G1 X-275.945 Y284.362 Z8.891 F1306.414
G1 X-275.902 Y283.856 Z8.874 F1306.410
G1 X-275.902 Y250.000 Z7.765 F1306.438
G0 X-275.902 Y250.000 Z19.095
G0 X-275.902 Y250.000 Z21.095
G0 X-301.902 Y250.000 Z21.095
G0 X-301.902 Y250.000 Z19.095
G1 X-301.902 Y250.000 Z6.801 F200.000
G1 X-301.902 Y312.630 Z4.749 F1306.438
G1 X-301.902 Y312.630 Z4.749 F1306.438
G1 X-301.902 Y313.856 Z4.709 F1306.438
G1 X-301.865 Y314.321 Z4.693 F1306.414
G1 X-301.757 Y314.775 Z4.678 F1306.414
G1 X-301.580 Y315.207 Z4.663 F1306.414
G1 X-301.338 Y315.606 Z4.647 F1306.414
G1 X-301.037 Y315.962 Z4.632 F1306.414
G1 X-300.685 Y316.268 Z4.617 F1306.414
G1 X-300.289 Y316.515 Z4.602 F1306.414
G1 X-299.860 Y316.698 Z4.586 F1306.414
G1 X-299.408 Y316.813 Z4.571 F1306.414
G1 X-298.902 Y316.856 Z4.554 F1306.410
G1 X-288.902 Y316.856 Z4.227 F1306.438
G1 X-288.436 Y316.819 Z4.211 F1306.414
G1 X-287.982 Y316.711 Z4.196 F1306.414
G1 X-287.551 Y316.534 Z4.181 F1306.414
G1 X-287.152 Y316.292 Z4.165 F1306.414
G1 X-286.795 Y315.992 Z4.150 F1306.414
G1 X-286.489 Y315.639 Z4.135 F1306.414
G1 X-286.242 Y315.243 Z4.120 F1306.414
G1 X-286.059 Y314.814 Z4.104 F1306.414
G1 X-286.015 Y314.673 Z4.099 F1306.435
G1 X-285.978 Y314.530 Z4.095 F1306.436
G1 X-285.921 Y314.195 Z4.087 F1314.278
G1 X-285.902 Y313.856 Z4.080 F1314.278
G1 X-285.902 Y291.929 Z3.601 F1314.286
G1 X-285.873 Y291.327 Z3.587 F1314.276
G1 X-285.772 Y290.733 Z3.574 F1314.277
G1 X-285.601 Y290.154 Z3.561 F1314.277
G1 X-285.361 Y289.601 Z3.548 F1314.277
G1 X-285.057 Y289.081 Z3.535 F1314.277
G1 X-284.692 Y288.601 Z3.522 F1314.276
G1 X-284.272 Y288.168 Z3.508 F1314.276
G1 X-283.803 Y287.789 Z3.495 F1314.277
G1 X-283.292 Y287.469 Z3.482 F1314.277
G1 X-282.746 Y287.213 Z3.469 F1314.277
G1 X-282.174 Y287.024 Z3.456 F1314.277
G1 X-281.785 Y286.938 Z3.447 F1314.282
G1 X-281.391 Y286.883 Z3.438 F1314.282
G1 X-280.036 Y286.838 Z3.409 F1314.284
G1 X-278.902 Y286.856 Z3.384 F1314.285
G1 X-278.437 Y286.819 Z3.374 F1314.270
G1 X-277.983 Y286.712 Z3.363 F1314.270
G1 X-277.551 Y286.534 Z3.353 F1314.270
G1 X-277.152 Y286.293 Z3.343 F1314.270
G1 X-276.795 Y285.992 Z3.333 F1314.270
G1 X-276.489 Y285.639 Z3.323 F1314.270
G1 X-276.242 Y285.244 Z3.312 F1314.270
G1 X-276.059 Y284.814 Z3.302 F1314.270
G1 X-275.945 Y284.362 Z3.292 F1314.270
G1 X-275.902 Y283.856 Z3.281 F1314.267
G1 X-275.902 Y250.000 Z2.541 F1314.286
G0 X-275.902 Y250.000 Z19.095
G0 X-275.902 Y250.000 Z21.095
G0 X-301.902 Y250.000 Z21.095
G0 X-301.902 Y250.000 Z19.095
G1 X-301.902 Y250.000 Z1.898 F200.000
G1 X-301.902 Y312.630 Z0.530 F1314.286
G1 X-301.902 Y312.630 Z0.530 F1314.286
G1 X-301.902 Y313.856 Z0.503 F1314.286
G1 X-301.865 Y314.321 Z0.493 F1314.270
G1 X-301.757 Y314.775 Z0.483 F1314.270
G1 X-301.580 Y315.207 Z0.473 F1314.270
G1 X-301.338 Y315.606 Z0.463 F1314.270
G1 X-301.037 Y315.962 Z0.452 F1314.270
G1 X-300.685 Y316.268 Z0.442 F1314.270
G1 X-300.289 Y316.515 Z0.432 F1314.270
G1 X-299.860 Y316.698 Z0.422 F1314.270
G1 X-299.408 Y316.813 Z0.412 F1314.270
G1 X-298.902 Y316.856 Z0.400 F1314.267
G1 X-288.902 Y316.856 Z0.182 F1314.286
G1 X-288.436 Y316.819 Z0.172 F1314.270
G1 X-287.982 Y316.711 Z0.162 F1314.270
G1 X-287.551 Y316.534 Z0.151 F1314.270
G1 X-287.152 Y316.292 Z0.141 F1314.270
G1 X-286.795 Y315.992 Z0.131 F1314.270
G1 X-286.489 Y315.639 Z0.121 F1314.270
G1 X-286.242 Y315.243 Z0.110 F1314.270
G1 X-286.059 Y314.814 Z0.100 F1314.270
G1 X-286.015 Y314.673 Z0.097 F1314.284
G1 X-285.978 Y314.530 Z0.094 F1314.285
G2 X-285.902 Y313.856 Z0.094 I-2.923 J-0.675 F1330.000
G1 X-285.902 Y291.929 Z0.094 F1330.000
G3 X-281.391 Y286.883 Z0.094 I5.004 J-0.066 F1330.000
G3 X-278.902 Y286.856 Z0.094 I1.524 J25.249 F1330.000
G2 X-275.902 Y283.856 Z0.094 I0.000 J-3.000 F1330.000
G1 X-275.902 Y250.000 Z0.094 F1330.000
G0 X-275.902 Y250.000 Z19.095
G0 X-275.902 Y250.000 Z21.095
G0 X-301.902 Y250.000 Z21.095
G0 X-301.902 Y250.000 Z19.095
G1 X-301.902 Y250.000 Z0.094 F200.000
G2 X-285.978 Y314.530 Z0.094 I0.000 J-3.000 F1330.000
G1 X-285.978 Y314.530 Z15.093 F200.000
G0 X-285.978 Y314.530 Z19.095
G0 X-285.978 Y314.530 Z21.095
(finish operation: Array)
(begin postamble)
M05
G17 G54 G90 G80 G40
M2
