(Exported by FreeCAD)
(Post Processor: mach3_mach4_post)
(Output Time:2026-05-22 10:00:25.603310)
(begin preamble)
G17 G54 G40 G49 G80 G90
G21
(begin operation: Fixture)
(machine: mach3_4, mm/min)
G54
(finish operation: Fixture)
(begin operation: TC: 6mm Endmill custom002)
(machine: mach3_4, mm/min)
(TC: 6mm Endmill custom002)
M5
M6 T2 
G43 H2
M3 S19000
(finish operation: TC: 6mm Endmill custom002)
(begin operation: DressupTag012)
(machine: mach3_4, mm/min)
G0 Z19.095
G0 X0.000 Y0.000 Z21.095
G0 X-129.009 Y260.188 Z21.095
G0 X-129.009 Y260.188 Z19.095
G1 X-129.009 Y260.188 Z16.095 F200.000
G1 X-128.842 Y250.049 Z15.555 F1291.756
G1 X-128.842 Y250.000 Z15.552 F1291.756
G0 X-128.842 Y250.000 Z19.095
G0 X-128.842 Y250.000 Z21.095
G0 X-145.902 Y250.000 Z21.095
G0 X-145.902 Y250.000 Z19.095
G1 X-145.902 Y250.000 Z14.462 F200.000
G1 X-145.902 Y314.567 Z11.027 F1291.756
G1 X-145.865 Y315.033 Z11.002 F1291.717
G1 X-145.757 Y315.487 Z10.977 F1291.718
G1 X-145.580 Y315.918 Z10.952 F1291.718
G1 X-145.338 Y316.317 Z10.927 F1291.718
G1 X-145.037 Y316.674 Z10.902 F1291.717
G1 X-144.685 Y316.980 Z10.877 F1291.717
G1 X-144.289 Y317.227 Z10.853 F1291.718
G1 X-143.860 Y317.410 Z10.828 F1291.718
G1 X-143.408 Y317.524 Z10.803 F1291.718
G1 X-142.926 Y317.567 Z10.777 F1291.715
G1 X-132.927 Y317.649 Z10.245 F1291.756
G1 X-132.461 Y317.617 Z10.220 F1291.718
G1 X-132.006 Y317.512 Z10.195 F1291.718
G1 X-131.573 Y317.339 Z10.170 F1291.718
G1 X-131.172 Y317.100 Z10.146 F1291.718
G1 X-130.813 Y316.802 Z10.121 F1291.718
G1 X-130.643 Y316.624 Z10.108 F1291.746
G1 X-130.489 Y316.432 Z10.095 F1291.746
G1 X-130.242 Y316.036 Z10.078 F1304.465
G1 X-130.059 Y315.607 Z10.061 F1304.465
G1 X-129.945 Y315.155 Z10.045 F1304.465
G1 X-129.902 Y314.698 Z10.029 F1304.466
G1 X-128.842 Y250.049 Z7.735 F1304.491
G1 X-128.842 Y250.000 Z7.733 F1304.491
G0 X-128.842 Y250.000 Z19.095
G0 X-128.842 Y250.000 Z21.095
G0 X-145.902 Y250.000 Z21.095
G0 X-145.902 Y250.000 Z19.095
G1 X-145.902 Y250.000 Z7.006 F200.000
G1 X-145.902 Y314.567 Z4.716 F1304.491
G1 X-145.865 Y315.033 Z4.699 F1304.465
G1 X-145.757 Y315.487 Z4.683 F1304.465
G1 X-145.580 Y315.918 Z4.666 F1304.465
G1 X-145.338 Y316.317 Z4.650 F1304.465
G1 X-145.037 Y316.674 Z4.633 F1304.465
G1 X-144.685 Y316.980 Z4.616 F1304.465
G1 X-144.289 Y317.227 Z4.600 F1304.465
G1 X-143.860 Y317.410 Z4.583 F1304.465
G1 X-143.408 Y317.524 Z4.567 F1304.465
G1 X-142.926 Y317.567 Z4.550 F1304.463
G1 X-132.927 Y317.649 Z4.195 F1304.491
G1 X-132.461 Y317.617 Z4.178 F1304.465
G1 X-132.006 Y317.512 Z4.162 F1304.465
G1 X-131.573 Y317.339 Z4.145 F1304.465
G1 X-131.172 Y317.100 Z4.129 F1304.465
G1 X-130.813 Y316.802 Z4.112 F1304.465
G1 X-130.643 Y316.624 Z4.103 F1304.484
G1 X-130.489 Y316.432 Z4.095 F1304.484
G1 X-130.242 Y316.036 Z4.083 F1312.971
G1 X-130.059 Y315.607 Z4.072 F1312.971
G1 X-129.945 Y315.155 Z4.061 F1312.971
G1 X-129.902 Y314.698 Z4.051 F1312.971
G1 X-128.842 Y250.049 Z2.521 F1312.988
G1 X-128.842 Y250.000 Z2.520 F1312.988
G0 X-128.842 Y250.000 Z19.095
G0 X-128.842 Y250.000 Z21.095
G0 X-145.902 Y250.000 Z21.095
G0 X-145.902 Y250.000 Z19.095
G1 X-145.902 Y250.000 Z2.036 F200.000
G1 X-145.902 Y314.567 Z0.508 F1312.988
G1 X-145.865 Y315.033 Z0.497 F1312.971
G1 X-145.757 Y315.487 Z0.486 F1312.971
G1 X-145.580 Y315.918 Z0.475 F1312.971
G1 X-145.338 Y316.317 Z0.464 F1312.971
G1 X-145.037 Y316.674 Z0.453 F1312.971
G1 X-144.685 Y316.980 Z0.442 F1312.971
G1 X-144.289 Y317.227 Z0.431 F1312.971
G1 X-143.860 Y317.410 Z0.420 F1312.971
G1 X-143.408 Y317.524 Z0.409 F1312.971
G1 X-142.926 Y317.567 Z0.397 F1312.969
G1 X-132.927 Y317.649 Z0.161 F1312.988
G1 X-132.461 Y317.617 Z0.150 F1312.971
G1 X-132.006 Y317.512 Z0.139 F1312.971
G1 X-131.573 Y317.339 Z0.128 F1312.971
G1 X-131.172 Y317.100 Z0.117 F1312.971
G1 X-130.813 Y316.802 Z0.106 F1312.971
G1 X-130.643 Y316.624 Z0.100 F1312.983
G1 X-130.489 Y316.432 Z0.094 F1312.983
G2 X-129.902 Y314.698 Z0.094 I-2.413 J-1.783 F1330.000
G1 X-128.842 Y250.049 Z0.094 F1330.000
G2 X-128.842 Y250.000 Z0.094 I-3.000 J-0.049 F1330.000
G0 X-128.842 Y250.000 Z19.095
G0 X-128.842 Y250.000 Z21.095
G0 X-145.902 Y250.000 Z21.095
G0 X-145.902 Y250.000 Z19.095
G1 X-145.902 Y250.000 Z0.094 F200.000
G1 X-145.902 Y314.567 Z0.094 F1330.000
G2 X-142.926 Y317.567 Z0.094 I3.000 J0.000 F1330.000
G1 X-132.927 Y317.649 Z0.094 F1330.000
G2 X-130.489 Y316.432 Z0.094 I0.025 J-3.000 F1330.000
G1 X-130.489 Y316.432 Z16.095 F200.000
G0 X-130.489 Y316.432 Z19.095
G0 X-130.489 Y316.432 Z21.095
(finish operation: DressupTag012)
(begin postamble)
M05
G17 G54 G90 G80 G40
M2
