(Exported by FreeCAD)
(Post Processor: mach3_mach4_post)
(Output Time:2026-05-22 10:00:25.603310)
(begin preamble)
G17 G54 G40 G49 G80 G90
G21
(begin operation: Fixture)
(machine: mach3_4, mm/min)
G54
(finish operation: Fixture)
(begin operation: TC: 6mm Endmill custom002)
(machine: mach3_4, mm/min)
(TC: 6mm Endmill custom002)
M5
M6 T2 
G43 H2
M3 S19000
(finish operation: TC: 6mm Endmill custom002)
(begin operation: DressupTag011)
(machine: mach3_4, mm/min)
G0 Z19.095
G0 X0.000 Y0.000 Z21.095
G0 X-171.902 Y250.000 Z21.095
G0 X-171.902 Y250.000 Z19.095
G1 X-171.902 Y250.000 Z14.154 F200.000
G1 X-171.902 Y312.630 Z11.076 F1294.673
G1 X-171.902 Y312.630 Z11.076 F1294.673
G1 X-171.902 Y313.856 Z11.016 F1294.673
G1 X-171.865 Y314.321 Z10.993 F1294.637
G1 X-171.757 Y314.775 Z10.970 F1294.637
G1 X-171.580 Y315.207 Z10.947 F1294.638
G1 X-171.338 Y315.606 Z10.924 F1294.637
G1 X-171.037 Y315.962 Z10.901 F1294.637
G1 X-170.685 Y316.268 Z10.878 F1294.637
G1 X-170.289 Y316.515 Z10.855 F1294.637
G1 X-169.860 Y316.698 Z10.832 F1294.638
G1 X-169.408 Y316.813 Z10.809 F1294.637
G1 X-168.902 Y316.856 Z10.784 F1294.630
G1 X-158.902 Y316.856 Z10.293 F1294.673
G1 X-158.436 Y316.819 Z10.270 F1294.637
G1 X-157.982 Y316.711 Z10.247 F1294.637
G1 X-157.551 Y316.534 Z10.224 F1294.637
G1 X-157.152 Y316.292 Z10.201 F1294.637
G1 X-156.795 Y315.992 Z10.178 F1294.637
G1 X-156.489 Y315.639 Z10.155 F1294.637
G1 X-156.242 Y315.243 Z10.132 F1294.637
G1 X-156.059 Y314.814 Z10.109 F1294.637
G1 X-156.015 Y314.673 Z10.102 F1294.669
G1 X-155.978 Y314.530 Z10.095 F1294.669
G1 X-155.921 Y314.195 Z10.083 F1306.425
G1 X-155.902 Y313.856 Z10.072 F1306.425
G1 X-155.902 Y291.929 Z9.354 F1306.438
G1 X-155.873 Y291.327 Z9.334 F1306.424
G1 X-155.772 Y290.733 Z9.314 F1306.424
G1 X-155.601 Y290.154 Z9.295 F1306.424
G1 X-155.361 Y289.601 Z9.275 F1306.424
G1 X-155.057 Y289.081 Z9.255 F1306.424
G1 X-154.692 Y288.601 Z9.235 F1306.424
G1 X-154.272 Y288.168 Z9.215 F1306.424
G1 X-153.803 Y287.789 Z9.196 F1306.424
G1 X-153.292 Y287.469 Z9.176 F1306.424
G1 X-152.746 Y287.213 Z9.156 F1306.424
G1 X-152.174 Y287.024 Z9.136 F1306.424
G1 X-151.785 Y286.938 Z9.123 F1306.432
G1 X-151.391 Y286.883 Z9.110 F1306.432
G1 X-150.036 Y286.838 Z9.066 F1306.435
G1 X-148.902 Y286.856 Z9.029 F1306.436
G1 X-148.437 Y286.819 Z9.013 F1306.414
G1 X-147.983 Y286.712 Z8.998 F1306.414
G1 X-147.551 Y286.534 Z8.983 F1306.414
G1 X-147.152 Y286.293 Z8.967 F1306.414
G1 X-146.795 Y285.992 Z8.952 F1306.414
G1 X-146.489 Y285.639 Z8.937 F1306.414
G1 X-146.242 Y285.244 Z8.922 F1306.414
G1 X-146.059 Y284.814 Z8.906 F1306.414
G1 X-145.945 Y284.362 Z8.891 F1306.414
G1 X-145.902 Y283.856 Z8.874 F1306.410
G1 X-145.902 Y250.000 Z7.765 F1306.438
G0 X-145.902 Y250.000 Z19.095
G0 X-145.902 Y250.000 Z21.095
G0 X-171.902 Y250.000 Z21.095
G0 X-171.902 Y250.000 Z19.095
G1 X-171.902 Y250.000 Z6.801 F200.000
G1 X-171.902 Y312.630 Z4.749 F1306.438
G1 X-171.902 Y312.630 Z4.749 F1306.438
G1 X-171.902 Y313.856 Z4.709 F1306.438
G1 X-171.865 Y314.321 Z4.693 F1306.414
G1 X-171.757 Y314.775 Z4.678 F1306.414
G1 X-171.580 Y315.207 Z4.663 F1306.414
G1 X-171.338 Y315.606 Z4.647 F1306.414
G1 X-171.037 Y315.962 Z4.632 F1306.414
G1 X-170.685 Y316.268 Z4.617 F1306.414
G1 X-170.289 Y316.515 Z4.602 F1306.414
G1 X-169.860 Y316.698 Z4.586 F1306.414
G1 X-169.408 Y316.813 Z4.571 F1306.414
G1 X-168.902 Y316.856 Z4.554 F1306.410
G1 X-158.902 Y316.856 Z4.227 F1306.438
G1 X-158.436 Y316.819 Z4.211 F1306.414
G1 X-157.982 Y316.711 Z4.196 F1306.414
G1 X-157.551 Y316.534 Z4.181 F1306.414
G1 X-157.152 Y316.292 Z4.165 F1306.414
G1 X-156.795 Y315.992 Z4.150 F1306.414
G1 X-156.489 Y315.639 Z4.135 F1306.414
G1 X-156.242 Y315.243 Z4.120 F1306.414
G1 X-156.059 Y314.814 Z4.104 F1306.414
G1 X-156.015 Y314.673 Z4.099 F1306.435
G1 X-155.978 Y314.530 Z4.095 F1306.436
G1 X-155.921 Y314.195 Z4.087 F1314.278
G1 X-155.902 Y313.856 Z4.080 F1314.278
G1 X-155.902 Y291.929 Z3.601 F1314.286
G1 X-155.873 Y291.327 Z3.587 F1314.276
G1 X-155.772 Y290.733 Z3.574 F1314.277
G1 X-155.601 Y290.154 Z3.561 F1314.277
G1 X-155.361 Y289.601 Z3.548 F1314.277
G1 X-155.057 Y289.081 Z3.535 F1314.277
G1 X-154.692 Y288.601 Z3.522 F1314.276
G1 X-154.272 Y288.168 Z3.508 F1314.276
G1 X-153.803 Y287.789 Z3.495 F1314.277
G1 X-153.292 Y287.469 Z3.482 F1314.277
G1 X-152.746 Y287.213 Z3.469 F1314.277
G1 X-152.174 Y287.024 Z3.456 F1314.277
G1 X-151.785 Y286.938 Z3.447 F1314.282
G1 X-151.391 Y286.883 Z3.438 F1314.282
G1 X-150.036 Y286.838 Z3.409 F1314.284
G1 X-148.902 Y286.856 Z3.384 F1314.285
G1 X-148.437 Y286.819 Z3.374 F1314.270
G1 X-147.983 Y286.712 Z3.363 F1314.270
G1 X-147.551 Y286.534 Z3.353 F1314.270
G1 X-147.152 Y286.293 Z3.343 F1314.270
G1 X-146.795 Y285.992 Z3.333 F1314.270
G1 X-146.489 Y285.639 Z3.323 F1314.270
G1 X-146.242 Y285.244 Z3.312 F1314.270
G1 X-146.059 Y284.814 Z3.302 F1314.270
G1 X-145.945 Y284.362 Z3.292 F1314.270
G1 X-145.902 Y283.856 Z3.281 F1314.267
G1 X-145.902 Y250.000 Z2.541 F1314.286
G0 X-145.902 Y250.000 Z19.095
G0 X-145.902 Y250.000 Z21.095
G0 X-171.902 Y250.000 Z21.095
G0 X-171.902 Y250.000 Z19.095
G1 X-171.902 Y250.000 Z1.898 F200.000
G1 X-171.902 Y312.630 Z0.530 F1314.286
G1 X-171.902 Y312.630 Z0.530 F1314.286
G1 X-171.902 Y313.856 Z0.503 F1314.286
G1 X-171.865 Y314.321 Z0.493 F1314.270
G1 X-171.757 Y314.775 Z0.483 F1314.270
G1 X-171.580 Y315.207 Z0.473 F1314.270
G1 X-171.338 Y315.606 Z0.463 F1314.270
G1 X-171.037 Y315.962 Z0.452 F1314.270
G1 X-170.685 Y316.268 Z0.442 F1314.270
G1 X-170.289 Y316.515 Z0.432 F1314.270
G1 X-169.860 Y316.698 Z0.422 F1314.270
G1 X-169.408 Y316.813 Z0.412 F1314.270
G1 X-168.902 Y316.856 Z0.400 F1314.267
G1 X-158.902 Y316.856 Z0.182 F1314.286
G1 X-158.436 Y316.819 Z0.172 F1314.270
G1 X-157.982 Y316.711 Z0.162 F1314.270
G1 X-157.551 Y316.534 Z0.151 F1314.270
G1 X-157.152 Y316.292 Z0.141 F1314.270
G1 X-156.795 Y315.992 Z0.131 F1314.270
G1 X-156.489 Y315.639 Z0.121 F1314.270
G1 X-156.242 Y315.243 Z0.110 F1314.270
G1 X-156.059 Y314.814 Z0.100 F1314.270
G1 X-156.015 Y314.673 Z0.097 F1314.284
G1 X-155.978 Y314.530 Z0.094 F1314.285
G2 X-155.902 Y313.856 Z0.094 I-2.923 J-0.675 F1330.000
G1 X-155.902 Y291.929 Z0.094 F1330.000
G3 X-151.391 Y286.883 Z0.094 I5.004 J-0.066 F1330.000
G3 X-148.902 Y286.856 Z0.094 I1.524 J25.249 F1330.000
G2 X-145.902 Y283.856 Z0.094 I0.000 J-3.000 F1330.000
G1 X-145.902 Y250.000 Z0.094 F1330.000
G0 X-145.902 Y250.000 Z19.095
G0 X-145.902 Y250.000 Z21.095
G0 X-171.902 Y250.000 Z21.095
G0 X-171.902 Y250.000 Z19.095
G1 X-171.902 Y250.000 Z0.094 F200.000
G2 X-155.978 Y314.530 Z0.094 I0.000 J-3.000 F1330.000
G1 X-155.978 Y314.530 Z15.093 F200.000
G0 X-155.978 Y314.530 Z19.095
G0 X-155.978 Y314.530 Z21.095
(finish operation: DressupTag011)
(begin postamble)
M05
G17 G54 G90 G80 G40
M2
