(Exported by FreeCAD)
(Post Processor: mach3_mach4_post)
(Output Time:2026-05-22 10:00:25.603310)
(begin preamble)
G17 G54 G40 G49 G80 G90
G21
(begin operation: Fixture)
(machine: mach3_4, mm/min)
G54
(finish operation: Fixture)
(begin operation: TC: 6mm Endmill custom002)
(machine: mach3_4, mm/min)
(TC: 6mm Endmill custom002)
M5
M6 T2 
G43 H2
M3 S19000
(finish operation: TC: 6mm Endmill custom002)
(begin operation: DressupTag014)
(machine: mach3_4, mm/min)
G0 Z19.095
G0 X0.000 Y0.000 Z21.095
G0 X-100.066 Y250.000 Z21.095
G0 X-100.066 Y250.000 Z19.095
G1 X-100.066 Y250.000 Z14.838 F200.000
G1 X-128.729 Y299.657 Z12.553 F1301.341
G1 X-129.101 Y300.375 Z12.520 F1301.331
G1 X-129.408 Y301.124 Z12.488 F1301.331
G1 X-129.645 Y301.897 Z12.456 F1301.331
G1 X-129.812 Y302.689 Z12.424 F1301.331
G1 X-129.908 Y303.492 Z12.391 F1301.331
G1 X-129.931 Y304.301 Z12.359 F1301.331
G1 X-129.881 Y305.108 Z12.327 F1301.331
G1 X-129.759 Y305.908 Z12.295 F1301.331
G1 X-129.566 Y306.693 Z12.262 F1301.331
G1 X-129.303 Y307.458 Z12.230 F1301.331
G1 X-128.973 Y308.197 Z12.198 F1301.331
G1 X-128.577 Y308.902 Z12.166 F1301.331
G1 X-128.120 Y309.570 Z12.133 F1301.331
G1 X-127.605 Y310.193 Z12.101 F1301.331
G1 X-127.036 Y310.768 Z12.069 F1301.331
G1 X-126.417 Y311.289 Z12.037 F1301.331
G1 X-125.575 Y311.865 Z11.996 F1301.325
G1 X-109.845 Y320.949 Z11.272 F1301.341
G1 X-109.127 Y321.321 Z11.240 F1301.331
G1 X-108.378 Y321.628 Z11.207 F1301.331
G1 X-107.605 Y321.865 Z11.175 F1301.331
G1 X-106.813 Y322.032 Z11.143 F1301.331
G1 X-106.010 Y322.128 Z11.111 F1301.331
G1 X-105.202 Y322.151 Z11.078 F1301.331
G1 X-104.394 Y322.102 Z11.046 F1301.331
G1 X-103.595 Y321.980 Z11.014 F1301.331
G1 X-102.809 Y321.787 Z10.982 F1301.331
G1 X-102.044 Y321.524 Z10.949 F1301.331
G1 X-101.306 Y321.193 Z10.917 F1301.331
G1 X-100.600 Y320.798 Z10.885 F1301.331
G1 X-99.933 Y320.341 Z10.853 F1301.331
G1 X-99.309 Y319.826 Z10.820 F1301.331
G1 X-98.735 Y319.257 Z10.788 F1301.331
G1 X-98.213 Y318.638 Z10.756 F1301.331
G1 X-97.639 Y317.797 Z10.715 F1301.325
G1 X-97.646 Y317.792 Z10.715 F1301.341
G1 X-97.551 Y317.654 Z10.708 F1301.341
G1 X-89.855 Y304.321 Z10.095 F1301.341
G1 X-59.365 Y251.500 Z8.474 F1310.888
G1 X-59.164 Y251.079 Z8.461 F1310.869
G1 X-59.031 Y250.632 Z8.449 F1310.869
G1 X-58.980 Y250.318 Z8.441 F1310.879
G1 X-58.963 Y250.000 Z8.432 F1310.879
G0 X-58.963 Y250.000 Z19.095
G0 X-58.963 Y250.000 Z21.095
G0 X-100.066 Y250.000 Z21.095
G0 X-100.066 Y250.000 Z19.095
G1 X-100.066 Y250.000 Z7.257 F200.000
G1 X-128.729 Y299.657 Z5.733 F1310.888
G1 X-129.101 Y300.375 Z5.712 F1310.882
G1 X-129.408 Y301.124 Z5.690 F1310.882
G1 X-129.645 Y301.897 Z5.669 F1310.882
G1 X-129.812 Y302.689 Z5.647 F1310.882
G1 X-129.908 Y303.492 Z5.626 F1310.882
G1 X-129.931 Y304.301 Z5.604 F1310.882
G1 X-129.881 Y305.108 Z5.583 F1310.882
G1 X-129.759 Y305.908 Z5.561 F1310.882
G1 X-129.566 Y306.693 Z5.540 F1310.882
G1 X-129.303 Y307.458 Z5.518 F1310.882
G1 X-128.973 Y308.197 Z5.497 F1310.882
G1 X-128.577 Y308.902 Z5.475 F1310.882
G1 X-128.120 Y309.570 Z5.454 F1310.882
G1 X-127.605 Y310.193 Z5.432 F1310.882
G1 X-127.036 Y310.768 Z5.411 F1310.882
G1 X-126.417 Y311.289 Z5.389 F1310.882
G1 X-125.575 Y311.865 Z5.362 F1310.878
G1 X-109.845 Y320.949 Z4.879 F1310.888
G1 X-109.127 Y321.321 Z4.858 F1310.882
G1 X-108.378 Y321.628 Z4.836 F1310.882
G1 X-107.605 Y321.865 Z4.815 F1310.882
G1 X-106.813 Y322.032 Z4.793 F1310.882
G1 X-106.010 Y322.128 Z4.772 F1310.882
G1 X-105.202 Y322.151 Z4.750 F1310.882
G1 X-104.394 Y322.102 Z4.729 F1310.882
G1 X-103.595 Y321.980 Z4.707 F1310.882
G1 X-102.809 Y321.787 Z4.686 F1310.882
G1 X-102.044 Y321.524 Z4.664 F1310.882
G1 X-101.306 Y321.193 Z4.643 F1310.882
G1 X-100.600 Y320.798 Z4.621 F1310.882
G1 X-99.933 Y320.341 Z4.600 F1310.882
G1 X-99.309 Y319.826 Z4.578 F1310.882
G1 X-98.735 Y319.257 Z4.557 F1310.882
G1 X-98.213 Y318.638 Z4.535 F1310.882
G1 X-97.639 Y317.797 Z4.508 F1310.878
G1 X-97.646 Y317.792 Z4.508 F1310.888
G1 X-97.551 Y317.654 Z4.504 F1310.888
G1 X-89.855 Y304.321 Z4.095 F1310.888
G1 X-59.365 Y251.500 Z3.014 F1317.256
G1 X-59.164 Y251.079 Z3.006 F1317.243
G1 X-59.031 Y250.632 Z2.997 F1317.243
G1 X-58.980 Y250.318 Z2.992 F1317.250
G1 X-58.963 Y250.000 Z2.986 F1317.250
G0 X-58.963 Y250.000 Z19.095
G0 X-58.963 Y250.000 Z21.095
G0 X-100.066 Y250.000 Z21.095
G0 X-100.066 Y250.000 Z19.095
G1 X-100.066 Y250.000 Z2.203 F200.000
G1 X-128.729 Y299.657 Z1.187 F1317.256
G1 X-129.101 Y300.375 Z1.172 F1317.252
G1 X-129.408 Y301.124 Z1.158 F1317.252
G1 X-129.645 Y301.897 Z1.144 F1317.252
G1 X-129.812 Y302.689 Z1.129 F1317.252
G1 X-129.908 Y303.492 Z1.115 F1317.252
G1 X-129.931 Y304.301 Z1.101 F1317.252
G1 X-129.881 Y305.108 Z1.086 F1317.252
G1 X-129.759 Y305.908 Z1.072 F1317.252
G1 X-129.566 Y306.693 Z1.058 F1317.252
G1 X-129.303 Y307.458 Z1.043 F1317.252
G1 X-128.973 Y308.197 Z1.029 F1317.252
G1 X-128.577 Y308.902 Z1.015 F1317.252
G1 X-128.120 Y309.570 Z1.000 F1317.252
G1 X-127.605 Y310.193 Z0.986 F1317.252
G1 X-127.036 Y310.768 Z0.972 F1317.252
G1 X-126.417 Y311.289 Z0.957 F1317.252
G1 X-125.575 Y311.865 Z0.939 F1317.249
G1 X-109.845 Y320.949 Z0.617 F1317.256
G1 X-109.127 Y321.321 Z0.603 F1317.252
G1 X-108.378 Y321.628 Z0.589 F1317.252
G1 X-107.605 Y321.865 Z0.574 F1317.252
G1 X-106.813 Y322.032 Z0.560 F1317.252
G1 X-106.010 Y322.128 Z0.546 F1317.252
G1 X-105.202 Y322.151 Z0.531 F1317.252
G1 X-104.394 Y322.102 Z0.517 F1317.252
G1 X-103.595 Y321.980 Z0.503 F1317.252
G1 X-102.809 Y321.787 Z0.488 F1317.252
G1 X-102.044 Y321.524 Z0.474 F1317.252
G1 X-101.306 Y321.193 Z0.460 F1317.252
G1 X-100.600 Y320.798 Z0.445 F1317.252
G1 X-99.933 Y320.341 Z0.431 F1317.252
G1 X-99.309 Y319.826 Z0.417 F1317.252
G1 X-98.735 Y319.257 Z0.402 F1317.252
G1 X-98.213 Y318.638 Z0.388 F1317.252
G1 X-97.639 Y317.797 Z0.370 F1317.249
G1 X-97.646 Y317.792 Z0.370 F1317.256
G1 X-97.551 Y317.654 Z0.367 F1317.256
G1 X-89.855 Y304.321 Z0.094 F1317.256
G1 X-59.365 Y251.500 Z0.094 F1330.000
G2 X-58.963 Y250.000 Z0.094 I-2.598 J-1.500 F1330.000
G0 X-58.963 Y250.000 Z19.095
G0 X-58.963 Y250.000 Z21.095
G0 X-100.066 Y250.000 Z21.095
G0 X-100.066 Y250.000 Z19.095
G1 X-100.066 Y250.000 Z0.094 F200.000
G1 X-128.729 Y299.657 Z0.094 F1330.000
G2 X-125.575 Y311.865 Z0.094 I7.801 J4.496 F1330.000
G2 X-109.845 Y320.949 Z0.094 I4912.814 J-8488.070 F1330.000
G2 X-97.639 Y317.797 Z0.094 I4.496 J-7.799 F1330.000
G1 X-97.646 Y317.792 Z0.094 F1330.000
G1 X-97.551 Y317.654 Z0.094 F1330.000
G1 X-89.855 Y304.321 Z0.094 F1330.000
G1 X-89.855 Y304.321 Z16.095 F200.000
G0 X-89.855 Y304.321 Z19.095
G0 X-89.855 Y304.321 Z21.095
(finish operation: DressupTag014)
(begin postamble)
M05
G17 G54 G90 G80 G40
M2
